/* XPM */
static char *f0a67a4e9eb045c2c6efd22473ecc19azKhIO8KBeu2FHkXz[] = {
/* columns rows colors chars-per-pixel */
"250 231 237 2 ",
"   c #140F1A",
".  c #07111C",
"X  c #08131E",
"o  c #290E19",
"O  c #0A1621",
"+  c #0D1A25",
"@  c #09112C",
"#  c #0F1C29",
"$  c #141625",
"%  c #111E2A",
"&  c #121735",
"*  c #2F1330",
"=  c #0E252A",
"-  c #13212E",
";  c #162A29",
":  c #19382C",
">  c #0C2339",
",  c #132333",
"<  c #182633",
"1  c #152935",
"2  c #192936",
"3  c #142639",
"4  c #162A3C",
"5  c #1B2D3B",
"6  c #123534",
"7  c #1E303D",
"8  c #302929",
"9  c #21313D",
"0  c #530B14",
"q  c #541131",
"w  c #144C37",
"e  c #2A512C",
"r  c #146739",
"t  c #15783A",
"y  c #2E6628",
"u  c #367922",
"i  c #425B2E",
"p  c #714320",
"a  c #526D2E",
"s  c #151351",
"d  c #2E1A50",
"f  c #0A2A48",
"g  c #172D42",
"h  c #1D3243",
"j  c #163249",
"k  c #1E3749",
"l  c #1F384A",
"z  c #1D3A53",
"x  c #223543",
"c  c #243847",
"v  c #283A47",
"b  c #203749",
"n  c #233B4D",
"m  c #293D4C",
"M  c #243E51",
"N  c #253F53",
"B  c #221773",
"V  c #2E1A74",
"C  c #053A6A",
"Z  c #521950",
"A  c #561E61",
"S  c #512270",
"D  c #2B404F",
"F  c #264154",
"G  c #2B4354",
"H  c #25435B",
"J  c #2A4659",
"K  c #2D495D",
"L  c #314655",
"P  c #324B5B",
"I  c #364C5A",
"U  c #2D5250",
"Y  c #0B4B6E",
"T  c #2E4D62",
"R  c #284964",
"E  c #324E62",
"W  c #384F60",
"Q  c #2E516C",
"!  c #345165",
"~  c #3A5464",
"^  c #3F5867",
"/  c #365569",
"(  c #39566A",
")  c #37586E",
"_  c #3A596D",
"`  c #384877",
"'  c #365775",
"]  c #3D5D72",
"[  c #3F6075",
"{  c #3E6279",
"}  c #4C5055",
"|  c #405767",
" . c #435C6D",
".. c #415E72",
"X. c #436275",
"o. c #4A6475",
"O. c #43647A",
"+. c #49667A",
"@. c #46697E",
"#. c #4A6A7D",
"$. c #516C7E",
"%. c #814615",
"&. c #3D891E",
"*. c #16843B",
"=. c #3A8321",
"-. c #68872C",
";. c #0E0F92",
":. c #2F1A87",
">. c #4A2382",
",. c #044E90",
"<. c #31628A",
"1. c #0762B4",
"2. c #246BAA",
"3. c #3675A9",
"4. c #426780",
"5. c #466A84",
"6. c #4A6D83",
"7. c #476F89",
"8. c #486F8A",
"9. c #516F82",
"0. c #4D7186",
"q. c #47708A",
"w. c #49718B",
"e. c #4F798F",
"r. c #537285",
"t. c #52758B",
"y. c #597688",
"u. c #54798E",
"i. c #5A7A8E",
"p. c #4D7690",
"a. c #477A92",
"s. c #4E7992",
"d. c #537B94",
"f. c #557995",
"g. c #5B7D93",
"h. c #557E99",
"j. c #607E91",
"k. c #417AA6",
"l. c #0D73CD",
"z. c #067CE5",
"x. c #3F96A5",
"c. c #3BACB5",
"v. c #468499",
"b. c #47859B",
"n. c #4A839A",
"m. c #49889E",
"M. c #5C8196",
"N. c #57819A",
"B. c #5B849C",
"V. c #5C869C",
"C. c #628296",
"Z. c #62859B",
"A. c #63889F",
"S. c #698A9E",
"D. c #478EA3",
"F. c #4A8DA3",
"G. c #5C86A1",
"H. c #5E89A3",
"J. c #5F8CA9",
"K. c #4494A6",
"L. c #4A95A9",
"P. c #4897AB",
"I. c #4A9FB2",
"U. c #519CB2",
"Y. c #668BA5",
"T. c #628CA4",
"R. c #6B8EA3",
"E. c #628DAC",
"W. c #6D91A6",
"Q. c #6691A8",
"!. c #6394AD",
"~. c #6A94AD",
"^. c #7195AB",
"/. c #7398AD",
"(. c #628DB1",
"). c #6695B4",
"_. c #6B97B0",
"`. c #6798B1",
"'. c #6A9AB3",
"]. c #6794BB",
"[. c #6E9EB8",
"{. c #729CB5",
"}. c #779DB4",
"|. c #739FB8",
" X c #4BA2B5",
".X c #48A6B7",
"XX c #4CABBC",
"oX c #50ADBD",
"OX c #6FA0B9",
"+X c #75A2BB",
"@X c #79A4BE",
"#X c #358DD7",
"$X c #1084EB",
"%X c #0483F4",
"&X c #0087FD",
"*X c #0088FF",
"=X c #4E91C1",
"-X c #6D9BC6",
";X c #6E9FC5",
":X c #709FCB",
">X c #50AFC0",
",X c #48B7C6",
"<X c #77A6C0",
"1X c #7AA7C0",
"2X c #7CAAC4",
"3X c #71A1CC",
"4X c #7EAFC8",
"5X c #7FB0C9",
"6X c #73A4D0",
"7X c #76A5D3",
"8X c #77A7D8",
"9X c #78A8D8",
"0X c #7AAADC",
"qX c #7DADE4",
"wX c #7DADE5",
"eX c #4FC0CD",
"rX c #50C2CF",
"tX c #4AC7D5",
"yX c #46CAD4",
"uX c #4BCBD9",
"iX c #53C6D3",
"pX c #47D0D9",
"aX c #4CD1DF",
"sX c #4BD5E2",
"dX c #4CDAE5",
"fX c #4CDDEA",
"gX c #52DDE6",
"hX c #4DE2ED",
"jX c #55F9FE",
"kX c #80A6BC",
"lX c #80ADC6",
"zX c #81AFC8",
"xX c #82B3CD",
"cX c #88B5CF",
"vX c #84B6D0",
"bX c #84B6D1",
"nX c #89B9D2",
/* pixels */
"wXwXwXwXwXwXwXwXwXwXwXwXwXwXwXwXwXwXwXwXwXwXwXwXwXwXwXwXwXwXwXwXwXwXwXwXwXwXwXwXwXwXwXwXwXwXwXwXwXwXwXwXwXwXwXwXwXwXwXwXwXwXwXwXwXwXwXwXwXwXwXwXwXwXwXwXwXwXwXwXwXwXwXwXwXwXwXwXwXwXwXwXwXwXwXwXwXwXwXwXwXwXwXwXwXwXwXwXwXwXwXwXwXwXwXwXwXwXwXwXwXwXwXwXwXwXwXwXwXwXwXwXwXwXwXwXwXwXwXwXwXwXwXwXwXwXwXwXwXwXwXwXwXwXwXwXwXwXwXwXwXwXwXwXwXwXwXwXwXwXwXwXwXwXwXwXwXwXwXwXwXwXwXwXwXwXwXwXwXwXwXwXwXwXwXwXwXwXwXwXwXwXwXwXwXwXwXwXwXwXwXwXwXwXwXwXwXwXwXwXwXwXwXwXwXwXwXwXwXwXwXwXwXwXwXwXwXwXwXwXwXwXwXwXwXwXwXwXwXwX",
"wXwXwXwXwXwXwX0X6X6X6X6X6X6X6X6X6X6X6X6X6X6X6X6X6X6X6X6X6X6X6X6X6X6X6X6X6X6X6X6X6X6X6X6X6X6X6X6X6X6X6X6X6X6X6X6X6X6X6X6X6X6X6X6X6X6X6X6X6X6X6X6X6X6X6X6X6X6X6X6X6X6X6X6X6X6X6X6X6X6X6X6X6X6X7XwXwXwXwXwXwXwXwXwXwXwXwXwXwXwXwXwXwXwXwXwXwXwXwXwXwXwXwXwXwXwXwXwXwXwXwXwXwXwXwXwXwXwXwXwXwXwXwXwXwXwXwXwXwXwXwXwXwXwXwXwXwXwXwXwXwXwXwXwXwXwXwXwXwXwXwXwXwXwXwXwXwXwXwXwXwXwXwXwXwXwXwXwXwXwXwXwXwXwXwXwXwXwXwXwXwXwXwXwXwXwXwXwXwXwXwXwXwXwXwXwXwXwXwXwXwXwXwXwXwXwXwXwXwXwXwXwXwXwXwXwXwXwXwXwXwXwXwXwXwXwXwXwXwXwX",
"wXwXwXwXwXwX9X6.5 5 5 5 5 5 5 5 5 5 5 5 5 5 5 5 5 5 5 5 5 5 5 5 5 5 5 5 5 5 5 5 5 5 5 5 5 5 5 5 5 5 5 5 5 5 5 5 5 5 5 5 5 5 5 5 5 5 5 5 5 5 5 5 5 5 5 5 5 5 5 5 5 5 5 5 5 5 5 5 5 5 5 5 5 5 K 3XwXwXwXwXwXwXwXwXwXwXwXwXwXwXwXwXwXwXwX9X9X9X9X9X9X9X9X9X9X9X9X9X9X9X9X9X9X9X9X9X9X9X9X9X9X9X9X9X9XwXwXwXwXwXwXwXwXwXwXwXwXwXwXwXwXwXwXwXwXwXwXwXwXwXwXwXwXwXwXwXwXwXwXwXwXwXwXwXwXwXwXwXwXwXwXwXwXwXwXwXwXwXwXwXwXwXwXwXwXwXwXwXwXwXwXwXwXwXwXwXwXwXwXwXwXwXwXwXwXwXwXwXwXwXwXwXwXwXwXwX7X5.J ].wXwXwXwXwXwXwXwXwXwX",
"wXwXwXwXwX9X6.O . . . . . . . . . . . . . . . . . . . . . . . . . . . . . . . . . . . . . . . . . . . . . . . . . . . . . . . . . . . . . . . . . . . . . . . . . . . . . . . . . . . . . . . P 6XwXwXwXwXwXwXwXwXwXwXwXwXwXwXwXwXwXs.2 2 2 2 2 2 2 2 2 2 2 2 2 2 2 2 2 2 2 2 2 2 2 2 2 2 2 2 2 5 8.9XwXwXwXwXwXwXwXwXwXwXwXwXwXwXwXwXwXwXwXwXwXwXwXwXwXwXwXwXwXwXwXwXwXwXwXwXwXwXwXwXwXwXwXwXwXwXwXwXwXwXwXwXwXwXwXwXwXwXwXwXwXwXwXwXwXwXwXwXwXwXwXwXwXwXwXwXwXwXwXwXwXwXwXwXwXwXwX0XG.5 2 G # _ :XwXwXwXwXwXwXwXwX",
"wXwXwXwX9X6.O . . . . . . . . . . . . . . . . . . . . . . . . . . . . . . . . . . . . . . . . . . . . . . . . . . . . . . . . . . . . . . . . . . . . . . . . . . . . . . . . . X . . . . . . . / 7XwXwXwXwXwXwXwXwXwXwXwXwXwXwXwXh.# . . . . . . . . . . . . . . . . . . . . . . . . . . . . . . . v (.wXwXwXwXwXwXwXwXwXwXwXwXwXwXwXwXwXwXwXwXwXwXwXwXwXwXwXwXwXwXwXwXwXwXwXwXwXwXwXwXwXwXwXwXwXwXwXwXwXwXwXwXwXwXwXwXwXwXwXwXwXwXwXwXwXwXwXwXwXwXwXwXwXwXwXwXwXwXwXwXwXwXwXwXwX].J % o.`.`.g.7 , 0.8XwXwXwXwXwXwX",
"wXwXwX9X6.O . . . . . . . . . . . . . . . . . . . . . . . . . . . . . . . . . . . . . . . . . . . . . . . . . . . . . . . . . . . . . . . . . . . . . . . . . . . . . . . . 5 M.T.c . . . . . . . ] 7XwXwXwXwXwXwXwXwXwXwXwXwXwXJ.# . . . . . . . . . . X < L  .o.$.$.+. .L 2 X . . . . . . . . . . . O ] 6XwXwXwXwXwXwXwXwXwXwXwXwXwXwXwXwXwXwXwXwXwXwXwXwXwXwXwXwXwXwXwXwXwXwXwXwXwXwXwXwXwXwXwXwXwXwXwXwXwXwXwXwXwXwXwXwXwXwXwXwXwXwXwXwXwXwXwXwXwXwXwXwXwXwXwXwXwXwXwXwXwXwX@.% W ~.!.`.!.`.`.#.- x -XwXwXwXwXwX",
"wXwXwX;X# . . . . . . . . . . . . . . . . . . . . . . . . . . . . . . . . . . . . . . . . . . . . . . . . . . . . . . . . . . . . . . . . . . . . . . . . . . . . . . . % #.[.!.!.[.t., . . . . . X ].wXwXwXwXwXwXwXwXwXwXwXwX(.% . . . . . . . . < o.y.g.M.g.u.d.g.g.u.d.u.M.g.y.o.5 . . . . . . . . . . 2 h.0XwXwXwXwXwXwXwXwXwXwXwXwXwXwXwXwXwXwXwXwXwXwXwXwXwXwXwXwXwXwXwXwXwXwXwXwXwXwXwXwXwXwXwXwXwXwXwXwXwXwXwXwXwXwXwXwXwXwXwXwXwXwXwXwXwXwXwXwXwXwXwXwXwXwXwXwXwXwXwX0Xx +.`.`.!.`.`.!.`.!.~.X G.wXwXwXwXwX",
"wXwXwX;X# . . . . . . . . . . . X 5 7 7 7 5 7 7 7 5 5 7 7 7 5 7 5 7 7 7 7 5 7 7 7 7 5 5 7 5 7 7 7 7 5 7 5 5 5 7 7 5 5 5 7 5 5 5 O . . . . . . . . . . . . . . . . . X ~ '.`.'.!.!.'.`.[.X.+ . . . X ).wXwXwXwXwXwXwXwXwXwXwX]., . . . . . . O ^ i.M.u.Q.2XvXvXvXvXvXvXvXvXvXvX4X~.u.g.i. .O . . . . . . . . X G X.X.X.X.X.X.X.X.X.X.X.X.X.X.X.X.X.X.X.X.X.X.X.X.X.X.X.X.X.X.X.X.X.X.X.X.X.X.X.X.X.X.X.X.X.X.X.X.X.X.X.X.X.X.X.X.X.X.X.X.X.X.X.X.X.X.X.X.X.X.X.X.X.X.X.X.X.X.X.X.- 6.!.`.!.`.!.`.`.!.'.X G.wXwXwXwXwX",
"wXwXwX;X# . . . . . . . . . . . ..d.d.d.d.d.d.d.d.d.d.N.h.d.d.d.d.d.d.d.d.d.d.d.d.d.d.d.d.d.d.d.d.d.d.d.d.d.d.d.d.d.d.d.d.d.d.d.+.. . . . . . . . . . . . . . . . m Q.[.!.!.`.`.`.`.!.!.'.~.P . . X ).wXwXwXwXwXwXwXwXwXwX-X2 . . . . . O  .C.u.~.xXvXvXvXvXvXvXvXvXvXvXvXvXvXvXvXvXvX'.t.g.o.O . . . . . . . . . . . . . . . . . . . . . . . . . . . . . . . . . . . . . . . . . . . . . . . . . . . . . . . . . . . . . . . . . . . . . . . . . . . . . . . . . . . . . . . . . 6.!.`.!.`.`.!.`.`.[.X G.wXwXwXwXwX",
"wXwXwX;X# . . . . . . . . . . G d.w.w.d.Q.G.T.T.B.w.d.'.T.h.N.q.7.7.7.q.7.q.7.q.7.q.q.7.7.q.7.7.q.7.q.q.7.7.q.7.7.q.q.q.7.q.7.q.p.P . . . . . . . . . . . . . . , +X!.!.`.!.`.!.!.`.!.`.!.!.OXc . X ).wXwXwXwXwXwXwXwXwX:X5 . . . . . G C.u.+XvXvXvXvXvXvXvXvXvXvXvXvXvXvXvXvXvXvXvXvXvXvX+Xt.g.I . . . . . . . . . . . . . . . . . . . . . X . . . . . . . . . . . . . . . . . . . . . . . . . . . . . . . . . . . . . . . . . . . . . . . . . . . . . . . . . . . . . . . . . . 6.!.`.!.`.`.`.`.!.[.X G.wXwXwXwXwX",
"wXwXwX;X# . . . . . . . . . 5 d.q.B.G.N.{.N.~.p.w.B.d.Q.B.B.q.q.q.q.q.q.q.q.q.q.q.q.q.q.q.q.q.q.q.7.q.q.q.q.q.q.q.q.q.q.q.q.7.q.q.d.x . . . . . . . . . . . . . , OX!.!.'.`.'.!.!.'.`.'.!.!.[.m . X ).wXwXwXwXwXwXwXwX3Xx . . . . + r.u.~.vXvXvXvXvXvXxX+XV.t.0.t.u.u.u.0.0.B.+XxXvXvXvXvXvX~.l _ y.% . . . . . . . . . . . . . . . . . . . . . . . . . . . . . . . . . . . . . . . . . . . . . . . . . X . . . . . . . . . . . . . . . . . . . . . . . . . . . . . . . . . . . . 6.!.`.!.`.`.`.`.!.[.X G.wXwXwXwXwX",
"wXwXwX;X# . . . . . . . . # d.q.7.7.7.q.q.7.8.7.8.7.7.7.8.7.7.7.7.7.7.7.7.8.7.7.7.7.7.7.8.7.7.7.8.7.7.8.8.7.7.8.7.7.7.7.7.7.7.7.7.q.d.- . . . . . . . . . . . . , +X`.'.!.!.`.`.`.`.!.!.'.`.[.m . X ).wXwXwXwXwXwXwX7Xn . . . . 2 C.u.xXvXvXvXvXvX+Xu.t.M.M.i.6.+._ ( +.6.i.R.Y.u.t.{.vXvXxX! k k K C.9 . . . . - X m G F F F F F D F D F F F F F 2 . X.+.+.+.+.+.+.+.+.+.+.+.+.+.+.+.+.+.+.+.+.+.+.~ . # G F G F F F F F F F F F F F n + X G F F G F G F F F F F F F F F - . . . #.`.`.!.`.`.!.`.!.`.X G.wXwXwXwXwX",
"wXwXwX;X# . . . . . . . X 6.q.q.q.h.d.q.d.q.w.q.q.q.p.q.q.q.d.q.q.q.q.w.d.w.q.d.w.d.q.q.q.h.w.q.q.q.q.q.w.B.q.q.d.q.q.q.q.q.q.q.q.q.q.0.O . . . . . . . . . . . , +X!.!.`.!.`.!.!.`.!.`.!.!.[.m . X ).wXwXwXwXwXwX7XJ . . . . c C.A.vXvXvXvXvX'.6.M.g.X.@.F M.4XxXu._ xXxX'.d./ ! g.M.6.~.V.l l F +XY.g.D . . . O m 5 ] _ _ _ _ _ _ _ _ _ _ _ _ _ ] 5 G [.!.!.!.!.!.!.!.!.!.!.!.!.!.!.!.!.!.!.!.!.!.'.X.. K ' _ _ _ _ _ _ _ _ +._ _ _ _ ( O x ] _ _ ' ] ] _ _ _ X._ _ _ _ ] - . . O ~ !.!.`.`.`.`.0., - ).wXwXwXwXwX",
"wXwXwX;X# . . . . . . . ( w.8.q.q.'.~.N.T.N.p.~.G.G.Y.d.@Xd.w.T.d.q.7.T.{.B.d.T.d.{.q.8.d.+XT.N.q.'.'.q._.{.d.d.d.q.8.q.7.q.7.8.7.q.8.w.X.. . . . . . . . . . . , OX!.!.'.`.'.!.!.'.`.'.!.!.[.m . X ).wXwXwXwXwX9X! . . . . v M.~.vXvXvXvX2X6.M.u.M T.xX'.K K K M n l M K ! Q.M k l n r.Z.K k n Y.vXvX'.i.L . . . O m 5 ] _ _ _ X.@.@.A.d.B.d.6._ _ ] 5 G [.!.!.!.!.!.!.H.J.J.E.N.O.H.J.B.d.B.!.!.!.!.'.X.. K ' _ ] Z.X.u.Y.O.V.@.B.t._ _ / O c ] @.6.6.~.] _ X.^.g.6.X.Z.t.] - . . . - #.`.`.V.x O ! :XwXwXwXwXwXwX",
"wXwXwX;X# . . . . . . m d.q.7.7.q.h.G.7.N.7.p.V.q.h.G.w.N.d.N.q.N.q.7.N.T.d.q.h.8.T.q.7.w.Y.w.q.q.d.d.q.d.T.q.N.7.q.7.q.q.8.7.8.7.q.q.q.s.G . . . . . . . . . . , +X`.'.!.!.`.`.`.`.!.!.'.`.[.m . X ).wXwXwXwX0X_ . . . . 9 C.~.vXvXvXvXQ.r.M.] ~.J ] J l k l l l k l k l n Q.l k k l k n g.6.] vXvXvXvX{.i.v . . . O m 5 ] _ _ X.6.6.Y.@.V._ ] 6._ _ ] 5 G [.!.!.!.!.!.N.!.H.H.J.d.!.!.!.6.B.!.!.!.!.!.'.... K ' ] B.X.V.g._ t._ 5.t._ _ _ ( O c ] [ O.6.#._ _ M.X.' ] 0.@._ ] - . . . . 7 P X + G.wXwXwXwXwXwXwXwX",
"wXwXwX;X# . . . . . 2 d.q.q.q.q.q.q.q.q.q.7.q.q.q.q.q.q.q.q.q.q.q.q.q.q.q.q.q.q.7.q.q.7.q.q.q.q.q.7.q.q.q.q.q.7.q.q.q.q.q.q.7.q.7.q.q.q.q.d.5 . . . . . . . . . , +X!.!.`.!.`.!.!.`.!.`.!.!.[.m . X ).wXwXwX0XX.. . . . % Z.Y.vXvXvXvXg.C...g.4X0.n l l l l l l l l l l l E M.l l l l l l l _ Z.t.xXvXvXvX~.g.2 . . . O m 5 ] _ _ _ _ _ _ _ _ _ _ _ _ _ ] 5 G {.!.!.!.!.!.!.!.!.!.!.!.!.!.!.!.!.!.!.!.!.!.'.... K ' _ _ _ _ _ _ _ _ _ _ _ _ _ / O c ] _ _ _ _ _ _ _ _ _ _ _ _ _ ] - . . . . . . - 7XwXwXwXwXwXwXwXwX",
"wXwXwX;X# . . . . # u.q.q.q.q.q.q.q.q.q.q.q.q.q.q.q.q.q.q.q.q.q.q.q.q.q.q.q.q.q.q.q.q.q.q.q.q.q.q.8.q.q.q.q.q.q.q.q.q.q.q.q.8.q.q.q.q.q.q.q.d.% . . . . . . . . , OX!.!.'.`.'.!.!.'.`.'.!.!.[.m . X ).wXwXwX6.X . . . X j.g.vXvXvXxXt.Y.] K ] J l l l l l l n G / ! _ ! J @.O.l l l l l l l l G Y.0.xXvXvXvXV.C.O . . . O m 5 ] _ ) _ _ _ _ _ _ _ _ _ _ _ ] 5 G [.!.!.!.!.!.!.!.!.!.!.!.!.!.!.!.!.!.!.!.!.!.[. .. K ' _ _ _ _ _ _ _ _ _ _ _ _ _ ( + c ] _ _ _ _ _ _ _ _ _ _ _ _ _ ] - X . . . . - 7XwXwXwXwXwXwXwXwX",
"wXwXwX;X# . . . . #.q.8.8.8.8.8.8.8.q.8.8.8.q.8.8.8.8.8.8.8.8.8.8.8.7.8.8.q.8.q.8.8.8.8.q.7.8.8.q.8.q.8.8.8.7.8.8.8.8.8.7.8.8.q.8.8.q.8.8.8.q.0.X . . . . . . . # B.[.'.!.!.`.`.`.`.!.!.'.'.T.- . X ).wXwXp.O . . . .  .t.xXvXvXvXu.Y.] 2X0.k k k k k n X.6.+X0.V.O.0.u.0.V.K k l k k k k k k k M Y.0.vXvXvXvXt.+.. . . . O m 5 ] _ _ _ _ _ _ _ _ _ _ _ _ _ ] 2 G [.!.!.!.!.!.!.!.!.!.!.!.!.!.!.!.!.!.!.!.!.!.'. .. K ' _ _ _ _ _ _ _ _ _ _ _ _ _ / O c ] _ _ _ _ _ _ _ _ _ _ _ _ _ ] - . . . . - 7XwXwXwXwXwXwXwXwX",
"wXwXwX;X# . . . ~ h.s.s.s.s.s.s.s.s.s.s.s.s.s.s.s.s.s.s.s.s.s.s.s.s.s.s.s.s.s.s.s.s.s.s.s.s.s.s.s.s.s.s.s.s.s.s.s.s.s.s.s.s.s.s.s.s.s.s.s.s.s.d. .. . . . . . . . . G Q.`.!.`.!.!.`.!.`.!.! X . . X ).wXh.O . . . . < M.+XvXvXvXV.A.! 2X6.l k k k l @.g.g.@.6.6.6.6.t.6.6.'./ n l k l k l l k l M F Y.g.vXvXvX2Xi.9 . . . . O m 5 [ ] ] ] ] ] ] ] ] ] ] ] ] ] O.5 L +X[.[.[.[.[.[.[.[.[.[.[.[.[.[.[.[.[.[.[.[.[.+X .. K ] ] ] ] ] ] ] ] ] ] ] ] ] ] _ O n [ ] ] ] ] ] ] [ ] ] ] ] ] ] X.- . . . - 7XwXwXwXwXwXwXwXwX",
"wXwXwX;X# . . . < x x x x x x x x x x x x x x x x x x x x x x x x x x x x x x x x x x x x x x x x x x x x x x x x x x x x x x x x x x x x x x x 2 . . . . . . . . . . O  .[.'.!.!.'.[.#.# . . . . X ).7X- . . . . . y.M.vXvXvX{.g.] M ! l l k k K ~.+.6.0./ n k k l k k l n ! 6.O.n k k k k l F ) K K M.~.vXvXvXV.i.. . . . . + m D G G G G G G G G G G G G G G D c I ^ ^ ^ ^ ^ ^ ^ ^ ^ ^ ^ ^ ^ ^ ^ ^ ^ ^ ^ ^ ^ | I c c G G G G G G G G G G G G G G G c c G G G G G G G G G G G G G G G , . . . - 7XwXwXwXwXwXwXwXwX",
"wXwXwX;X# . . . . . . . . . . . . . . . . . . . . . . . . . . . . . . . . . . . . . . . . . . . . . . . . . . . . . . . . . . . . . . . . . . . . . . . . . . . . . . . . - r.[.[.g.2 . . . . . . X ).6X# . . . . x g.xXvXvXxX6.t.~.d.k k l k X.g.#.t./ k k k k k k k k l k k k K u.! k k l J ) / M k #.6.xXvXvXxXu.m . . . . . . . . . . . . . . . . . . . . . . . . . . . . . . . . . . . . . . . . . . . . . . X X . . . . . . . . . . . . . . . . . . . . . . . . . . . . . . . . . . . . . - 7XwXwXwXwXwXwXwXwX",
"wXwXwX;X# . . . . . . . . % _  .- . . . . . . . . . . . . . . . . . . . . . . . . . . . . . . . . . . . . . . . . . . . . . . . . . . . . . . . . . . . . . . . . . . . . . . x m . . . . . . . . X ).6X# . . . . y.N.vXvXvXN.A.6.+XM l l l ] 0.#.O.l l l l l l l l l l l l l l l l ] X.l K ) ! n n ) M Z.d.vXvXvXT.i.. . . . . . . . . . . . . . . . . . . . . . . . . . . . . 7 m m m m m m m m m m m m m m m m m m m m m m m m m m m m m m m m m m m m m m m m m m m m m m m m m m m x . . . - 7XwXwXwXwXwXwXwXwX",
"wXwXwX;X# . . . . . . O W 6._ _ 6.~ O . . . . . . . . . . . . . . . . . . . . . . . . . . . . . . . . . . . . . . . . . . . . . . . . . . . . . . . . . . . . . . . . . . . . . . . . . . . . . . X ).6X# . . . - M.4XvXvXxXt.( d._ k k k F ~.5._ k k k k k k k k n ] / M l k l k k k ! +.E T n K 4.8./ E u.2XvXvXxXg.2 . . . . . . . . . . . . . . . . . . . . . . . . . . . . d.E.J.!.!.!.B.H.!.N.!.!.!.!.!.B.p.q.q.q.q.p.q.q.q.q.w.w.q.q.q.q.p.q.q.q.q.w.q.q.q.q.q.p.q.q.q.q.p.q.q.q.0.. . . - 7XwXwXwXwXwXwXwXwX",
"wXwXwX;X# . . . . . % 0.] ' 2.2.' ] 0., . . . . . . . . . . . . . . . . . . . . . . . . . . . . . . . . . . . . . . . . . . . . . . . . . . . . . . . . . . . . . . . . . . . . . . . . . . . . . X ).6X# . . . ..u.vXvXvXN.Z.] G l l l F '._ ] l l l l l l l l l l G 6.V.6.! l l l l l ( ] M ] 8.5.! l l C.d.vXvXvXu.$.. . . . . . . . . . X X . . . . . . . X : e : O . . . . d.d.d.!.!.!.w.w.H.d.H.J.N.J.J.q.w.q.q.q.q.w.q.q.q.q.q.w.q.q.q.q.w.q.q.q.q.e.q.q.q.q.q.w.q.q.q.q.w.q.q.q.0.. . . - 7XwXwXwXwXwXwXwXwX",
"wXwXwX;X# . . . . . v [ <.z.&X&X$X<.] G . . . . . . . . . . . . . . . . . . . . . . . . . . . . . . . . . . . . . . . . . . . . . . . . . . . . . . . . . . . . . . . . . . . . . . . . . . . . . X ).6X# . . . i.~.vXvXvX0.+.2X/ l l T.6.O.6.l l l l l l l l l l l l k n _ u.6.M l l l l @./ 7.) n n ] { / t.xXvXvX+Xi.. . . . . . . . . . . . . . . . . . . e u e u y X . . . d.J.H.J.!.!.J.J.!.J.!.!.!.!.q.q.p.q.q.q.q.p.q.q.q.7.q.e.q.7.q.q.p.q.q.q.7.w.q.q.q.q.q.p.q.q.7.q.p.q.q.q.0.. . . - 7XwXwXwXwXwXwXwXwX",
"wXwXwX;X# . . . . . v [ 2.*X*X*X*X2.] G . . . . % . . . . % - # X . . . . . . . % . . . . . . . . . . . . . . . . . . . . . . . . . . . . . . . . . . . . . . . . . . . . . . . . . . . . . . . . X ).6X# . . # M.xXvXvX{.M.@.{.l l _ vX'.0.J l l l F M l l l l l l l l l l n +.u.F l l l M u.M G @.J.!.J.n B.~.vXvXvXi.2 . . . . . . . . . . . . . . . . . # =.1 , , e # . . . d.!.!.!.!.!.!.!.!.!.!.!.!.w.w.p.w.w.q.q.p.w.p.w.q.e.p.p.w.q.q.p.w.p.q.q.w.p.p.e.q.w.p.w.p.q.s.iXXXp.e.q.w.. . . - 7XwXwXwXwXwXwXwXwX",
"wXwXwX;X# . . . . . v [ 2.*X&X&X*X2.] G . . O % I X ~ ~ X ! o.x c ~ x m ~ 5 . +.G 5 . . . . . . . . . . . O 1 h n x 2 # . . . . . . . . . . . . . . . . . . . . . . . . . . . . . . . . . . . . . X ).6X# . . I d.vXvXvXd.M.+.@.l l Q.vX#.O.l l l n M.t.M l l l l k l l l l l l X.t.n k l l ] _ !.!.N.[ F l g.t.vXvXvXu.| . . . . . . . . . . . . . . . . . = =., , , , # . . . d.!.!.!.!.!.!.!.!.!.!.!.h.s.w.q.q.q.s.w.q.q.q.e.s.w.q.q.q.s.e.q.q.q.w.s.q.q.q.w.s.w.q.q.q.p.F.jXrXq.w.s.w.. . . - 7XwXwXwXwXwXwXwXwX",
"wXwXwX;X# . . . . . v 5.F.$X&X&X%X<.] G . . O # I X ^  .. ! o.x x ~ x x ~ x - G A.# . . . . . . . . X h ) 5.7.7.q.q.7.5.' b O . . . . . . . . . . . . . . . . . . . . . . . . . . . . . . . . . . X ).6X# . . $.g.vXvXvX0.#./ l k F xX2X6.n k l l 0.K M t.M l k n G G l l k l l l 6.X.k l l n 6.[ K l F / ) _ t.vXvXvXB.9.. . . . . . . % % # . x - c # O O O u e 4 n G O . . . 0.B.H.B.B.B.B.G.G.B.B.d.q.w.7.q.7.q.e.q.q.7.7.q.p.7.q.7.q.w.q.7.F.gXI.w.7.q.7.7.w.q.7.q.q.q.m.jXeXq.7.w.0.. . . - 7XwXwXwXwXwXwXwXwX",
"wXwXwX;X# . . . . . - Q.!.J.#Xl.' _ 0.2 . . . . - . X X . , 5 # O . . # . . . 2 # . . . . . . . . 1 ] 7.7.] J K h b G ] 7.8.O.5 . . . . . . . . . . . . . . . . . . . . . . . . . . . . . . . . . X ).6X# . . y.Y.vXvXxXi.X.2Xn l ] vXN.6.l k k F t.k l n t.M #.d.5.6.g.X.l l l k n [ n l l k 6.K 0.B.!.!.B.M g.4XvXvX'.y.. . . . . . . 5 m % % G x c < , 2 . = U E G = . . . . @.7.w.7.q.7.7.w.e.q.8.8.q.w.q.q.7.q.e.q.7.q.8.q.p.8.q.7.q.w.q.7.P.jXXXw.8.7.q.q.w.q.7.q.q.q.m.jXeXq.7.w.0.. . . - 7XwXwXwXwXwXwXwXwX",
"wXwXwX;X# . . . . . . # X.`.!.] 5._ % . . . . . . . . . . . . . . . . . . . . . . . . . . . . . n 5.7.) , . . . . . . O , J 5.7.J X . . . . . . . . . . . . . . . . . . . . . . . . . . . . . . . X ).6X# . . i._ 0.B.T.g.+._.l l d.vX6.O.l l k @.K k l l n Q.! l l l l ] 5.l l l l M _ l l k _ X.J.N.5.] K l g.{.vXvX2Xi.. . . . . . . . . . . . . . . . . . . . O . . . . . . @.q.s.q.q.7.q.e.p.q.7.q.q.P.F.q.7.q.p.w.q.q.q.q.s.q.q.q.q.s.w.7.P.jXXXs.q.q.q.q.s.q.7.q.q.e.F.jXeXq.q.s.0.. . . - 7XwXwXwXwXwXwXwXwX",
"wXwXwX;X# . . . . . . . . 2 t.@.5 . . . . . . . . . . . . . . . . . . . . . . . . . . . . . . F 7.O.2 # . . . . . . . . . . , { 7.M . . . . . . . . . . . . . . . . . . . . . . . . . . . . . . . X ).6X# . . g.l l l k g.6.V.l l T.vX6.! l k l u.l l l l / X.l l l l k l 0.J k k l l X.l l k J ] n n F K ! M g.Q.vXvXxXg.X . . . . . . . . . . . . . . . . . . = 6 = . . . . . 5.p.q.w.w.q.p.e.w.p.w.w.p.fXsXe.w.p.w.w.p.q.p.w.q.p.e.w.p.q.w.p.P.jXXXq.p.w. X,Xs.w.w.q.p.w.b.jXeXs.F.s.u.. . . - 7XwXwXwXwXwXwXwXwX",
"wXwXwX;X# . . . . X . . . . . . . . . . . . . . . . . . . . . . . . . . . . . . . . . . . . h 7.O.% . . . . . . . . . . . . . n E K . . . . . . . . . . . . . . . . . . . . . . . . . . . . . . . X ).6X# . . g.k k k k g.l l k l '.xX6.G l k k u.l k k k u.n k l k k k l G 6.k k l k X.k k k n 5.2XxXvXvXvX/ g.A.vXvXxXg.+ . . . . . . . . . . . . . . . . . w t r t w . . . . @.7.q.7.q.s.q.7.7.q.s.q.q.fXaXq.s.q.7.7.q.s.q.7.q.7.w.p.q.8.q.q.U.jXXX7.7.p.,XhXs.7.q.s.q.7.n.jXiXP.hXI.0.. . . - 7XwXwXwXwXwXwXwXwX",
"wXwXwX;X# . . . . . . . . . m G X . . . . . . . . . . . . . . . . . . . . . . . . . . . . # 4.7., . . . . . . % 1 - X . . . K 5.n r.n . . . . . . . . . . . . . . . . . . . . . . . . . . . . . . X ).6X# . . g.d.g.M.6.g.u.0.k n [.xX6.K l k k u.l k k k u.l k k k l k l n u.l k k k X.l l k G 6.N.B.M.g.g.K g.V.vXvXvXg.# . . . . . . . . . . . . . . . . + t 6 , 1 r # . . . @.q.q.8.q.w.q.8.7.8.w.8.q.fXaXq.w.8.q.8.8.w.8.8.q.8.q.e.q.8.q.7.U.jXXX8.8.w.,XhXa.q.q.p.8.8.n.jXiXP.hXI.0.. . . - 7XwXwXwXwXwXwXwXwX",
"wXwXwX;X# . . . . . . . 5 #.X.X.#.9 . . . . . . . . . . . . . . . . . . . . . . . . . . . K 8.G X . . . X 2 1 # X # 1 1 X O ' q.O.^ X.# . . . . . . . . . . . . . . . . . . . . . . . . . . . . . X ).6X# . . g.xXvXvXQ.g.d.g.k k _.vX6.G l k k u.l k k k u.n k l k l k l G 6.k k k k X.l l k n @.[ / J n l k g.T.vXvXxXg.O . . . . . . . . . . . . . . . . = t , , , , # . . . @.7.q.8.q.w.q.8.7.7.w.q.q.fXaXq.w.q.7.8.8.w.8.7.8.8.w.uX,X7.q.7.U.jXXX7.8.p.,XhXa.tXsXw.8.q.n.jXiXP.hXI.0.. . . - 7XwXwXwXwXwXwXwXwX",
"wXwXwX;X# . . . . . O  .5._ <.<._ @.X.+ . . . . . . . . . . . . . . . . . . . . . . . . + 5.O.5 # . . O 5 X O L  .I # . X . # 4.8.J ^ M . . . . . . . . . . . . . . . . . . . . . . . . . . . . . X ).6X# . . g.2XvXvX{.g.0.A.k k T.vX6.! k k l u.l k k k / X.k k k k k k 0.J k k l l X.l l k K #.vXvXvXxX2XK g.Q.vXvXxXg.X . . . . . . . . X # % - O O # # O t w , 7 M + . . . 5.q.q.q.e.s.w.q.8.w.F.F.q.fXaXw.s.q.8.8.w.I.uXF.q.q.s.dXtX8.q.e.U.jXXX7.w.s.,XhXs.uXdXs.w.q.n.jXiXU.hXI.0.. . . - 7XwXwXwXwXwXwXwXwX",
"wXwXwX;X# . . . . . c X.' l.&X&Xl.' ] G . . . . . . . . . . . . . . . . . . . . . . . . h 7.G C ,.j 1 5 X v o.5 O < ..I M.% . n 7.5. .! . . . . . . . . . . . . . . . . . . . . . . . . . . . . . X ).6X# . . i.{.vXvX2Xg.K ! k k ! ( G +.l k k @.K k k k l d./ l k k l [ @.l k k k M _ k l k ] K ( @.g.Q.+XM g.+XvXvX2Xi.. . . . . . . . . , m 5 D O O X.c . = t t r 4 . . . . @.p.p.p.q.q.e.p.p.e.,XyXs.fXsXq.q.e.p.p.w. XfXP.p.p.q.sXtXp.p.w.P.jX>Xp.w.q.,XhXn.uXdXq.w.p.m.jXeXP.hX Xu.. . . - 7XwXwXwXwXwXwXwXwX",
"wXwXwX;X# . . . X X v [ 2.*X*X*X*X2.] G . . . 5 X . . - - . . v 7 . . . . . . . . . . . T 7.1 l.*Xz., t.D  .. . . . . L I u.. O 5.7.G #.# . . . . . . . . . . . . . . . . . . . . . . . . . . . . X ).6X# . . y.Y.vXvXxXi.E g.n l l l l 6.l l l F t.l l l J 0.@.d.6.6.g.[ l l l l n X.n l l l 6.0.V.O.G l l F g.xXvXvX~.y.. . . . . . . . . . X . X X . . . . . O + O . . . . . @.q.p.q.D.eXm.w.e.q.,XyXw.fXaXq.q.q.w.q.q. XhXD.p.q.w.sXtXw.q.q.P.jXXXw.q.q.,XhXn.uXdXq.q.q.m.jXeXP.hX X0.. . . - 7XwXwXwXwXwXwXwXwX",
"wXwXwX;X# . . . . . v [ 2.*X*X*X*X2.] G . . . X 5 O .  .m . . I . . . . . . . . . . . . n ' 4 %X*X1.h ~ +.X . . . . X X I I - . ! ] h +.5 . . . . . . . . . . . . . . . . . . . . . . . . . . . . X ).6X# . . +.d.vXvXvX0.6.2X! k k k k @.M k k k 0.K k J 0.n k n G F l l k k l l 6.[ k k k n 6.g.xXvXxX{.X...r.vXvXvXM.9.. . . . . . . . . . . . . . . . . . . O + O . . . . . @.7.w.8.K.pXK.w.e.8.,XyXw.fXaXq.7.q.e.q.8. XfXD.p.q.w.sXtXw.q.7.P.jXXXw.q.q.,XhXn.uXdXq.I.P.m.jXeXP.hX X0.. . . - 7XwXwXwXwXwXwXwXwX",
"wXwXwX;X# . . . . . v X.3.*X&X&X&X2.] G . . . . . 2 O < #.. 7 G . . . . . . . . . . . . 1 #.> &X*X,.v ^ L . . m . I v . . L 5 P ~ ~ c $.x . . . . . . . . . . . . . . . . . . . . . . . . . . . . X ).6X# . . L d.vXvXvXg.M.T.u.k k k k F @.l k k n M.K 0.n k k l k k k l k k l ..u.n k l l X._ K F O.Y.xXO.g.t.vXvXvXu.^ . . . . . . . . . . . . . . . . . . , K } p 8 . . . . @.7.w.7.K.pXD.a.m.w.,XyXw.fXaXq.7.q.e.q.7. XfXD.p.q.q.sXtXw.q.7.P.jXXXw.q.q.,XhXn.uXdXq.fXtXm.jXeXP.hX X0.. . . - 7XwXwXwXwXwXwXwXwX",
"wXwXwX;X# . . . . . 5 Q.!.U.$Xz.<._ @.c . . . . . . . X O . . . . . . . . . . . . . . . 1 u.> &X*X,.J u.. . 2 L 2 - +.. L X.G #.+.^ c  .x . . . . . . . . . . . . . . . . . . . . . . . . . . . . X ).6X# . . # M.xXvXvX+XM._ O.k k k k l 0.J k k l G 0.n k k k l k k k k k l +.d.F k k k F u.Y.xXY.! l M n C.'.vXvXxXg., . . . . . . . . . . . . . . . . . O E k , 8 %.# . . . @.p.p.p.P.pXD.>XhXm.,XyXs.fXsXq.7.e.p.p.w. XfXP.p.w.q.sXtXp.p.w.P.jXoXs.b.w.,XhXn.uXdXq.fXtXm.jXeXP.hX Xu.. . . - 7XwXwXwXwXwXwXwXwX",
"wXwXwX;X# . . . . . . c V.!.!.] ] 6.v . . . . . . . . . . . . . . . . . . . . . . . . . - #.# &X&X1.2 ..L # . 2 . X # . o. .% 5 m P x 9.5 . . . . . . . . . . . . . . . . . . . . . . . . . . . . X ).6X# . . . i.Q.vXvXvX6.#._ ! k k K ~.0.0.l k l k k k k k k k k k k l ( u.6.M k l k k 6.~.u.A.xXvX~.E _ r.xXvXvX{.i.. . . . . . . . . . . . . . . . . . # ! , , , < # . . . 5.q.q.q.P.pXD.>XhXm.,XyXw.fXaXp.s.w.8.q.w. XfXD.q.q.s.dXtX8.q.e.I.jXXXK.,XF.,XhXs.uXdXs.fXtXn.jXiXU.hXI.0.. . . - 7XwXwXwXwXwXwXwXwX",
"wXwXwX;X# . . . . . . . X I Q.t.I X . . . . . . . . . . . . . . . . . . . . . . . . . . X X.m l.&Xz., ~ ~ ^ . . . . . L  .I x g.( P 2 u.% . . . . . . . . . . . . . . . . X X . . . . . . . . . . X ).6X# . . .  .u.vXvXvXV.Z.t.~.l k E xX5XO.X.l l k k l k k k k l J 6.Z.6.! l k k k k ] ( n t.Q.O.Y.xXE Z.d.vXvXvXu.o.. . . . . . . . + . X % O . X . X O # ! 3 , , g # . . . @.n.uXI.K.pXD.>XhXn.,XyXw.fXaXq.w.q.7.q.8. XfXD.b.D.e.dXtX8.q.7.I.jXXXK.,Xm.,XhXs.uXdXp.fXtXn.jXiXP.hXI.0.. . . - 7XwXwXwXwXwXwXwXwX",
"wXwXwX;X# . . . . . . . . . O # . . . . . . . . . . . . . . . . . . . . . . . . . . . . . K o.,.*X&XY G o. .o.< X -  .o.^ v G 2 ~ ~ G ! . . . . % . % . . O . . X I G . . % X.X . . . . . . . . . X ).6X# . . . % M.2XvXvXxX0.+.2XX.k l 0.vX+X+.[ l l l l l l l l n ] ! M l l k l l l _ [ l k l K T.g.! ~ u.4XvXvXxXg., . . . . . . . % c ^ 9 6.5 ^ D v I L . h ! G ! n X . . . @.m.hXXXK.pXD.>XhXn.,XyXw.fXaXq.w.q.7.q.8. XfXD..XyXa.dXtX7.q.7.I.jXXXK.,Xm.,XhXs.uXdXp.fXtXn.jXiXP.hXI.0.. . . - 7XwXwXwXwXwXwXwXwX",
"wXwXwX;X# . . . . . . . . . % - . . . . . . . . . . . . . . . . . . . . . . . . . . . . . h  .> %X*X%Xf G +.X. .o.o.o.^ c I r.X.x X 9.M . . . . ~ % X.. . c . . X M.6.. # X.2 X.X . P ~ ~ - . . . X ).6X# . . . . r.g.vXvXvXA.A.X.( l l l V.vX+X+.#.n k l l k k l l k k l k k l l l +.] l l l k l M V.~.W.M.vXvXvXV.i.. . . . . . . . . # O + 2 # X # . % # . . , h , X . . . . @.m.hXXXK.pXD.>XhXn.,XyXw.fXaXq.s.q.a.I.b. XfXD..XyXa.dXtXq.q.q.U.jXXXK.,XF.,XhXs.uXdXs.fXtXn.jXiXP.hXI.0.. . . - 7XwXwXwXwXwXwXwXwX",
"wXwXwX;X# . . . . . . . O ! 6.6.~ # . . . . . . . . . . . . X . . . . . . . . . . . . . . X /  .,.&X*Xz.f h P ( I r.D %  .2 X.X.( ~ X.# . . . . % ..^ . # . # . .  .g.- . - X., + . O + + X . . . X ).6X# . . . . 2 g.4XvXvXxX6.u.! V.n k n T.vX2X@.u._ l k l k l l l k l k l l ( u.+.+X_ l k l l V.~.t.6.xXvXvXxXi.x . . . . . . . . . . . . . . . . . X X . X . . . . . . . . 6.F.hXXXP.pXP.>XhXm.,XyXs.fXsXw.w.p.m.yXI. XhXP..XyXa.sXtXw.c.K.P.jXXXK.,Xb.,XhXs.uXdXw.fXtXb.jXeXP.hXI.u.. . . - 7XwXwXwXwXwXwXwXwX",
"wXwXwX;X# . . . . . . m 6.] _ _ ] 6.G . . . . . . . . . . . . . . . . . . . . . . . . . . . 5 6.5 1.&X&X1.5 . . . -  .I ^ o.# ~ c ( n . . . . . .  .- O 7 . x . . 5 7 O . . - % . . . . . . . . . X ).6X# . . . . . r.g.vXvXvX+Xu.X.+Xd.l k n g.xXxXV.@.0.X.F l k l l k l M ] 0.@.N.xXvXg.l k k 0.2X..g.{.xXvXvXN.i.. . . . . . . . . . . . . . . . . . . . . + e a i # . . . . @.m.hXXXK.pXD.>XhXn.,XyXe.fXaXq.7.q.m.yXP. XfXD.XXyXa.sXtXs.c.K.P.jXXXP.,Xb.,XhXm.uXdXq.fXtXF.jXeXP.hXXX0.. . . - 7XwXwXwXwXwXwXwXwX",
"wXwXwX;X# . . . . . 7 5._ ) ` ` ) _ O.v . . . . . . . . . . . . . . . . . . . . . . . . . . . G ! # ,.%Xj # . . . O i.+.# X.~ - y.K . . . . . . . . . . . . . . . . X X . . . . . . . . . . . . . X ).6X# . . . . . - C.+XvXvXvXY.C.] +XE l l l ] 1XvXxXV.J +.6.6.0.0.6.6.6.5.V.xXvX2XO.l l l K E ] A.V.xXvXvX1Xg.2 . . . . . . . . . . . . . . . . . . . . X a a e i a O . . . @.m.hXXXK.pXD.>XhXn.,XyXw.fXaXq.7.q.b.yXP. XhXD.XXyXa.sXtXa.c.K.P.jXXXP.,Xb.,XhXn.uXdXq.fXtXm.jXeXP.hX X0.. . . - 7XwXwXwXwXwXwXwXwX",
"wXwXwX;X# . . . . . v [ ) ` ` ` ` ) ] G . . . # 5 . # ~ # . # , . - , 2 . . . . . . . . . . . n q.O.1 > 2 . . . . . ^ o.G 5 m  .E O . . . . . . . . . . . . . . .   o o o   . . . . . . . . . . . X ).6X# . . . . . . ~ t.xXvXvXvXg.A.E J g.n k k M 0.2XV.k k k k n g.T.[.xXvXvX2Xu.F k k n g.+XK Y.u.vXxXxXxXt.X.. . . . . . . . . . . . . . . . . . . . . = -., , , e # . . . @.m.hXXXK.pXD.>XhXn.,XyXw.fXaXq.7.7.b.yXP. XfXD.XXyXa.sXtXa.c.K.P.jXXXP.,Xb.,XhXn.uXdXq.fXtXm.jXeXP.hX X0.. . . - 7XwXwXwXwXwXwXwXwX",
"wXwXwX;X# . . . . . v [ ) ` ` ` ` ) ] G . . - 5 m 7 c D ~ X . . . I V.m . . . . . . . . . . . . M 7.7.) - . . . . . L c 9  .6.G X . . . . . . . . . . . . . . . . o 0 0 0 0 0 o X . . . . . . . . X ).6X# . . . . . . . i.u.vXvXvXvXg.Z.] '.{.E l l l n F l l l l n 2XvXvX2XT.X.n l l l l Q.{.] A.t.vXvXvXvXg.g.X . . . . . . . . . . . . . . . . . . . . . # ! , , , 3 # . . . @.m.hXXXK.pXD.>XhXn.,XyXe.fXaXw.K.b.F.yXP. XhXP.XXyXa.sXtXs.c.K.P.jXoXP.,Xb.,XhXn.uXdXq.fXtXF.jXeXP.hXXXw.. . X - 7XwXwXwXwXwXwXwXwX",
"wXwXwX;X# . . . . . v [ ' ` ` ` ` ) ] G . . . % v . . v , . # , . G x 2 . . . . . . . . . . . . . 2 { 7.7.' G m ^ ^ L o.+.K 1 . . . . . . . . . . . . . . . . . .   0 0 0 0 0 0 0 o . . . . . . . X ).6X# . . . . . . . # Z.V.vXvXvXvXV.g.6.u.6.K G k k k k k k k l / ! F l k k k k F u.! ! #.M.g.vXvXvXvXY.C.- . . . . . . . . . . . . . . . . # . X + X , X F K k J J O . . . 6.F.hXXXP.pXP.>XhXm.,XyXe.fXsXs.c.K.b.yXI. XfXD..XyXn.sXtXw.c.K.U.jXXXK.,Xm.,XhXs.uXdXw.fXtXn.jXrXU.hXI.w.. . . - 7XwXwXwXwXwXwXwXwX",
"wXwXwX;X# . . . . . c N.!.p.` ` ` ) ] m . . . . . . . . . . . . . . . . . . . . . . . . . . . . . . X h ' 5.5.K E K J 5 O . . . . . X . . . . . . . . . . . . . . O - % X   o 0 0 q o X X X X X . X ).6X# . . . . . . . . 2 Z.Y.vXvXvXvX'.6.Z.J u.4XN.K l l l l l l l l l l l l l 6.2X~._ C.r.~.vXvXvXvX~.M.9 . . . . . . . . . . . . . . . . . X - , I < 5 . O h G b + . . . . @.m.hXXXK.pXD.>XhXn.,XyXw.fXaXw.c.x.b.yXP. XhXD..XyXa.dXtXw.c.K.U.jXXXK.,Xm.,XhXs.uXdXp.fXtXn.jXiXP.hXI.0.. . . - 7XwXwXwXwXwXwXwXwX",
"wXwXwX;X# . . . . . X  .!.!.J.] _ 6.( O . . . . . . . . . . . . . . . . . . . . . . . . . . . . . . . . . # 1 . . . . . . . . . . . . . . . . . . . . . . . . c W +.0.6.X.I x . o q q * X X . . . X ).6X# . . . . . . . . . 5 Z.T.vXvXvXvX5Xu.g.g...V.X.X.V.@.E n F F J l X.N.+X[ ( ..i.g.6.2XvXvXvXvXQ.g.c . . . . . . . . . . . . . . . . . . . . . % X X . . . . . . . . . . @.m.hXXXK.pXD.>XhXn.,XyXw.fXaXw.c.x.b.yXP. XfXD..XyXa.dXtXw.c.K.U.jXXXK.,Xm.,XhXs.uXdXp.fXtXn.jXiXP.hXI.0.. . . - 7XwXwXwXwXwXwXwXwX",
"wXwXwX;X# . . . . . . . , 0.`.6.+.2 . . . . . . . . . . . . . . . . . . . . . . . . . . . . . . . . . . . . . . . . . . . . . . . . . . . . . . . . . . . # ~ 0.Q.u.] ..u.Q.6.! # * q q $ . X X . X ).6X# . . . . . . . . . . 5 Z.M.xXvXvXvXvX+X0.g.C.+.( d.~.g.K xXxX5XM g.d.X.+.M.g.G l 6.vXvXvXvXV.C.c . . . . . . . . . . . . . . . . . . . . . . . . . . . . . . . . . . . @.m.hXXXK.pXD.>XhXn.,XyXw.fXaXw.c.x.b.yXP. XhXD..XyXa.dXtXw.c.x.I.jXXXK.,Xm.,XhXs.uXdXp.fXtXn.jXiXP.hXI.0.. . . - 7XwXwXwXwXwXwXwXwX",
"wXwXwX;X# . . . . . . . . . x c . . . . . . . . . . . . . . . . . . . . . . . . . . . . . . . . . . . . . . . . . . . . . . . . . . . . . . . . . . . . # _ T.X.3 , , , , 3 #.V.^ O q q q X . . . X ).6X# . . . . . . . . . . . - C.t.2XvXvXvXvXvX2Xg.r.g.M.g.u.5.#.#.6.u.g.M.g.r.d.+XF l n {.vX4Xt.C.< . . . . . . . . . . . . . . . . . . . . . . . . . . . . . . . . . . . . 6.F.hXXXP.pXD.>XhXm.,XyXe.fXsXs.c.x.b.yXI. XfXD..XyXn.dXtXw.c.K.I.jXXXK.,Xm.,XhXs.uXdXs.fXtXn.jXiXU.hXI.0.. . . , 7XwXwXwXwXwXwXwXwX",
"wXwXwX;X# . . . . . . . . . . . . . . . . . . . . . . . . . . . . . . . . . . . . . . . . . . . . . . . . . . . . . . . . . . . . . . . . . . . . . . . W V.E , , , , , , , , / M.P   q q $ X . . X ).6X# . . . . . . . . . . . . X +.g.T.vXvXvXvXvXvXvX2XQ.d.0.0.t.t.r.0.u.Y.2XvXvXvX6.l l / Y.u.$.O . . . . . . . . . . . . . . . . . . . . . . . . . . . . . . . . . . . . . @.F.hXXXK.pXD.>XhXn.,XyXs.fXaXw.c.K.F.yXP. XhXP.XXyXa.sXtXa.c.x.P.jXoXP.,Xb.,XhXn.uXdXq.fXtXF.jXeXP.hX Xu.. . . , 7XwXwXwXwXwXwXwXwX",
"wXwXwX;X# . . . . . . . . . . . . . . . . . . . . . . . . . . . . . . . . . . . . . . . . . . . . . . . . . . . . . . . . . . . . . . . . . . . . . . 2 #.0., , , , , , , , , , d.+.- * q * . . . X ).6X# . . . . . . . . . . . . . . x C.t.~.vXvXvXvXvXvXvXvXvXvXvXvXvXvXvXvXvXvXvXvX+Xl l ! C.m . . . . . . . . . . . . . . . . . . . . . . . . . . . . . . . . . . . . . . . @.e.F.a.a.b.w.n.D.e.b.b.q.F.m.q.a.a.s.b.a.s.F.a.n.b.w.D.m.s.b.a.s.P.n.a.b.w.n.D.s.m.F.q.D.F.s.P.m.s.D.n.0.. . . , 7XwXwXwXwXwXwXwXwX",
"wXwXwX;X# . . . . . . . . . . . . . . . . . . . . . . . . . . . . . . . . . . . . . . . . . . . . . . . . . . . . . . . . . . . . . . . . . . . . . . J T.g , , , , , , , , , , G V.L $ q q X . . X ).6X# . . . . . . . . . . . . . . . . I M.u.T.xXvXvXxXvXvXvXvXvXvXvXvXvXvXvXvXvXxXT...j.| X . . . . . . . . . . . . . . . . . . . . . . . . . . . . . . . . . . . . . . . . v P P P P P P P P P P P P P P P P P P P P P P P P P P P P P P P P P P P P P P P P P P P P P P P P P P P G . . . , 7XwXwXwXwXwXwXwXwX",
"wXwXwX;X# . . . . . . . . . . . . . . . . . . . . . . . . . . . . . . . X 2 L +.j.C.S.S.S.S.S.C.y. .c # . . . . . . . . . . . . . . . . . . . . @ @ . W T., , , , , , , , g +.Q.xX1XP $ Z Z X . . X ).6X# . . . . . . . . . . . . . . . . . X L i.M.u.V.+XxXvXvXvXvXvXvXvXvXxX+XA.u.g.i.I X . . . . . . . . . . . . . . . . . . . . . . . . . . . . . . . . . . . . . . . . . . . . . . . . . . . . . . . . . . . . . . . . . . . . . . . . . . . . . . . . . . . . . . . . . . . . . . . . . . , 7XwXwXwXwXwXwXwXwX",
"wXwXwX;X# . . . . . . . . . . . . . . . . . . . . . . . . . . . . 2 o.S.W.Z.6.X.] +.6.0.0.0.#.X...X.u.R.W.i.L # . . . . . . . . . . . . . . . @ ;.;.. _ B., , , , , , , , n u.6.+.~ P X Z Z $ . . X ).6X# . . . . . . . . . . . . . . . . . . . . # ~ r.i.M.M.d.d.d.d.u.g.M.M.i.r.^ - . X X . . . . . . . . . . . . . . . . . . . . . . X . . X . . . . . . . . . . . . . . . . % 2 2 2 2 2 2 2 2 2 2 2 2 2 2 2 2 2 2 2 2 2 2 2 2 2 2 2 2 2 2 2 2 2 2 2 2 2 2 2 2 2 2 2 2 2 2 2 2 2 2 2 2 . . . , 8XwXwXwXwXwXwXwXwX",
"wXwXwX;X# . . . . . . . . . . . . . . . . . . . . . . . . . % +.R.Z...+.N.{.xXvXvXvXvXvXvXvXvXvXvXxX2XQ.t.X.6.W.C.G X . . . . . . . . . . . . @ ;.;.. ~ Z., , , , , , , , , , , , , P X Z Z $ . . X ).6X# . . . . . . . . . . . . . . . . . . . . . . . . # 9 I |  . . .I 9 % . . . . . . . . . . . . . . . . . . . . . . . . . . . . . . . . . . . . . . . . . . . . . . . . . X.!.!.!.!.!.!.!.!.!.!.!.!.!.!.Q.d.w.w.w.p.h.p.p.w.w.d.d.w.w.w.p.h.p.w.w.w.d.d.w.w.w.p.h.w.w.w.w.h.s.w.w.h.# . . , 8XwXwXwXwXwXwXwXwX",
"wXwXwX;X# . . . . . . . . . . . . . . . . . . . . . . . 9 C.W.X.6.'.xXvXvXvXvXvXvXvXvXvXvXvXvXvXvXvXvXvXvXvX2XV.X.u.^. .O . . . . . . . . . X @ ;.;.@ P Q., , , , , , , , , , , , , L $ Z Z X . . X ).6X# . . . . . . . . . . . . . . . . . . . . X X X . . . . . . . . X . X X . . . . X X . . . . X X . . . . . X . . . . X . . . . . . X . . . . . . . . . . . . . . . . . . X.J.J.!.w.!.B.H.!.!.!.!.!.!.!.w.w.q.q.q.q.w.7.q.q.q.q.e.T.d.q.7.w.q.q.q.q.e.q.q.q.q.7.N.d.q.q.q.w.q.q.q.d.# . . , 7XwXwXwXwXwXwXwXwX",
"wXwXwX;X# . . . . . . . . . . . . . . . . . . . . . 2 C.C.] T.xXvXvXvXvXvXvXvXvXvXvXvXvXvXvXvXvXvXvXvXvXvXvXvXvXvX+X0.+.^. .X . . . . . . . X X B ;.s n t.E , , , , , 6.3 , , P , h x * Z Z . . . X ).6X# . . . . . . . . . . . . . . . . . . . . X X . . . . 5 J J J J L J L L J J J J J L J J J J L L J J J J J L J J J J L L J J J J J L J J J J J J J , . . . . . . . . . . X.!.!.!.d.J.N.!.!.!.!.!.!.!.p.q.w.q.q.q.q.w.q.q.q.q.q.e.H.H.q.q.w.q.8.q.q.e.q.q.q.q.q.T.H.q.q.q.w.q.q.q.d.# . . , 7XwXwXwXwXwXwXwXwX",
"wXwXwX;X# . . . . . . . . . . . . . . . . . . . O y.S.] Q.vXvXvXvXvXvXvXvXvXvXvXvXvXvXvXvXvXvXvXvXvXvXvXvXvXvXvXvXvXvX2X0.#.^.D . . . . . . . . s ;.B O _ Q.4 , , , , +XJ , , b X.W X Z A * . . . X ).6X# . . . . . . . . . . . . . . . . . . . . . . . . . , w.q.d.B.V.d.q.T.d.d.q.q.q.q.q.q.q.q.q.q.q.q.q.q.q.q.q.q.q.q.7.q.q.q.q.q.q.q.q.q.q.7.q.q.q.q.0.# . . . . . . . . . X.!.!.!.!.!.!.!.!.!.!.!.!.h.q.w.s.q.q.q.q.s.w.q.q.q.w.N.h.H.q.q.s.q.q.q.q.s.e.q.q.q.w.T.H.q.q.q.s.w.q.q.d.# . . , 7XwXwXwXwXwXwXwXwX",
"wXwXwX;X# . . . . . . . . . . . . . . . . . . m /.X.V.xXvXvXvXvXvXvXvXvXvXvXxX+XQ.N.u.0.0.t.g.A.'.2XvXvXvXvXvXvXvXvXvXvXvXu.n M.i.+ . . . . . . @ ;.:.s 7 X.Y.h , , , '.0., , , G 2 * A A O . . . X ).6X# . . . . . . . . . . . . . . . . . . . . . . . . O 6.w.B.B.B.G.w.d.G.N.w.q.q.q.q.q.q.q.q.q.q.q.q.q.q.q.q.q.q.q.q.q.q.q.q.q.q.q.q.q.q.q.q.q.q.q.q.q.+.. . . . . . . . . X.!.!.!.!.!.!.!.!.!.!.!.J.B.p.w.q.p.w.p.w.q.e.p.w.p.w.G.s.T.p.e.q.w.p.e.p.q.w.p.w.p.G.p.T.p.e.p.q.w.p.e.N.# . . , 7XwXwXwXwXwXwXwXwX",
"wXwXwX;X# . . . . . . . . . . . . . . . . X $.Z.+.2XvXvXvXvXvXvXvXvXxX'.t._ _ t.A.W.^.~.~.~.~.W.M.+.! O.V.2XvXvXvXvXvXvX2XF l l ! /.x . . . . . . s :.:.@ c ..Q.5.n 3 Q.+X, , J x $ A A * . . . . X ).6X# . . . . , #.m . . . . . . . . . . . . . . . . . X.q.q.p.w.q.q.q.q.q.q.w.q.q.q.w.q.w.w.q.q.w.q.q.q.q.p.q.q.w.q.q.q.q.q.q.q.q.q.q.q.q.q.7.q.q.q.q.q.w.W . . . . . . . . X.H.J.H.H.H.H.H.H.H.H.G.d.~.d.q.7.q.p.q.q.q.q.q.p.q.q.H.q.T.q.q.q.q.q.p.q.q.q.q.s.q.H.q.h.d.w.q.q.q.q.p.d.# . . , 7XwXwXwXwXwXwXwXwX",
"wXwXwX;X# . . . . . . . . . . . . . . . % R.+.V.vXvXvXvXvXvXxXxX+X0.( u.^.~.g._ J G K J l K K G P #.1X1XR.+._ T.xXvXvXvX6.k k k l / R.~ . . . . . O B :.:.@ 2 ! 5.d.T.T.u.J I , & A A Z X . . . . X ).6X# . . # X.`.!.`.g.2 . . . . . . . . . . . . . . P w.7.w.|.V.d.B.T.T.B._.d.B.w.w.@XV.B.T.d.q.'.N.s.~.d.~.V.d.w.7.7.7.7.7.7.7.7.7.7.7.7.7.7.7.7.7.7.q.7.w.c . . . . . . . ( N.H.7.7.7.7.q.e.7.7.7.H.p.H.7.7.7.e.q.7.7.7.7.p.7.7.H.7.H.q.7.7.q.q.w.7.d.~.q.w.7.H.7.w.B.e.8.7.7.7.w.d.# . . , 7XwXwXwXwXwXwXwXwX",
"wXwXwX;X# . . . . . . . . . . . . . . , ^._ +XvXvXvXvXvXvXvX{.X.#.^.Y.( K ! k B.4XxXvXM.k {.vXxX2X@.~.( G 6./.Z.( d.5X+Xn k k l 6.xXt.i.$.. . . . . @ V :.:.s O , G G G D - O d S S A $ . . . . . X ].6X# . P Q.!.!.`.`.!.[.+.# . . . . . . . . . . . x w.8.8.q.w.q.q.w.q.p.q.q.w.q.q.q.w.q.w.w.q.8.w.q.8.8.8.w.q.w.8.8.8.8.8.7.8.8.q.8.8.8.8.8.8.8.8.8.8.q.7.8.w., . . . . . . ( H.T.q.q.7.8.w.e.8.8.8.H.w.H.q.8.8.e.q.8.8.d.h.p.8.8.H.8.H.q.7.q.Y.B.w.8.H.B.w.w.q.H.q.q.T.e.8.8.8.8.w.d.# . . , 7XwXwXwXwXwXwXwXwX",
"wXwXwX;X# . . . . . . . . . . . . . 5 /.] 2XvXvXvXvXvXvX1XO.#.{.6.J 6.'.xX{.l #.d.5.[ K l ( O.0.V._ 2XM k k l P R.R.( ! k k k / xXvXvXV.r.r.. . . . . @ V :.:.:.V d & & d d S S S Z O X . . . . . X ].6X# , '.!.`.`.!.`.`.`.!.( . . . . . . . . . . - w.7.7.7.7.7.7.7.7.q.7.7.7.7.7.7.7.7.7.7.7.7.7.7.7.7.8.8.8.7.q.7.7.7.7.q.7.q.7.q.7.q.7.7.q.7.7.7.7.7.q.7.7.7.6.O . . . . . +.h.B.B.q.7.q.N.p.w.7.q.T.s.T.q.7.w.s.s.q.7.T.E.s.e.q.H.w.G.d.q.h.d.T.s.w.H.d.N.s.p.G.7.q.T.p.w.w.h.w.s.N.# . . , 7XwXwXwXwXwXwXwXwX",
"wXwXwX;X# . . . . . . . . . . . . < /.] 4XvXvXvXvXvXxXN._ {.6.K n O.xX'.6.K l l k k l k k l k k l E {.l k k k k k J W.M.n k G 2XvXvXvXvXY.6.y.. . . . . . s V >.>.>.>.>.S S S S * X . . . . . . . X ).6X# 2 [.`.!.!.`.`.!.`.`.( . . . . . . . . . O 6.w.w.w.w.w.w.w.w.w.w.w.w.w.w.w.w.w.w.w.w.w.w.w.w.w.w.w.w.w.w.w.w.w.w.w.w.w.w.w.w.w.w.w.w.w.w.w.w.w.w.w.w.w.w.w.X.. . . . . +.w.q.H.p.p.N.B.B.e.p.p.H.8.T.p.p.e.T.H.w.p.T.H.q.w.s.T.w.p.B.p.E.p.H.q.e.T.d.B.8.d.B.p.w.H.q.e.Y.H.p.8.B.# . . , 7XwXwXwXwXwXwXwXwX",
"wXwXwX;X# . . . . . . . . . . . % /...4XvXvXvXvXvX2X] M.Y.J g.xXX.n K l k l k l k k l k k l l k l @.N.k k l k k l k k _ }.! 0.vXvXvXvXvXvXY.r.o.. . . . . . O & d V S S S d & X . . . . . . . . . X ).6X# 2 '.!.`.`.!.`.`.`.!.X.X . . . . . . . . O x x x x x x x x x x x x x x x x x x x x x x x x x x x x x x x x x x x x x x x x x x x x x x x x x x x x x x x x 7 . . . . . ( 7.8.H.q.w.H.8.H.7.w.w.B.8.G.q.w.q.G.H.7.d.N.h.d.8.p.B.q.q.H.7.T.7.G.w.h.h.q.H.8.G.q.w.8.H.7.q.E.q.G.8.~.# . . , 7XwXwXwXwXwXwXwXwX",
"wXwXwX;X# . . . . . . . . . . X W._ 2XvXvXvXvXvX+X/ {.X._ 2XxXM.G k k l k l k l k k l k k k k k l V.@.k k k l k k l k l M R.t.6.xXvXvXvXvXvXV.g.I . X . . . . X X . . . . . . . . . . . . . . . . X ).6X# < [.`.!.!.`.`.!.`.`.X.5 , . . . . . . . . . - - . . X 2 O . . # 1 . . . 1 # . . O 2 X . . % , . . . 4 O . . + 1 . . . , % . . X 2 X . . # , . . . 1 # . . . . . . . . ( 7.q.H.q.w.H.8.H.q.w.h.d.8.d.d.w.N.p.H.q.T.q.w.B.8.N.d.q.8.H.q.T.8.s.N.H.w.q.H.8.H.7.w.8.H.8.d.N.8.H.q.~.# . . , 8XwXwXwXwXwXwXwXwX",
"wXwXwX;X# . . . . . . . . . . y.o.+XvXvXvXvXvX'.( }.J k 6.[.E l l l k l k l k l k l l k l k l k l {.K l l k l k k l k l l l t.A.X.xXvXvXvXvXvX0.W.2 . . . X . X . . . . . . . . . . . . . . . . . X ).6X# 2 '.!.`.`.!.`.`.`.!.@., , # . . . . . . # n M F n 2 F n F 5 h F n M 4 n M F h 5 F n F 2 n F M n 2 F n F h h F n F 2 n M F b 2 F n F 5 h F M n 4 M n F h X . . . . . . ( 7.q.H.q.B.d.q.G.w.p.G.q.8.q.G.p.H.q.B.w.T.q.q.H.8.H.w.q.7.H.h.h.q.q.T.H.w.q.H.7.H.q.p.7.H.8.H.p.q.G.h.H.# . . , 8XwXwXwXwXwXwXwXwX",
"wXwXwX;X# . . . . . . . . . I g.Y.vXvXvXvXvX~._ {.J Q.X.l n k l l l k l k l n / ! N.M.0.'.+.T.0.F 2Xn l l k l k k l k k l l l X.W.] xXvXvXvXvXxX..^.O . . . . . . . . . . . . . . . . . . . . . . X ).6X# % Q.`.!.!.`.`.!.`.`.] 4 4 + . . . . . . h l J ! l J G ] ! G n ! n l J n 6.n n J l k l J n ( ( F J n ! / F M E _ ] K n _ 6.J J _ _ E J n 6.X.l J l X.X.n , . . . . . . _ e.q.d.B.T.p.q.d.B.w.T.w.q.w.T.w.T.q.d.G.T.p.w.H.e.T.w.w.q.H.Q.w.p.q.d.s.w.p.T.q.T.p.w.p.H.q.T.w.p.w.B.h.# . . , 8XwXwXwXwXwXwXwXwX",
"wXwXwX;X# . . . . . . . . % /.6.vXvXvXvXvX{._ {.K {.xX[ l l k l k l k l ] V.d.4X5.M.6./ @./ u.t._ Q.l l l k l l l l k l l l k l ..W.O.xXvXvXvXvX1XX.r.. . . . . . . . . . . . . . . . . . . . . . X ).6X# . O _ `.`.!.`.`.V.V.'.d.n # . . . . . . h l K ! l J G O./ F n n 6.n J l 6.! l J / X._ J M @.@.J J l d.] M M ] T._ J n @.g.K J _ T.] J l +.B.n J K g.g.n , . . . . . . ( w.s.w.T.N.q.p.s.G.7.H.w.s.w.H.q.H.s.p.Y.B.q.e.Y.q.H.7.q.s.w.w.q.q.e.s.q.q.q.T.h.B.q.q.q.V.h.H.q.q.w.d.h.# . . , 8XwXwXwXwXwXwXwXwX",
"wXwXwX;X# . . . . . . . . C...xXvXvXvXvX2X/ }.J |.2X/ k k k k k k n @.u.Q.g.P ] t.g.g.g.T.g.g.d.Y.g.l k k k k k k k k k k k k l n +.Z.t.vXvXvXvXvXV.R.5 . . . . . . . . . . . . . . . . . . . . . X ).6X# . . X n u.'.T.V.~.`.!.`.`.+.# . . . . . h n F J n T M ! J K F k n F T n ! K M K l k l T M M M n T n F J J J J M n T n F / M T n M J K M E / M T l E K F h . . . . . . ( 7.w.7.8.7.7.w.e.H.8.H.7.p.7.G.N.d.e.q.d.q.7.7.E.8.H.7.q.p.q.7.8.7.q.w.8.7.7.H.T.w.7.8.7.w.'.p.q.7.7.w.d.# . . , 7XwXwXwXwXwXwXwXwX",
"wXwXwX;X# . . . . . . . c M.Q.vXvXvXvXxX_ }.J n T./ l l l l l l / @.+X@._ g.u._ M l l l n l l n K @.g.0.G l l l l l l l l l n E ! l i.6.Y.vXvXvXvXvX..R.. . . X . . . . . . . . . . . . . . . . . X ).6X# . . X 4 4 E Q.`.!.`.`.`.!.`.Q.x . . . . . 5 F J J n K J K M F K J J n J J K J M K J K n J J J J n K J K M F K J J n J J J F n K J K M F J J J n J J K F M n # . . . . ( q.w.7.q.7.q.w.e.H.q.H.q.w.q.w.V.q.e.q.q.q.q.q.E.q.G.q.q.w.q.q.q.q.q.w.7.q.q.G.T.q.7.q.q.q.w.q.q.q.q.w.d.# . . , 7XwXwXwXwXwXwXwXwX",
"wXwXwX;X# . . . . . . . R.X.vXvXvXvXvXu.A._ 0.K l k k k k k n ( xX0.( N.X.n k k k k k k k k k k k k l K u.u.F k k k k k k n ! ) ) G l ^.( 2XvXvXvXvX{.u.L . . . . . . . . . . . . . . . . . . . . X ).6X# . . O 3 , P `.!.`.`.!.`.`.!.!.I . . . . . . - M K / ( K l l ( l J l O.G J n ! X.l K n X._ n F ! @.G K l k k l K k E k J n l k l K l K n n J l n _ J l l K n h . . . . ( q.s.q.8.7.q.e.p.H.w.B.q.s.q.8.7.q.p.w.7.7.7.q.T.N.d.7.q.s.w.7.8.7.w.s.q.7.q.w.N.q.7.8.7.e.p.q.7.7.q.d.G . . . , 7XwXwXwXwXwXwXwXwX",
"wXwXwX;X# . . . . . . L u.{.vXvXvXvX+XX.C.O.vX0.l l l l l n Y.M.! d.6.J l l l l l l l l l l l l l l l l l ] M.] l l l l n ! ) ) J l l G {.X.vXvXvXvXvX+.W.X . . . . . . . . . . . . . . . . . . . X ).6X# . . . # 4 J '.`.!.`.`.`.!.`.`.P . . . . . . - M _ T.] J l X.K l J [ / +.J n @./ ! J E g.6.M F @.g._ J l F F l J l l k F n P n K J F l G l J P n ] J l F F l h . . . . _ p.q.w.w.w.p.w.w.T.G.d.w.q.p.w.w.p.w.w.p.w.p.e.w.'.e.w.p.q.e.p.q.p.e.q.p.w.e.p.q.w.p.w.p.w.w.p.w.w.d.G . . . . , 7XwXwXwXwXwXwXwXwX",
"wXwXwX;X# . . . . . . R.X.vXvXvXvXvX] }.J 2X~.n k k k k n ] Q.( V.J k k k k k l k k k k k k k k k k l k k k l @.t.n k M / ) / F k l T M #.r.Q.vXvXvXvX+Xu.L . . . . . . . . . . . . . . . . . . . X ).6X# . . . . X G `.!.`.`.!.`.`.!.!.I . . . . . . 2 J K F M T n G l n T l ] l T M l ( n T n _ K F K n / F T n k k n T l K l K F l k l T F n F M K l n E T M K k n h . . . . ( 7.8.7.q.s.q.7.7.p.~.q.7.7.7.q.s.8.7.7.q.s.q.7.7.7.w.u.0.0.6.0.u.0.0.0.0.0.0.6.6.0.0.u.0.6.0.0.w.0.G . . . . . , 7XwXwXwXwXwXwXwXwX",
"wXwXwX;X# . . . . . 9 Z.'.vXvXvXvXQ.u.X.B.xXK l l l l n Q.Q.! g.n l l l k l l l l l l l l l l l l l l l l l l l ! g.n ! _ / n l F { q.] l {.( xXvXvXvXvXX.S.. . . . . . . . . . . . . . . . . . . X ).6X# . . . . . x '.`.!.`.`.`.!.`.`.P . . . . # n M F K J J n J J J F n K J K n F K J J F J J K F F K J K n J J J J n K J K M F K J J n J J K F M K J K n F J F 5 . . . . . ( q.q.q.q.w.q.q.q.q.p.q.q.q.q.q.w.q.q.q.q.p.q.q.q.w.P . . . . . . . . . . . . . . . . . . . . . . . . . . . . . X.wXwXwXwXwXwXwXwXwX",
"wXwXwX;X# . . . . . g.] vXvXvXvXxX( /.l G ] k k k k l ! u.( g.n k k k k k k k k k l F K P J n k l k l l k k k k k E g.M T l l / 7.8.8.] n ( g.T.vXvXvXvXQ.A.< . . . . . . . . . . . . . . . . . . X ).6X# . . . . . x `.!.`.`.!.`.`.`.`.I . . . . h G F l l J ! X.] F n E 6.n J F 0.X.l J K 0.E J l n K l J l ] l F M k ] P J n ! ( l J l M.n J l K O.n J F +./ n 1 . . . . . . ( 7.q.7.q.w.7.7.7.7.w.7.7.7.7.q.w.7.7.7.7.w.7.q.0.5 . . . . . . . . . . . . . . . . . . . . . . . . . . . . . X.0XwXwXwXwXwXwXwXwXwX",
"wXwXwX;X# . . . . X W.g.vXvXvXvX~.u.X.6.E l l l l l _ 5XE V.n l l l l l l l n _ 6.g.T.Z.Z.Y.Z.0.+.F l l l l l l l l ( 0.l J O.8.8.O.J l l l /._ vXvXvXvXxX..$.. . . . . . . . . . . . . . . . . . X ).6X# . . . X . O X.`.!.`.`.`.!.'.6.% . . . . h l F G l J ! X.] F F 0.6.X.J G g.@.l J #.6.#.J M X.X.G J P X.G K M n X.l J l +.+.l J / / _ J F g./ l J n ] 0.n , . . . . . . _ q.q.q.w.s.w.q.q.w.s.p.q.q.q.w.s.w.q.q.w.s.s.] + . . . - , , , , , , , , , , , , , , , , , , , , , , , , - X.0XwXwXwXwXwXwXwXwXwXwX",
"wXwXwX;X# . . . . L r.2XvXvXvXvXX.{.E xX0.k l k 6.@.O.6.g.G k l k k k k l _ 6.E ( _ F n n n E +.t.M.#.n k k k k k l k 6./ ' 8.5.E l k M ] K X.r.{.vXvXvXvX0.R.. . . . . . . . . . . . . . . . . . X ).7X% . . . . . . . , t.'.!.`.M.7 . . . . . . h n k F J T ! X.] J F J @.G T F X./ M K F X.n T n n K n T l E l J J K E l T n ! K M K J l G K M l K F T M F l F - . . . . . . ( p.p.p.q.q.e.p.p.e.q.q.p.p.w.q.q.e.p.p.w.w.m . . . O _ 3X7X7X7X7X7X7X7X7X7X7X7X7X7X7X7X7X7X7X7X7X7X7X7X7X7XwXwXwXwXwXwXwXwXwXwXwXwX",
"wXwXwX;X# . . . . g.] vXvXvXvX2X_ g.d.xXF l l F 4XvXV.[ @.l l l l l l n 6.! l l l l l l l l l l l ( u.u.K l l l l l l n V.F ) n l J 5.J.!.w.n /.6.vXvXvXvX'.S.< . . . . . . . . . . . . . . . . . X ).wXu.O . . . . . . . . c d.G X . . . . . . . . 2 F F 2 + b G n # , F G h O h F F , # n G n # 1 F F 5 O h G M % - M G h O 5 F F 1 + n G n # , F F h O h F M , . . . . . . . 2 D G D D D D D G D D D D G D D D D G D D - . . . 2 G.wXwXwXwXwXwXwXwXwXwXwXwXwXwXwXwXwXwXwXwXwXwXwXwXwXwXwXwXwXwXwXwXwXwXwXwXwXwXwX",
"wXwXwX;X# . . . . R.u.vXvXvXvXV.R.K 2XT.k k l 0.vXvX_ N.J l k l k l n 0.F l k l k l k k l l k k l k n n K k k k k l k l +.@.n / d.!.!.!.!.q.l A.( xXvXvXvXxXX. .. . . . . . . . . . . . . . . . . X ).wXwXs.O . . . . . . . . . . . . . . . . . . . . X X . . . O . . . . O . . . O . . . . O . . . X O . . . O . . . . O . . . O . . . . O . . . . O . . . O . . . . . . . . . . . . . . . . . . . . . . . . . . . . . . . . X ! 3XwXwXwXwXwXwXwXwXwXwXwXwXwXwXwXwXwXwXwXwXwXwXwXwXwXwXwXwXwXwXwXwXwXwXwXwXwXwXwXwX",
"wXwXwX;X# . . . - Y.~.vXvXvXvXX.^.M V._ k k n +XvX'.O./ k l k l k l 0.M k k l l k l l k l k k l l k l k k k k k l l k l l M.G !.!.!.d.] M k k _ t.{.vXvXvXvXX.C.. . . . . . . . . . . . . . . . . X ).wXwXwXd.G G G G G G G G G G G G G G G G G G G G G G G G G G G G G G G G G G G G G G G G G G G G G G G G G G G G G G G G G G G G G G G G G G G G G G G G G G G G G G G G G G G G G G G G G G G G G G G G G G G G G G G G h.0XwXwXwXwXwXwXwXwXwXwXwXwXwXwXwXwXwXwXwXwXwXwXwXwXwXwXwXwXwXwXwXwXwXwXwXwXwXwXwXwXwX",
"wXwXwX;X# . . . I 6.4XvXvXvXvX( Z.l l k l k / vXvX@.M.l k l k l k X.K l k l k l k k l k l l k l l k l k k k k k k l k l k _ ] 5.@.J l l l F T n ~.g.vXvXvXvXu.W.. . . . . . . . . . . . . . . . . X ).wXwXwXwXwXwXwXwXwXwXwXwXwXwXwXwXwXwXwXwXwXwXwXwXwXwXwXwXwXwXwXwXwXwXwXwXwXwXwXwXwXwXwXwXwXwXwXwXwXwXwXwXwXwXwXwXwXwXwXwXwXwXwXwXwXwXwXwXwXwXwXwXwXwXwXwXwXwXwXwXwXwXwXwXwXwXwXwXwXwXwXwXwXwXwXwXwXwXwXwXwXwXwXwXwXwXwXwXwXwXwXwXwXwXwXwXwXwXwXwXwXwXwXwXwXwXwXwXwXwXwXwXwXwXwXwXwXwXwXwXwXwXwXwXwXwXwXwXwXwXwX",
"wXwXwX;X# . . . $.X.vXvXvXvX+X6.X.Q.M.l l k d.vXxX! 6.k l l k l F @.k l k l l l k l E @.6._ n l l k l l l k l l k l k l l n g.l l K ] q.H.!.H.l ^.X.vXvXvXvXQ.W.O . . . . . . . . . . . . . . . . X ).wXwXwXwXwXwXwXwXwXwXwXwXwXwXwXwXwXwXwXwXwXwXwXwXwXwXwXwXwXwXwXwXwXwXwXwXwXwXwXwXwXwXwXwXwXwXwXwXwXwXwXwXwXwXwXwX0XB.6.6.6.5.5.6.6.6.6.6.6.6.6.6.6.6.6.6.6.5.5.6.6.6.6.6.6.6.6.6.6.6.6.6.6.6.6.6.6.5.5.5.5.5.5.6.6.6.6.6.6.6.6.6.6.6.6.6.6.6.6.6.6.6.6.6.6.6.6.6.6.6.6.6.6.6.6.6.6.6.6.6.6.6.6.6.].wXwXwXwXwXwX",
"wXwXwX;X# . . . C.X.vXvXvXvXY.Y.J 4Xg.l k l '.vX'.6.K l l l l l @.M l l k l l l E T.u._ / @.T.6.l k l l k l l l k l l l l l d.M H.!.!.!.!.!.!.F R./ vXvXvXvX+XM.2 . . . . . . . . . . . . . . . . X ).wXwXwXwXwXwXwXwXwXwXwXwXwXwXwXwXwXwXwXwXwXwXwXwXwXwXwXwXwXwXwXwXwXwXwXwXwXwXwXwXwXwXwXwXwXwXwXwXwXwXwXwXwXwXwX0Xd.# . . . . . . . . . . . . . . . . . . . . . . . . . . . . . . . . . . . . . . . . . . . . . . . . . . . . . . . . . . . . . . . . . . . . . . . . . . . . . . . . . . . . . . x -XwXwXwXwXwX",
"wXwXwX;X# . . . S.F _ 5.g.Y.6.~.K vX+.l l n 5XvXg.g.n l l l l l 6.l l l k l l / A.M l k l l l @.g.l l l l l l l k l l l l l O.! N.J.d.5.] K n l t.] xXvXvXvXxX#.L . . . . . . . . . . . . . . . . X ).wXwXwXwXwXwXwXwXwXwXwXwXwXwXwXwXwXwXwXwXwXwXwXwXwXwXwXwXwXwXwXwXwXwXwXwXwXwXwXwXwXwXwXwXwXwXwXwXwXwXwXwXwXwX0Xd.# . . . . . . . . . . . . . . # . . . . . . . . . . . . . . . . . . . . . . . . . . . . . . . . . . . . . . . . . . . . . . . . . . . . . . . . . . . . . . . . . . . . . . . . . m ;XwXwXwXwX",
"wXwXwX;X# . . . R.k l l l l l ~.( vX/ l l J vXvX+.g.l l l l l K _ l k l l l M Y.n l l k l l l l 0.[ l l l k l k l l l l l l E +.F n l l l k l l X.6.1XvXvXvXxXX. .. . . . . . . . . . . . . . . . X ).wXwXwXwXwXwXwXwXwXwXwXwXwXwXwXwXwXwXwXwXwXwXwXwXwXwXwXwXwXwXwXwXwXwXwXwXwXwXwXwXwXwXwXwXwXwXwXwXwXwXwXwXwX0Xd.# . . . . . . . . . . . . . 7 V.[...O . . . . . . . . . . . . . . . . . . . . . . . . . X X . . . . . . . . . . . . . . . . . . . . . . . . . . . . . . . . . . x M.( O . . . . . . . G 3XwXwXwX",
"wXwXwX;X# . . . W.k l l l l l ~.G +.F l k / vXvX_ d.l l l l l X.r.l l l l l @.] l l l l l l l l n T.l l l l l l l l l l l l F t.( d.N.T.Q.'.+X6.! g.{.vXvXvXvXX.o.. . . . . . . . . . . . . . . . X ).wXwXwXwXwXwXwXwXwXwXwXwXwXwXwXwXwXwXwXwXwXwXwXwXwXwXwXwXwXwXwXwXwXwXwXwXwXwXwXwXwXwXwXwXwXwXwXwXwXwXwXwXwXG.# X . . . . . . . . . . . % 6.[.!.!.'.Q.G X . . . . . . . . . . . . . . . . . . . X 2 . . . . . . . . . . . . . . . . . . . . . . . . . . . . . . . . . . . . - 0.[.!.'.T.G . . . . . . . ! 9XwXwX",
"wXwXwX;X# . . . W.k k l k k k ^.n M l k k ] vXvX/ t.k k k l k @.#.k k k k k V.n k k k k k k k k l N.t.u.u.u.u.u.M.k k k k k n u.t.vXvXvXvXvXvXd.K M.~.vXvXvXvXX.9.. . . . . . . . . . . . . . . . X ).wXwXwXwXwXwXwXwXwXwXwXwXwXwXwXwXwXwXwXwXwXwXwXwXwXwXwXwXwXwXwXwXwXwXwXwXwXwXwXwXwXwXwXwXwXwXwXwXwXwXwXwXwXq.. . . . . . . . . . . O ~ '.`.'.!.!.`.`.[.B.7 . . . . . . . . . . . . . . . . . x 5.5.#.5 . . . . . . . . . . . . . . . . . . . . . . . . . . . . . . . . O _ [.`.`.!.!.'.[.M.5 . . . . . c 7XwXwX",
"wXwXwX;X# . . . W.@.N.V.V.A.E ^.@.xXF l l ] vXvX/ V.l l l l l #.#.l l l l l A.l l l l l l l l l l u.E n l l l l A.l l l l l K g._ g.g.d.u.u.0.( J Z.~.vXvXvXvXX.r.. . . . . . . . . . . . . . . . X ).wXwXwXwXwXwXwXwXwXwXwXwXwXwXwXwXwXwXwXwXwXwXwXwXwXwXwXwXwXwXwXwXwXwXwXwXwXwXwXwXwXwXwXwXwXwXwXwXwXwXwXwXwXq.. . . . . . . . . . m Q.'.`.!.!.'.`.`.!.!.'.[.0.% . . . . . . . . . . . . . - X.@._ ' _ 5...% . . . . . . . . . . . . . . . . . . . . . . . . . . . . . G Q.[.!.!.`.`.`.!.!.`.[.#.% . . . c 7XwXwX",
"wXwXwX;X# . . . W.T.vXvXvXvX] ^.@.vXG k k ] vXvX/ t.k k k l k @.#.k k k k k V.n k k k k k k k k k M.F k k k k l T.k k k k k n u.n n l l k k k k K M.'.vXvXvXvXX.$.. . . . . . . . . . . . . . . . X ).wXwXwXwXwXwXwXwXwXwXwXwXwXwXwXwXwXwXwXwXwXwXwXwXwXwXwXwXwXwXwXwXwXwXwXwXwXwXwXwXwXwXwXwXwXwXwXwXwXwXwXwXwXq.. . . . . . . . . . '.!.!.`.!.`.!.!.`.!.!.`.!.`._ . . . . . . . . . . . . . 6._ ' l.&Xl.' _ o.. . . . . . . # . . . . . . . . . . . . . . . . . . . . ~ [.!.`.!.!.`.!.`.!.!.`.!.`.Q.. . . c 7XwXwX",
"wXwXwX;X# . . . R.V.vXvXvXvXO.^.[ vXK l l ! vXvX_ d.l l l l l X.r.l l l l l 6._ l l l l l l l l n T.l l l l l n V.l l l l l F 0.g.5X+X~.T.g.6.K ~ u.{.vXvXvXvXX.o.. . . . . . . . . . . . . . . . X ).wXwXwXwXwXwXwXwXwXwXwXwXwXwXwXwXwXwXwXwXwXwXwXwXwXwXwXwXwXwXwXwXwXwXwXwXwXwXwXwXwXwXwXwXwXwXwXwXwXwXwXwXwXq.. . . . . . . . . . '.!.!.`.`.'.!.!.`.`.'.!.!.`._ . . . X . . . . . . . . . 6._ %X*X*X*Xz._ +.. . . O c . , I 2 . # 2 . x m m . . . . . . . . . . . .  .!.!.!.'.`.`.!.!.'.`.`.!.!.'.. . . c 7XwXwX",
"wXwXwX;X# . . . R.d.vXvXvXvX6.~./ vX_ k k G vXvX@.g.l k k l k K B.M k k k l M Y.n k k k k k k k 6.X.l k k k k ! 0.l k l k k ! X.Y.vXvXvXvXvXvX+.X.#.2XvXvXvXxXo.| . . . . . . . . . . . . . . . . X ).wXwXwXwXwXwXwXwXwXwXwXwXwXwXwXwXwXwXwXwXwXwXwXwXwXwXwXwXwXwXwXwXwXwXwXwXwXwXwXwXwXwXwXwXwXwXwXwXwXwXwXwXwXq.. . . . . . . . . . ~.'.`.`.!.!.'.`.`.!.!.'.`.'._ . . . . . . . . . . . . . 6._ %X&X*X*X$X_ +.. . % 2 G 7 2 I P X . . . P V.D . . . . . . . . . . . . _ '.`.'.!.!.`.`.'.!.!.`.`.`.~.. . . c 7XwXwX",
"wXwXwX;X# . . . S.6.vXvXvXvXg.W.M / M k l l ] K n d.n k k l k l t.X.k l k k k _ V.M k k l k l O.g.l k k k k k u.E k k k k k 5.K n K ] 0.V.~.2X/ i._ xXvXvXvX4Xr.m . . . . . . . . . . . . . . . . X ).wXwXwXwXwXwXwXwXwXwXwXwXwXwXwXwXwXwXwXwXwXwXwXwXwXwXwXwXwXwXwXwXwXwXwXwXwXwXwXwXwXwXwXwXwXwXwXwXwXwXwXwXwXq.. . . . . . . . . # '.!.!.`.!.`.!.!.`.!.!.`.!.`._ . . . . . . . . . . . . . 6.' %X*X*X*X$X_ +.. . . O c . . 2 < . # 2 . 5 % # . . . . . . . . . . . . _ `.!.`.!.!.`.!.`.!.!.`.!.`.~.. . . c 7XwXwX",
"wXwXwX;X# . . . C.X.vXvXvXvXQ.Z.J J ! k k k l k k +.! k k l k l @.r.l l k l k l ! T.0./ ! X.T.0.n k l k k k n T.l l k l k k g.J g._ M l k l l l R./ vXvXvXvX+XC.2 . . . . . . . . . . . . . . . . X ).wXwXwXwXwXwXwXwXwXwXwXwXwXwXwXwXwXwXwXwXwXwXwXwXwXwXwXwXwXwXwXwXwXwXwXwXwXwXwXwXwXwXwXwXwXwXwXwXwXwXwXwXwXq.. . . . . . . X # g [.!.!.`.`.'.!.!.`.`.`.!.!.`._ . . . . . . . . . . . . . u.J.=X$X*Xz.<._ +.. . . . . . . . . . . . . . . . . . . . . . . . . . . .  .!.!.!.'.`.`.!.!.'.`.`.!.!.'.. . . c 7XwXwX",
"wXwXwX;X# . . . o.o.vXvXvXvX2X#.+.Q.{.l l k l k k G t.k k l l l F d...l k l k l k n ! 6.V.6.M k l k l l k k 6.] l l k l k n d.#.vXvXxX~.0.E n l ^.+.vXvXvXvXT.W.X . . . . . . . . . . . . . . . . X ).wXwXwXwXwXwXwXwXwXwXwXwXwXwXwXwXwXwXwXwXwXwXwXwXwXwXwXwXwXwXwXwXwXwXwXwXwXwXwXwXwXwXwXwXwXwXwXwXwXwXwXwXwX0.. . . . . . , 4 h , _.'.`.`.!.!.'.`.`.!.!.'.`.'._ . . . . . . . . . . . . . x V.!.!.k._ X.#.5 . . . . . . . . . . . . . . . . . . . . . . . . . . . . _ '.`.'.!.!.`.`.'.!.!.`.`.`.~.. . . c 7XwXwX",
"wXwXwX;X# . . . D t.2XvXvXvXvX! T.0.xXF k k l l l l g.n k l l l l O.u.G k l k l k k l k _ ( l l l k l l k K V.l k l k l k O./ ! V.2XvXvXvXvXg.n W.N.vXvXvXvX0.R.. . . . . . . . . . . . . . . . . X ).wXwXwXwXwXwXwXwXwXwXwXwXwXwXwXwXwXwXwXwXwXwXwXwXwXwXwXwXwXwXwXwXwXwXwXwXwXwXwXwXwXwXwXwXwXwXwXwXwXwXwXwXwXq.. . . . . # 4 , , 5 '.!.!.`.!.`.!.!.`.!.`.`.!.`._ . . . . . . . . . . . . . . X ! Q.d.6.G . . . . . . . . . . . . . . . . . . . . . . . . . . . . . . _ `.!.`.!.!.`.!.`.!.!.`.!.`.~.. . . c 7XwXwX",
"wXwXwX;X# . . . % R.Q.vXvXvXvX@./.! vXO.k k l l k l _ X.k l l l k n 0...k l k l k k l k ! ] k k l k l l F Y.G k k k k l l N.K ! l n _ B.2XvX[ X.6.+XvXvXvXvX] g.. . . . . . . . . . . . . . . . . X ).wXwXwXwXwXwXwXwXwXwXwXwXwXwXwXwXwXwXwXwXwXwXwXwXwXwXwXwXwXwXwXwXwXwXwXwXwXwXwXwXwXwXwXwXwXwXwXwXwXwXwXwXwXq.. . . . . # 4 , , g [.!.!.`.`.`.!.!.`.`.`.`.!.`._ . . . . . . . . . . . . . . . . % L # . . . . . . . . . . . . . . . . . . . . . . . . . . . . . . .  .!.!.!.'.`.`.!.!.'.`.`.!.!.'.. . . c 7XwXwX",
"wXwXwX;X# . . . . R.0.vXvXvXvXY.C.E +Xu.l k l k l l l V.K l k l k l n 0.l l k l k l l k K +.l l l l l G Y.K l k k l k l 0.] V.vX~._ l l n ( n W./ vXvXvXvX5X#.W . . . . . . . . . . . . . . . . . X ).wXwXwXwXwXwXwXwXwXwXwXwXwXwXwXwXwXwXwXwXwXwXwXwXwXwXwXwXwXwXwXwXwXwXwXwXwXwXwXwXwXwXwXwXwXwXwXwXwXwXwXwXwXq.. . . . . O g 4 j G 0.[.`.`.!.!.'.`.`.!.!.'.'.T.5 X . . . . . . . . . . . . . . . . . . . . . . . . . . . . . . . . . . . . . . . . . . . . . . . . . G [.`.'.!.!.`.`.'.!.!.`.`.[.M.. . . c 7XwXwX",
"wXwXwX;X# . . . . y._ vXvXvXvXxX( C.n l k k k k k l ] ( 6.k k k k k k l k k k k k k k k G 6.k k k l [ Y.J k k k k k k M {.K V.xXvXvX[.X.n k n ^.u.vXvXvXxXQ.R.% . . . . . . . . . . . . . . . . . X ).wXwXwXwXwXwXwXwXwXwXwXwXwXwXwXwXwXwXwXwXwXwXwXwXwXwXwXwXwXwXwXwXwXwXwXwXwXwXwXwXwXwXwXwXwXwXwXwXwXwXwXwXwXq.. . . . . O 5 h g.[.[.t.M.[.!.`.!.!.`.!.`.~.I X . . . . . . . . . . . . . . . . . . . . . . . . . . . . . . . . . . . . . . . . . . . . . . . . . . . . 2 u.[.!.!.`.!.`.!.!.'.Q.P X . . . c 7XwXwX",
"wXwXwX;X# . . . . v i.+XvXvXvXvX5./.n u.u.k l l F ~.vXu.u.E l l l l k l l l l l l l l l n 0.l n X.T.6.n l l l l l l l d.t.2Xu.! T.xXvXvX+XM r.+.+XvXvXvXvX@.R.. . . . . . . . % . . . . . . . . . X ).wXwXwXwXwXwXwXwXwXwXwXwXwXwXwXwXwXwXwXwXwXwXwXwXwXwXwXwXwXwXwXwXwXwXwXwXwXwXwXwXwXwXwXwXwXwXwXwXwXwXwXwXwXq.. . . . . % 6.[.`.!.!.[.~.6.T.[.!.!.`.[.6.1 . . X . . . . . . . . . . . . . . . . . . . . . . . . . . . . . . . . . . . . . . . . . . . . . . . . . . . . . m Y.'.`.!.!.'.[.X.# . . . . . c 7XwXwX",
"wXwXwX;X# . . . . X W.u.vXvXvXvX|.#.#.V.5XG k k n '.vXxX_ V.F k k k k k k k k k k k k k n '.A.V.+.n k k k k k k k l @.X.k G V.+X] ! Q.vXQ.n {.] vXvXvXvXxX+.X.. . . . . . % #.+XM.5 . . . . . . . X ).wXwXwXwXwXwXwXwXwXwXwXwXwXwXwXwXwXwXwXwXwXwXwXwXwXwXwXwXwXwXwXwXwXwXwXwXwXwXwXwXwXwXwXwXwXwXwXwXwXwXwXwXwXq.. . . X P Q.`.!.`.!.!.`.!.[.V.0.`.[.N.b 4 # . . . . . . . . . . . . . . . . . . . . . . . . . . . . . . . . . . . . . . . . . . . . . . . . . . . . . . . . . X ~ `.`.OXt., . . . . . . . c 7XwXwX",
"wXwXwX;X# . . . . . r...xXvXvXvXvX] }.K xXN.l l l K xXvX2X! V.M l l l l l l l l l l l l l M n l l l l l l l l l l ] 6.l l l l / [.Q.K ( E +.r.~.vXvXvXvXT.W.% . . . . X ~ !.`.!.!.[.#.% . . . . . X ).wXwXwXwXwXwXwXwXwXwXwXwXwXwXwXwXwXwXwXwXwXwXwXwXwXwXwXwXwXwXwXwXwXwXwXwXwXwXwXwXwXwXwXwXwXwXwXwXwXwXwXwXwXq.. . , V.'.'.!.!.`.`.'.!.!.`.'.[.u.G h 4 g + . . . . . . . . . . . . . . . . . . . . . . . . . . . . . . . . . . . . . . . . . . . . . . . . . . . . . . . . . . . % X.c . . . . . . . . . c 7XwXwX",
"wXwXwX;X# . . . . . < R.Y.vXxXvXvX[.#.r.d.xXK k k k +.vXvX+X! V.G k k k k k k l k k k k k k k k l k l k k k k l +.0.l k k k k k n 6.2Xu.M }.] vXvXvXvXvX] S.. . . . m T.'.`.`.!.!.'.`.`.~ X . . . X ).wXwXwXwXwXwXwXwXwXwXwXwXwXwXwXwXwXwXwXwXwXwXwXwXwXwXwXwXwXwXwXwXwXwXwXwXwXwXwXwXwXwXwXwXwXwXwXwXwXwXwXwXwXq.. . P `.!.!.'.`.`.!.!.'.`.`.!.!.+Xb , , 3 - . . . . . . . . . . . . . . . . . . . . . . . . . . . . . . . . . . . . . . . . . . . . . . . . . . . . . . . . . . . . . . . . . . . . . . . c 7XwXwX",
"wXwXwX;X# . . . . . . S...vXvXvXvXvX+.{.J ( l l l l l u.vXvX+X! M./ l l l l l l l l l l l l l l l l l l l l n u.O.F l l l l l l l X.M.V.nX+.{.vXvXvXvX~.M.x . . , g.[.'.!.!.`.`.'.!.!.`.'.Y.v . . X ).wXwXwXwXwXwXwXwXwXwXwXwXwXwXwXwXwXwXwXwXwXwXwXwXwXwXwXwXwXwXwXwXwXwXwXwXwXwXwXwXwXwXwXwXwXwXwXwXwXwXwXwXwX0.. X I '.!.!.`.!.`.!.!.`.!.`.!.!.+Xg 3 , 3 # . . . . . . . . . . . . . . . . . . . . . . . . . . . . . . . . . . . . . . . . . . . . . . . . . . . . . . . . . . . . . . . . . . . . . . . c 7XwXwX",
"wXwXwX;X# . . . . . . x M.Q.vXvXvXvX2X( W.l 0.B.l k k l g.vXvX2XX.6.T.J k k k k k k k k k l k k k k l k l 6.B.! T.+XM k k k k k K 2X~.P ~.6.vXvXvXvXvX..S.. . . +.`.!.`.!.!.`.!.!.`.!.`.!.!.Y.. . X ).wXwXwXwXwXwXwXwXwXwXwXwXwXwXwXwXwXwXwXwXwXwXwXwXwXwXwXwXwXwXwXwXwXwXwXwXwXwXwXwXwXwXwXwXwXwXwXwXwXwXwXwXwXq.. . I '.`.'.!.!.`.`.'.!.!.`.`.'.OX3 h 4 , . . . . . . . . . . . . . . . . . . . . . . . . . . . . . . . . . . . . . . . . . . . . . . . . . . . . . . . . . . . . . . . . . . . . . . . . c 7XwXwX",
"wXwXwX;X# . . . . . . . S.] xXvXvXvXvXA.u.6.0.vX6.l l k l 0.xXvXvXV.! d.t.J l l k k k k l k k k l k n _ M.O.] +XvXvXM.l k k k F +X2XK }.( xXvXvXvXvXQ.g.c . . . #.`.!.`.`.`.`.!.!.'.`.`.!.!.Y.. . X ).wXwXwXwXwXwXwXwXwXwXwXwXwXwXwXwXwXwXwXwXwXwXwXwXwXwXwXwXwXwXwXwXwXwXwXwXwXwXwXwXwXwXwXwXwXwXwXwXwXwXwXwXwXq.. . P `.!.!.'.`.`.!.!.'.`.'.!.!.+Xh , O . . . . . . . . . . . . . # 2 2 2 2 2 2 2 2 2 2 2 2 2 2 2 2 2 2 2 2 2 2 2 2 2 2 2 2 2 2 2 2 2 2 2 2 2 2 2 2 2 2 2 2 2 2 , . . . . . . . . . . . . c 7XwXwX",
"wXwXwX;X# . . . . . . . 2 R.B.vXvXvXvXxX@.~.! V.xX+.k k k l ] 2XvXvX4Xu.! 0.g.0./ M l l G k n J [ d.g.] _ ~.vXvXvXT.F k k l k 5.xX! R.] {.vXvXvXvXxX] C.. . . . +.'.`.'.!.!.`.`.'.!.!.`.`.'.T.. . X ).wXwXwXwXwXwXwXwXwXwXwXwXwXwXwXwXwXwXwXwXwXwXwXwXwXwXwXwXwXwXwXwXwXwXwXwXwXwXwXwXwXwXwXwXwXwXwXwXwXwXwXwXwXq.. . P '.!.!.`.!.`.!.!.`.!.`.!.!.+X% . . . . . . . . . . . . . . O u.d.d.d.d.d.d.d.d.d.N.B.d.d.d.d.d.d.d.d.d.d.d.d.d.d.d.d.d.d.d.d.d.d.d.d.d.d.d.d.d.d.d.d.d.d.d.N.v . . . . . . . . . . . c 7XwXwX",
"wXwXwX;X# . . . . . . . . r.X.2XvXvXvXvXxX( }.K Q.M.l k k l k G T.xXvXvXxX_ l J X.u.g.g.V.g.d.6._ / u.+XvXvXvX2XO.l k k k F / l K g.r.V.vXvXvXvXvXu.^.- . . . O 6.`.!.`.`.!.`.!.!.`.!.`.!.!.Y.. . X ).wXwXwXwXwXwXwXwXwXwXwXwXwXwXwXwXwXwXwXwXwXwXwXwXwXwXwXwXwXwXwXwXwXwXwXwXwXwXwXwXwXwXwXwXwXwXwXwXwXwXwXwXwXq.. . P '.`.'.!.!.`.`.'.!.!.`.`.'.OX+ . . . . . . . . . . . . . . +.w.q.q.N.~.T.G.G.d.q.T.+Xw.T.w.q.7.q.7.7.7.7.7.7.q.7.q.7.q.7.8.7.7.7.7.7.7.q.7.7.7.q.7.q.7.q.7.q.d., . . . . . . . . . . c 7XwXwX",
"wXwXwX;X# . . . . . . . . O /.X.xXvXvXvXvX2X/ }.J l ! t.n l k l l / ~.vXxXM k l k k k k +.g.V.'.2XvXvXvXvX2Xu.M k l k k K +X2XM r.g.u.vXvXvXvXvX{.r. .. . . + 5 0.`.!.`.`.`.`.!.!.`.`.`.!.!.Q.. . X ).wXwXwXwXwXwXwXwXwXwXwXwXwXwXwXwXwXwXwXwXwXwXwXwXwXwXwXwXwXwXwXwXwXwXwXwXwXwXwXwXwXwXwXwXwXwXwXwXwXwXwXwXwXq.. . P `.!.!.'.`.`.!.!.'.`.`.!.!.+X+ . . . . . . . . . . . . . P p.w.T.V.T.'.d.{.q.d.N.G.'.d.d.7.q.7.q.8.q.8.7.q.8.7.8.q.7.q.7.q.q.8.7.8.8.7.8.8.8.7.q.7.q.8.q.q.7.q.u.O . . . . . . . . . c 7XwXwX",
"wXwXwX;X# . . . . . . . . . x R.d.vXvXvXvXvX+X/ }.K u.vXQ.F k l k k l ! +.l l l l k l k Q.vXvXvXvXvXxX'.#.M l k k l l X.2X2X/ i.g.0.vXvXvXvXvX4X] S.. . # 4 4 5 6.'.`.'.!.!.`.`.'.!.!.`.`.'.T.. . X ).wXwXwXwXwXwXwXwXwXwXwXwXwXwXwXwXwXwXwXwXwXwXwXwXwXwXwXwXwXwXwXwXwXwXwXwXwXwXwXwXwXwXwXwXwXwXwXwXwXwXwXwXwXq.. . P '.!.!.`.!.`.!.!.`.!.`.!.!.+X+ . . . . . . . . . . . . x d.7.q.8.q.q.7.8.q.7.8.q.q.q.q.q.7.q.7.q.q.7.7.7.q.8.q.7.q.8.q.7.q.7.8.7.8.q.7.8.q.q.7.q.7.q.q.q.q.7.q.q.@.. . . . . . . . . c 7XwXwX",
"wXwXwX;X# . . . . . . . . . . X.r.~.vXvXvXvXvX+X( {._ @.xX2X! l k l k l k l k l k k l k T.2X+XQ.d.X.G l k l l k k n l Q.~.K Y.t.t.vXvXvXvXvXxXX./.% . . 5 , , 5 0.`.!.`.`.!.`.!.!.`.!.`.!.!.Y.. . X ).wXwXwXwXwXwXwXwXwXwXwXwXwXwXwXwXwXwXwXwXwXwXwXwXwXwXwXwXwXwXwXwXwXwXwXwXwXwXwXwXwXwXwXwXwXwXwXwXwXwXwXwXwXq.. . + o.[.'.!.!.`.`.'.!.!.`.'.~.G . . . . . . . . . . . . - g.q.7.q.h.p.q.p.8.q.q.8.q.w.q.q.w.w.q.q.q.q.p.p.q.w.p.w.w.q.8.w.d.q.7.8.7.8.7.d.d.8.q.d.q.7.q.7.q.7.7.7.8.p.! . . . . . . . . c 7XwXwX",
"wXwXwX;X# . . . . . . . . . . . j.X.+XvXvXvXvXvX2X_ Y.u.P T.M ! / l k l l l k l k l l l n l l l l k l k l k l M 0.+XF M P }...V.vXvXvXvXvXvX0.W.x . . . 5 , , 4 0.`.!.`.`.`.`.!.!.`.`.`.!.!.Y.. . X ).wXwXwXwXwXwXwXwXwXwXwXwXwXwXwXwXwXwXwXwXwXwXwXwXwXwXwXwXwXwXwXwXwXwXwXwXwXwXwXwXwXwXwXwXwXwXwXwXwXwXwXwXwXq.. . . . < u.[.`.`.!.!.'.`.[. .O . . . . . . . . . . . . O 0.q.q.7.q.1XB.B.T.d.h.'.p.Y.T.B.{.w.w.Y.q.q.q.{.|.B.d.B.Y.H.q.8.G.1Xd.N.d.~.T.p.{.'.w.N.w.q.q.q.7.q.8.q.q.8.q.d.c . . . . . . . c 7XwXwX",
"wXwXwX;X# . . . . . . . . . . . O R...+XvXvXvXvXvXxX0.#.{.P l T.vX~.X.n l l l l l l l k l l l l l k l l l n u.2XxXT.J t.~.( '.vXvXvXvXvXvXd.Z.I . . . . , h 4 M X.Q.'.'.!.!.`.`.'.!.!.`.`.'.P . . X ).wXwXwXwXwXwXwXwXwXwXwXwXwXwXwXwXwXwXwXwXwXwXwXwXwXwXwXwXwXwXwXwXwXwXwXwXwXwXwXwXwXwXwXwXwXwXwXwXwXwXwXwXwXq.. . . . . . v V.'.!.!.[.0., . . . . . . . . . . . . . . X.w.8.q.8.q.B.B.w.h.q.N.N.e.G.d.h.B.d.p.w.d.q.q.H.T.q.w.d.p.H.q.8.d.T.w.q.w.h.d.q.T.h.p.d.8.q.q.q.8.q.q.q.q.q.q.q.d.- . . . . . . c 7XwXwX",
"wXwXwX;X# . . . . . . . . . . . . # ^.] +XxXvXvXvXvXvX~./ R.Y.J 5.+XvX0.l ] F l l k l k l l l l l n E 0.5.l ~.T.! ..}.#.6.4XvXvXvXvXvXvXd.Z.| . . . . . 4 3 X.[.[.V.t.`.`.`.`.!.!.`.!.OX+.% X . . X ).wXwXwXwXwXwXwXwXwXwXwXwXwXwXwXwXwXwXwXwXwXwXwXwXwXwXwXwXwXwXwXwXwXwXwXwXwXwXwXwXwXwXwXwXwXwXwXwXwXwXwXwXwX0.. . X . . . . X ~ '.A.x . . . . . . . . . . . . . . . L s.q.7.q.7.q.7.q.q.q.q.q.7.7.q.q.q.q.q.8.q.q.q.q.q.7.q.q.7.q.q.q.7.q.7.q.7.7.q.7.7.q.q.7.q.7.q.7.q.7.q.q.q.q.7.q.q.q.t.O . . . . . c 7XwXwX",
"wXwXwX;X# . . . . . . . . . . . . . # ^...{.vXvXvXvXvXvXxXd.( ~.Y.P ( G K vXxX@XQ.G K 0.6.0.t.l 6.4XvXxXT.l n +.{.i.n g.vXvXvXvXvXvXxX0.Z.| . . . . . . ( ~.'.!.!.`.[.u.u.[.`.!.!.[.N.M . . X . . X ).wXwXwXwXwXwXwXwXwXwXwXwXwXwXwXwXwXwXwXwXwXwXwXwXwXwXwXwXwXwXwXwXwXwXwXwXwXwXwXwXwXwXwXwXwXwXwXwXwXwXwXwXwX0.X X X . . . . . . + X . . . . . . . . . . . . . . . 7 d.q.q.8.q.q.q.q.q.q.q.8.q.q.8.q.q.q.q.q.q.q.q.q.q.q.q.q.q.q.q.q.q.q.q.q.q.q.q.q.q.q.q.q.q.q.7.q.q.q.q.q.q.8.q.8.q.q.q.w.o.. . . . . c 7XwXwX",
"wXwXwX;X# . . . . . . . . . . . . . . O S.X.Y.vXvXvXvXvXvXvX2Xu./ A./.u.J ! 6.V.~.M [ xXxXxX1Xn _ d.X.G ( Y./.6.n l l K xXvXvXvXvX4XO.W.I . . . . . 5 M.[.!.`.!.!.`.!.`.`.t.V.OX~.P 3 3 . . . . . X ).wXwXwXwXwXwXwXwXwXwXwXwXwXwXwXwXwXwXwXwXwXwXwXwXwXwXwXwXwXwXwXwXwXwXwXwXwXwXwXwXwXwXwXwXwXwXwXwXwXwXwXwXwXq.. . . . . . . . . . . . . . . . . . . . . . . . . % d.q.q.q.q.q.q.q.q.q.q.q.7.q.q.q.q.q.q.q.q.q.q.q.q.q.q.q.q.q.q.q.q.q.q.q.q.q.q.q.q.q.q.q.q.q.q.q.q.q.q.q.q.q.q.q.q.q.q.q.q.p.P . . . . c 7XwXwX",
"wXwXwX;X# . . . . . . . . . X X . . . . X y.i.0.xXvXvXvXvXvXvXvXxXT.] X.Y.^.W.i...E G G G G K ~ #.Z.^.^.u./ 6.{._ k k k u.vXvXvX{._ /.x . . . . . #.[.`.`.!.!.'.`.`.!.!.'.'.Y.( h 4 g , . . . . . X ).wXwXwXwXwXwXwXwXwXwXwXwXwXwXwXwXwXwXwXwXwXwXwXwXwXwXwXwXwXwXwXwXwXwXwXwXwXwXwXwXwXwXwXwXwXwXwXwXwXwXwXwXwX0.. . . . . . . . . . . . . . . . . . . . . . . . X t.p.p.p.p.p.p.p.p.p.p.p.p.p.p.p.p.p.p.p.p.p.p.p.p.p.p.p.p.p.p.p.p.p.p.p.p.p.p.p.p.p.p.p.p.p.p.p.p.p.p.p.p.p.p.p.p.p.p.p.p.p.p.B.x . . . c 7XwXwX",
"wXwXwX;X# . . . . . . . . x T.Y.m . . . . . I ^.] {.vXvXvXvXvXvXvXvXvX2XT.6.( _ 6.g.A.R.R.R.Z.u.+.( ] d.{.xXvXvXT.l l l M +XxXd.6.R.- . . . . . O +X!.!.`.`.'.!.!.`.`.'.!.!.`.X.4 , , 4 . . . . . X ).wXwXwXwXwXwXwXwXwXwXwXwXwXwXwXwXwXwXwXwXwXwXwXwXwXwXwXwXwXwXwXwXwXwXwXwXwXwXwXwXwXwXwXwXwXwXwXwXwXwXwXwXwX0.. . . . . . . . . . . . . . . . . . . . . . . . X x c c c c c c c c c c c c c c c c c c c c c c c c c c c c c c c c c c c v v c c c c c c c c c c c c c c c c c c c c c c c c c c - . . . c 7XwXwX",
"wXwXwX;X# . . . . . . , r.[.!.!.[.u.2 . . . . < R.t.0.2XvXvXvXvXvXvXvXvXvXvXvXxX1X'.Q.T.T.T.~.|.2XxXvXvXvXvXvXvXxXJ k l k ( ] W. .. . . . . . . O +X!.!.`.!.`.!.!.`.!.`.!.!.`._ 5 , , 4 . . . . . X ).wXwXwXwXwXwXwXwXwXwXwXwXwXwXwXwXwXwXwXwXwXwXwXwXwXwXwXwXwXwXwXwXwXwXwXwXwXwXwXwXwXwXwXwXwXwXwXwXwXwXwXwXwX0.. . . . . . . . . . . . . . . . . . . . . . . . . . . . . . . . . . . . . . . . . . . . . . . . . . . . . . . . . . . . . . . . . . . . . . . . . . . . . . . . . . . . . . . . . . . . . c 7XwXwX",
"wXwXwX;X# . . . . + ..[.`.'.!.!.'.`.[.X.# . . . X ~ ^.X.d.4XvXvXvXvXvXvXvXvXvXvXvXvXvXvXvXvXvXvXvXvXvXvXvXvXvXvXvXt.l l n g.S.< . . . . . . . . O [.'.`.`.!.!.'.`.`.!.!.'.`.'._ g 4 4 O . . . . . X ).wXwXwXwXwXwXwXwXwXwXwXwXwXwXwXwXwXwXwXwXwXwXwXwXwXwXwXwXwXwXwXwXwXwXwXwXwXwXwXwXwXwXwXwXwXwXwXwXwXwXwXwXwXq.. . . . . . . . . . . . . . . . . . . . . . . . . . . . . . . . . . . . . . . . . . . . . . . . . . . . . . . . . . . . . . . . . . . . . . . . . . . . . . . . . . . . . . . . . . . . . c 7XwXwX",
"wXwXwX;X# . . . P ~.[.!.!.`.`.`.`.!.!.'.~.I X . . . # +.^.X.0.+XvXvXvXvXvXvXvXvXvXvXvXvXvXvXvXvXvXvXvXvXvXvXvXvXxXN.M g.R.m . . . . . . . . . . O +X!.!.`.`.'.!.!.`.`.'.!.!.`...4 O . . . . . . . X ).wXwXwXwXwXwXwXwXwXwXwXwXwXwXwXwXwXwXwXwXwXwXwXwXwXwXwXwXwXwXwXwXwXwXwXwXwXwXwXwXwXwXwXwXwXwXwXwXwXwXwXwXwXq.. . . . . . . . . . . . . . . . . . . . . . . . . . . . . . . . . . . . . . . . . . . . . . . . . . . . . . . . . . . . . . . . . . . . . . . . . . . . . . . . . . . . . . . . . . . . . c 7XwXwX",
"wXwXwX;X# . . 2 +X!.!.`.!.`.!.!.`.!.`.!.!.OXx . . . . . # o.^.u.] N.2XvXvXvXvXvXvXvXvXvXvXvXvXvXvXvXvXvXvXxX'.6.X.R.S.v . . . . . . . . . . . . O +X!.!.`.!.`.!.!.`.!.!.`.!.`.( . . . . . . . . . X ).wXwXwXwXwXwXwXwXwXwXwXwXwXwXwXwXwXwXwXwXwXwXwXwXwXwXwXwXwXwXwXwXwXwXwXwXwXwXwXwXwXwXwXwXwXwXwXwXwXwXwXwXwXq.. . . . . # G J , . . . - J J - . . . , J G % . . . 1 J G # . . . 2 K F # . . . 5 K M O . . . h K n O . . . h K n O . . X x K x X . . X n K h . . . O n K h . . . O M K 5 . . . . . . . . c 7XwXwX",
"wXwXwX;X# . . 5 [.!.!.'.`.'.!.!.'.`.'.!.!.[.x . . . . . . . . G C.W.r.] 6.V.{.5XvXvXvXvXvXvXvXvXxX2X~.d.X.o.A.R.+.- . . . . . . . . . . . . . . O [.'.`.`.!.!.'.`.`.!.!.'.`.'.! . . . . . . . . . X ).wXwXwXwXwXwXwXwXwXwXwXwXwXwXwXwXwXwXwXwXwXwXwXwXwXwXwXwXwXwXwXwXwXwXwXwXwXwXwXwXwXwXwXwXwXwXwXwXwXwXwXwXwXq.. . . O n K l l J G - M J l l J M - F J l l K n - G J l l K n - G F l l K n , J F k n K h 1 K M l n K h 1 K M l n K 5 2 K n k n K 2 5 K n k M K 1 h K n k M J 1 h K n l F J - . . . . . . c 7XwXwX",
"wXwXwX;X# . . 5 OX`.'.!.!.`.`.'.!.!.!.'.`.[.x . . . . . . . . . . X m r.R.W.Z.r.X...X.X.X.X.] X.+.u.R.W.S. .- . . . . . . . . . . . . . . . . . O +X!.!.`.`.'.!.!.`.`.'.!.!.`.! . . . . . . . . . X ).wXwXwXwXwXwXwXwXwXwXwXwXwXwXwXwXwXwXwXwXwXwXwXwXwXwXwXwXwXwXwXwXwXwXwXwXwXwXwXwXwXwXwXwXwXwXwXwXwXwXwXwXwXq.. . . n n l n ] k l / n n ] X.l n / l M n k l n / l n E F l n / l l k l l n / l l l l k M ! l F l n n F T l l l n M J K l l ! M l K J l F l l l T F l #.G _ l ! M l @.K / l T . . . . . . c 7XwXwX",
"wXwXwX;X# . . 5 OX!.!.`.!.`.!.!.`.!.`.!.!.[.x . . . . . . . . . . . . . . X , D  .$.y.j.j.i.y.o.I c # . . . . . . . . . . . . . . . . . . . . . X +X!.!.`.!.`.!.!.`.!.!.`.!.'.I . . . . . . . . . X ).wXwXwXwXwXwXwXwXwXwXwXwXwXwXwXwXwXwXwXwXwXwXwXwXwXwXwXwXwXwXwXwXwXwXwXwXwXwXwXwXwXwXwXwXwXwXwXwXwXwXwXwXwXq.. . . n l l F 6.k l T l n 0.t.l l T l F g.n l l T l _ Q.K l k T k n n n n l T M t.t.t._ l T l ! 0.d.F n K n 0.u.Q.#.F J l 0.Y.d.O.J F ! Q.V.t.J K n l T.X.O.l K l K V.@.0.n K . . . . . . c 7XwXwX",
"wXwXwX;X# . . 5 [.!.!.'.`.`.!.!.'.`.'.!.!.[.x . . . . . . . . . . . . . X . . . . . . . . . . . . . . . . . . . . . . . . . . . . . . . . . . . . m Q.'.`.!.!.'.`.`.!.!.'.[.X.O . . . . . . . . . X ).wXwXwXwXwXwXwXwXwXwXwXwXwXwXwXwXwXwXwXwXwXwXwXwXwXwXwXwXwXwXwXwXwXwXwXwXwXwXwXwXwXwXwXwXwXwXwXwXwXwXwXwXwXq.. . . n l l F 6.l l T l n 0.t.l l T l k G g.n l T l l 6.0.l k T l 5.0.0.X.l T n ] ] ] E l T l M V.t.l n K l ] T.6.! F J l _ M.+./ J F K ] Q.O.F K n l t.g.#.l K l K V.@.0.n K . . . . . . c 7XwXwX",
"wXwXwX;X# . . 5 OX`.'.!.!.`.`.'.!.!.!.'.`.[.x . . . . . . . . . . . . . . . . . . . . . . . . . . . . . . . . . . . . . . . . . . . . . . . . . . . O ~ '.`.'.!.!.`.`.[.t., . . . . . . . . . . . X ).wXwXwXwXwXwXwXwXwXwXwXwXwXwXwXwXwXwXwXwXwXwXwXwXwXwXwXwXwXwXwXwXwXwXwXwXwXwXwXwXwXwXwXwXwXwXwXwXwXwXwXwXwXq.. . . n k l M @.k l T l n 6.0.l l T l l l G / l T l l X.6.J l T l l l l l l T n E E E G l T l ( F / J n K l X./ E J F J l E u._ K J F F E E @.n K n l 0.J g.l K l l 6.E ( l K . . . . . . c 7XwXwX",
"wXwXwX;X# . . 5 OX!.!.`.!.`.!.!.`.!.`.!.!.[.x . . . . . . . . . . . . . . . . . . . . . . . . . . . . . . . . . . . . . . . . . . . . . . . . . . . . . % #.[.!.!.[.V.c . . . . . . . . . . . . . G 3XwXwXwXwXwXwXwXwXwXwXwXwXwXwXwXwXwXwXwXwXwXwXwXwXwXwXwXwXwXwXwXwXwXwXwXwXwXwXwXwXwXwXwXwXwXwXwXwXwXwXwXwXwX0.. X X 1 K n l l l K ! T n n l n T ! T l l k n T ! K l M n n T ! K l l l n T ! J l k l M E ! J l l l M ! ! F l l l F ! ! F l M n F ! ! F l l l F ! ! M l l l J ! E M l l l J ! M # . . . . c 7XwXwX",
"wXwXwX;X# . . 2 [.!.!.'.`.`.!.!.'.`.'.!.!.[.x . . . . . . . . . . . . . . . . X . . . . . . . . . . . . . . . . . . . . . . . . . . . . . . . . . . . . . . 5 B.`.! X . . . . . . . . . . . . . G 3XwXwXwXwXwXwXwXwXwXwXwXwXwXwXwXwXwXwXwXwXwXwXwXwXwXwXwXwXwXwXwXwXwXwXwXwXwXwXwXwXwXwXwXwXwXwXwXwXwXwXwXwXwXwXq.. X X X O n K J T M k n T K J T n l n E J K T n k M E J K T n l M T F T T n l F E F T K l l F E F T K l l J E F T K l l J T F E J l l K T F E J l l K T F E F l l K T F ! F l n K x X . . c 7XwXwX",
"wXwXwX;X# . . # M.[.'.!.!.`.`.'.!.!.!.'.[.V.% . . . . . . . . . . . . . . . . . . . . . . . . . . . . . . . . . . . . . . . . . . . . . . . . . . . . . . . . . O . . . . . . . . . . . . . . G 3XwXwXwXwXwXwXwXwXwXwXwXwXwXwXwXwXwXwXwXwXwXwXwXwXwXwXwXwXwXwXwXwXwXwXwXwXwXwXwXwXwXwXwXwXwXwXwXwXwXwXwXwXwXwXwXq.. . . . . . , T k k k n n J K k k k F l K J k k _ K l T F k / +.l l ! M k ] E M l / n n G 0.l l / n k k k k l / n k / J k l / l k k k k n / l k E F k n / l k k / G n / l k k _ F M h . . c 7XwXwX",
"wXwXwX;X# . . . . G T.'.!.`.!.!.`.!.'.Q.L . . . . . . . . . . . . . . . . . . . . . . . . . . . . . . . . . . . . . . . . . . . . . . . . X . . . . . . . . . . . . . . . . . . . . . . . . G 3XwXwXwXwXwXwXwXwXwXwXwXwXwXwXwXwXwXwXwXwXwXwXwXwXwXwXwXwXwXwXwXwXwXwXwXwXwXwXwXwXwXwXwXwXwXwXwXwXwXwXwXwXwXwXwXwXq.. . . . . . # J l 0.u.Q.6.F J l l E u.l J M l _ 6.G _ K n _ K [ +.l K n ( n A.0.l T l M +X/ X.G T l l l n l l T l l n l l l T l M l l M l T l l M n l l T l G l X.K l T l l G l l l x . . c 7XwXwX",
"wXwXwX;X# . . . . . O ( '.'.!.!.'.[.X.O . . . . . . . . . . . . . . . . . . . . . . . . . . . . . . . . . . . . . . . . . . . . . . . h 0.p.p.w.u.u.w.w.w.w.w.w.w.w.w.w.w.w.0.0.0.0.0.0.0.0.3XwXwXwXwXwXwXwXwXwXwXwXwXwXwXwXwXwXwXwXwXwXwXwXwXwXwXwXwXwXwXwXwXwXwXwXwXwXwXwXwXwXwXwXwXwXwXwXwXwXwXwXwXwXwXwXwXwXq.. . . . . . # J l ( T.@.! F J k E u.n k J M / 6.F g.n K n n u.K ] K K n G T.6.u.J T l 0.E Q.5.l T k k G / k k T k k k k k k T k ] k l ] k T l F k n F k T k _ k X.K k T k k ( l k l x . . c 7XwXwX",
"wXwXwX;X# . . . . . . . - 0.[.[.r.- . . . . . . . . . . . . . . . . . . . . . . . . . . . . . . . . . . . . . . . . . . . . . . . O _ 3XwXwXwXwXwXwXwXwXwXwXwXwXwXwXwXwXwXwXwXwXwXwXwXwXwXwXwXwXwXwXwXwXwXwXwXwXwXwXwXwXwXwXwXwXwXwXwXwXwXwXwXwXwXwXwXwXwXwXwXwXwXwXwXwXwXwXwXwXwXwXwXwXwXwXwXwXwXwXwXwXwXwXwXwXq.. . . . . . # J l 6._ ! K F J l ] n l l J M n F g.n l K n l n u.J l K n n @.d.n l T l l ] +.( l T l l l l l l T l l / J k l T l l l l l l T l _ l n ! l T l l l [ K l T l X.l l l l x . . c 7XwXwX",
"wXwXwX9X@.X . . . . . . . . 7 x . . . . . . . . . . . . . . . . . . . . . . . . . . . . . . . . . . . . . . . . . . . . . . . . 5 B.9XwXwXwXwXwXwXwXwXwXwXwXwXwXwXwXwXwXwXwXwXwXwXwXwXwXwXwXwXwXwXwXwXwXwXwXwXwXwXwXwXwXwXwXwXwXwXwXwXwXwXwXwXwXwXwXwXwXwXwXwXwXwXwXwXwXwXwXwXwXwXwXwXwXwXwXwXwXwXwXwXwXwXwXwXwXq.. . . . . % J ! F l k k F ! ! F k k l F ! ! F n n l J ! ! M k l n J ! E M k F n J ! T n n k l K ! T n k k l K ! T n l l n T ! T n k k n T ! K l k k n T ! K l k n n T ! J n k k M K - . . c 7XwXwX",
"wXwXwXwX9X@.X . . . . . . . . . . . . . . . . . . . . . . . . . . . . . . . . . . . . . . . . . . . . . . . . . . . . . . . X ! -XwXwXwXwXwXwXwXwXwXwXwXwXwXwXwXwXwXwXwXwXwXwXwXwXwXwXwXwXwXwXwXwXwXwXwXwXwXwXwXwXwXwXwXwXwXwXwXwXwXwXwXwXwXwXwXwXwXwXwXwXwXwXwXwXwXwXwXwXwXwXwXwXwXwXwXwXwXwXwXwXwXwXwXwXwXwXwXq.. . . O n J l l J E F T J l l J E F E J l l J T F E F l l K T F E F l n K T F E F l n T T G E M k n T K J E M k n T K J T n k n T J K T n k M E J K T n k M E J T T n k F E F K h X . . . c 7XwXwX",
"wXwXwXwXwX9X@.X . . . . . . . . . . . . . . . . . . . . . . . . . . . . . . . . . . . . . . . . . . . . . . . . . . . . . , d.7XwXwXwXwXwXwXwXwXwXwXwXwXwXwXwXwXwXwXwXwXwXwXwXwXwXwXwXwXwXwXwXwXwXwXwXwXwXwXwXwXwXwXwXwXwXwXwXwXwXwXwXwXwXwXwXwXwXwXwXwXwXwXwXwXwXwXwXwXwXwXwXwXwXwXwXwXwXwXwXwXwXwXwXwXwXwXwXwXq.. . . n n G l k k l / n M F F M l / l l ( ] k n / l _ / K ! n / l l 6._ M n / l k _ G k M ! l k ] n k F T l k ] J _ J K n K k E n K J k F g.l l T F k k M _ l ! M F @.F l l ! # . . . . . c 7XwXwX",
"wXwXwXwXwXwX9X@.# # + + # # # # + + # # # # + + # # # # # # # # # # # # + + + + # # # # + + # + # # # # # + # # # # # # K ].wXwXwXwXwXwXwXwXwXwXwXwXwXwXwXwXwXwXwXwXwXwXwXwXwXwXwXwXwXwXwXwXwXwXwXwXwXwXwXwXwXwXwXwXwXwXwXwXwXwXwXwXwXwXwXwXwXwXwXwXwXwXwXwXwXwXwXwXwXwXwXwXwXwXwXwXwXwXwXwXwXwXwXwXwXwXwXwXwXwXq.. . . n k ( l n k l T k X.6.6.+.l T n ! 0.5.] k T l 0.@._ X.k T l 6.X.g./ n T l n n n l l T l n 6.M n n K k k 6.M l F J l u.l u.l J F k @.0.! k K n K u.0.K l K n l K 0.d.F K . . . . . . c 7XwXwX",
"wXwXwXwXwXwXwX9X;X;X;X;X;X;X;X;X;X;X;X;X;X;X;X;X;X;X;X;X;X;X;X;X;X;X;X;X;X;X;X;X;X;X;X;X;X;X;X;X;X;X;X;X;X;X;X;X;X;X;X;X7XwXwXwXwXwXwXwXwXwXwXwXwXwXwXwXwXwXwXwXwXwXwXwXwXwXwXwXwXwXwXwXwXwXwXwXwXwXwXwXwXwXwXwXwXwXwXwXwXwXwXwXwXwXwXwXwXwXwXwXwXwXwXwXwXwXwXwXwXwXwXwXwXwXwXwXwXwXwXwXwXwXwXwXwXwXwXwXwXwXwXwXq.. . . n k l G / l l T k O.t.t.0.l T n g.] t.#.K T k 0.@._ X.k T K X.g._ 0.l T n 0.0.0._ l T G / 6.M X.n K k l 6.M l F J k @.] +.k J F l u.n u.k K n X.g.] n l K n l E u.0.M K . . . . . . c 7XwXwX",
"wXwXwXwXwXwXwXwXwXwXwXwXwXwXwXwXwXwXwXwXwXwXwXwXwXwXwXwXwXwXwXwXwXwXwXwXwXwXwXwXwXwXwXwXwXwXwXwXwXwXwXwXwXwXwXwXwXwXwXwXwXwXwXwXwXwXwXwXwXwXwXwXwXwXwXwXwXwXwXwXwXwXwXwXwXwXwXwXwXwXwXwXwXwXwXwXwXwXwXwXwXwXwXwXwXwXwXwXwXwXwXwXwXwXwXwXwXwXwXwXwXwXwXwXwXwXwXwXwXwXwXwXwXwXwXwXwXwXwXwXwXwXwXwXwXwXwXwXwXwXwXwX0.X . . n k l k l O.l T l +.t.t.6.l T l n g.] _ k T k 0.@._ X.k T l / _ 0.l l T k l K M k l T l k 6.M l n K l X.6.M l F J k M ~.M k J F M _ l _ l K n l l ! #.l K n M X.n l k K . . . . . . c 7XwXwX",
"wXwXwXwXwXwXwXwXwXwXwXwXwXwXwXwXwXwXwX9X9X9X9X9X9X9X9X9X9X9X0X0X9X9X0X0X9X9X9X9X9X0X0X0X9X9X9X9X0XwXwXwXwXwXwXwXwXwXwXwXwXwXwXwXwXwXwXwXwXwXwXwXwXwXwXwXwXwXwXwXwXwXwXwXwXwXwXwXwXwXwXwXwXwXwXwXwXwXwXwXwXwXwXwXwXwXwXwXwXwXwXwXwXwXwXwXwXwXwXwXwXwXwXwXwXwXwXwXwXwXwXwXwXwXwXwXwXwXwXwX3X] ] 3XwXwXwXwXwXwXwXwXq.. . . 1 K n k l l K F K n k k n K F K n n ] n K F K n n n M K G K l E l n K G J l J n M K G J l n l M K G J l l l F J J F l l l F J J F l k l J G K M k k l J G K M k k l J n . . . . . . c 7XwXwX",
"wXwXwXwXwXwXwXwXwXwXwXwXwXwXwXwXwX0XX.5 5 5 5 5 5 5 5 5 5 5 5 5 5 5 5 7 5 5 5 5 5 5 5 7 5 5 5 5 v J.0XwXwXwXwXwXwXwXwXwXwXwXwXwXwXwXwXwXwXwXwXwXwXwXwXwXwXwXwXwXwXwXwXwXwXwXwXwXwXwXwXwXwXwXwXwXwXwXwXwXwXwXwXwXwXwXwXwXwXwXwXwXwXwXwXwXwXwXwXwXwXwXwXwXwXwXwXwXwXwXwXwXwXwXwXwXwXwX9Xu., x 5 , p.9XwXwXwXwXwXwXq.. . . . O n K J F # . O n J J M + . # M J K n O . # G J K n O . # G J K x X . - J F K h X . , J F K h . . 1 K F K 5 . . 2 K F K 2 . . 5 K F K 1 . . h K F J , . X h K F J - . . . . . . . c 7XwXwX",
"wXwXwXwXwXwXwXwXwXwXwXwXwXwXwXwXwX5.X . . . . . . . . . . . . . . . . . . . . . . . . . . . . . . O / :XwXwXwXwXwXwXwXwXwXwXwXwXwXwXwXwXwXwXwXwXwXwXwXwXwXwXwXwXwXwXwXwXwXwXwXwXwXwXwXwXwXwXwXwXwXwXwXwXwXwXwXwXwXwXwXwXwXwXwXwXwXwXwXwXwXwXwXwXwXwXwXwXwXwXwXwXwXwXwXwXwXwXwXwXwX(.v , 0.`.`.@.% x J.0XwXwXwXwX0.. . . . . . # - . . . . . % % . . . . . - # . . . . . , # . . . . . , # . . . . . 1 O . . . . . 1 O . . . . . 1 X . . . . X 1 X . . . . X 1 . . . . . O 1 . . . . . O 1 . . . . . . . . . c 7XwXwX",
"wXwXwXwXwXwXwXwXwXwXwXwXwXwXwXwXw.X . . . . . . . . . . . . . . . . . . . . . . . . . . . . X X . . . , s.0XwXwXwXwXwXwXwXwXwXwXwXwXwXwXwXwXwXwXwXwXwXwXwXwXwXwXwXwXwXwXwXwXwXwXwXwXwXwXwXwXwXwXwXwXwXwXwXwXwXwXwXwXwXwXwXwXwXwXwXwXwXwXwXwXwXwXwXwXwXwXwXwXwXwXwXwXwXwXwXwXwX9X/ % _ `.`.!.`.`.!.~ # E 7XwXwXwXq.. . . . . . . . . . . . . . . . . . . . . . . . . . . . . . . . . . . . . . . . . . . . . . . . . . . . . . . . . . . . . . . . . . . . . . . . . . . . . . . . . . . . . . . . . . . . . c 7XwXwX",
"wXwXwXwXwXwXwXwXwXwXwXwXwXwXwXf.O . . . . . . . . . . . . . . . . . . . X % x D G v 2 O . . . . . . . . . G ].wXwXwXwXwXwXwXwXwXwXwXwXwXwXwXwXwXwXwXwXwXwXwXwXwXwXwXwXwXwXwXwXwXwXwXwXwXwXwXwXwXwXwXwXwXwXwXwXwXwXwXwXwXwXwXwXwXwXwXwXwXwXwXwXwXwXwXwXwXwXwXwXwXwXwXwXwXwXwXwX3X# V.`.`.!.`.`.!.`.`.t.O 3XwXwXwX0.. . . . . . . . . . . . . . . . . . . . . . . . . . . . . . . . . . . . . . . . . . . . . . . . . . . . . . . . . . . . . . . . . . . . . . . . . . . . . . . . . . . . . . . . . . . . . c 7XwXwX",
"wXwXwXwXwXwXwXwXwXwXwXwXwXwXG.# . . . . . . . . . . . . . . . . . # I +.#.5.~ P ..W X.#.#. .2 . . . . . . . # _ 5.5.5.5.5.5.5.5.5.5.5.5.5.5.5.5.5.5.5.5.5.5.5.5.5.5.5.5.5.5.5.5.5.5.5.5.5.5.5.5.5.5.5.5.5.5.5.5.5.5.5.5.5.5.5.5.5.5.5.5.5.5.5.5.5.5.5.5.5.5.5.5.5.5.5.5.5.5.5.X.O T.!.`.`.!.`.`.`.!.M.O 3XwXwXwX0.. . . . . . . . . . . . . . . . X X . . . . . . . . . . . . . . . . . . . . . . . . . X X . . . . . . . . . . . . . . . . . . . . . . . . . . . . . . . . . . . . . . . . . . . . . . . . c 7XwXwX",
"wXwXwXwXwXwXwXwXwXwXwXwXwXJ.# . . . . . . . . . . . . . . . . - X.r.J M M X.M M / n n n n M X.+.m . . . . . . . . . . . . . . . . . . . . . . . . . . . . . . . . . . . . . . . . . . . . . . . . . . . . . . . . . . . . . . . . . . . . . . . . . . . . . . . . . . . . . . . . T.!.`.!.`.`.!.`.`.M.O 3XwXwXwX0.. . . . . . . . . . . . # n / { 5.5.O.' G , . . . . . . . . . . . . . . . . . , G _ O.5.5.O./ n # . . . . . . . . . . . . . . . . . . . . . . . . . . . . . . . . . . . . . . . . . . . . c 7XwXwX",
"wXwXwXwXwXwXwXwXwXwXwXwX).- . . . . . . . . . . . . . . . X ^ g.F M M M M M M M / n n n n n n n +.#.< . . . . . . . . . . . . . . . . . . . . . . . . . . . . . . . . . . . . . . . . . . . . . . . . . . . . . . . . . . . . . . . . . . . . . . . . . . . . . . . . . . . . . . T.!.`.`.!.`.`.`.!.M.O 3XwXwXwX0.. . . . . . . . . . # E 5.q.7.5.{ ] O.7.q.7.' 2 . . . . . . . . . . . . . 1 ' 7.q.7.5.] ] 4.7.q.5.E # . . . . . . . . . . . . . . . . . . . . . . . . . . . . . . . . . . . . . . . . . . c 7XwXwX",
"wXwXwXwXwXwXwXwXwXwXwX]., . . . . . . . . . . . . . . . - r.K G M M M M M M M M ~ n n M n n n n n n #.L . . . . . . . . . . . . . . . . . . . . . . . . . . . . . . . . . . . . . . . . . . . . . . . . . . . . . . . . . . . . . . . . . . . . . . . . . . . . . . . . . . . . . T.`.`.!.`.`.!.`.`.M.O 3XwXwXwX0.. . . . . . . . . h 5.7.{ n % O O . . + G / 7.7.K X . . . . . . . . . X K 7.7.) h # , 2 , O % K { 7.5.h . . . . . . . . . . . . . . . . . . . . . . . . . . . . . . . . . . . . . . . . . c 7XwXwX",
"wXwXwXwXwXwXwXwXwXwX-X5 . . . . . . . . . . . . . . . 5 9.G M M M M M M M M M M ~ n n _ G n n n X.n n ( ^ . . . - # o.X.X.X.o.o.X.X.X.X.X.X.X.X.X.X.X.X.X.X.X.X.X.x . h n n m n n n n n n n n n n n 5 . 1 n n n n m n n n n n n n n n x . # n n n n n n n n n n n n n n v O . . . T.!.`.`.`.`.!.`.!.g.O 3XwXwXwX0.. . . . . . . . M 7.5.J O . . . . . . . . . 1 { 8.) O . . . . . . . O ) 7.{ n , I P #.+.$.i.#.P # n 5.7.G . . . . . . . . . . . . . . . . . . . . . . . . . . X - e e w # . . . . . . . . c 7XwXwX",
"wXwXwXwXwXwXwXwXwX:Xh . . . . . . . . . . . . . . . 2 r.G G F F M M M G +.6.t.u.M.t.0.#.! n n n n n n n ( ~ . . - x +.'.!.!.!.!.!.!.!.!.!.!.!.!.!.!.!.!.!.!.!.!.!.[.v , ] _ _ _ _ _ _ _ _ _ _ _ _ _ ] x # ( _ _ _ _ _ _ _ _ _ ] _ _ _ ' J X P _ _ _ ] _ ' _ _ _ ] _ _ _ _ / O . . - 6.`.!.`.`.!.`.+.% 5 7XwXwXwX0.. . . . . . . n 7.O., . . . . . . . . . . . . O { 5.% . . . . . . X / 7./ # I v X . . . . X 2 ~ y.m , 5.' . . . . . . . . . . . . . . . . . . . . . . . . . X : =.&.&.&.u ; . . . . . . . c 7XwXwX",
"wXwXwXwXwXwXwXwX6Xv . . . . . . . . . . . . . . . # r.G G G G ( M K 6.t.] ] ] ] 5.] ' ] 5.t.( n n n n n n ( L . . - x +.`.!.!.!.!.!.!.H.!.H.!.d.e.J.!.H.s.!.!.!.!.!.[.v , ] _ _ _ ] ] 6.u.6.6.6.] _ _ ] x # ( _ _ X.0.' 0.0.X.0.] t.O._ ' G X P _ @.0.' N._ _ O.V.O.O.O.0.X./ O . . . x N.`.`.u.5 # ] 6XwXwXwXwX0.. . . . . . , 5.4.% . . . . . . . . . . . . . K F ~ K . . . . . . n 7.) % ~ # . . . . . . . . . , +.~ # X.n . . . . . . . . . . . . . . . . . . . . . . . . - =.u 6 , : u u # . . . . . . c 7XwXwX",
"wXwXwXwXwXwXwX7XG . . . . . . . . . . . . . . . . +.P G G G G ! ..t.] ] ] ] ] ] 5.] ] ' ] ' #.r.M n n n n n +.< X . - x #.`.!.!.!.!.J.H.J.J.J.B.B.!.!.H.0.J.!.!.!.!.!.[.v , ] _ ' @.O.u.0.5.@.' 5._ _ _ ] h # ( _ X.t.' g.@.' 6._ 6.@._ _ ' G X P _ @._ 0.[ _ ] 0.] ' [ 5.] _ / O . . . X L D . 1 ).wXwXwXwXwXwX0.. . . . . . ' 7.F . . . . . - 2 1 1 4 1 X . h 7.7.G r.h . . . . # 5.4.5 ~ X . . . . . . . . . . . O 5 - I X.# . . . . . . . . . . . . . . . . . . . . . . . e &.1 , , , : y , . . . . . . c 7XwXwX",
"wXwXwXwXwXwX9XK . . . . . . . . . . . . . . . . G _ G G G G G 6.5.] ] ] ] ] ' ] 5._ ' ' ] ' _ ] u.G n n n n M y.. X X , x #.`.!.!.!.!.!.!.!.J.!.!.!.!.!.!.!.!.!.!.!.!.!.[.c , ] _ _ _ _ _ _ _ _ _ _ _ _ ) ] x + ( _ _ _ ) ) _ _ _ _ _ _ ) _ ' G X P _ _ _ _ _ _ _ _ _ _ _ _ _ _ / O . . . . . . n wXwXwXwXwXwXwX0.. . . . . 2 7.] X . . . O 5 # . X X X X # . X ) 7.O.I ! X . . . J 7.n L % . . . . . . X X . . . . . . . . ^ G . . . . . . . . . . . . . . . . . . . . . . X y u , , , , , , , . . . . . . c 7XwXwX",
"wXwXwXwXwX0X/ . . . . . . . . . . . . . . . . X i.! J G G G #.5.] ] ] ] ] ] ' ] 5.] ] ] _ _ ' ' ' u.M n n n n ( v . . . , x #.`.!.!.!.!.!.!.!.!.!.!.!.!.!.!.!.!.!.!.!.!.!.[.c , ] _ _ _ _ _ _ _ _ _ _ _ _ ) ] h # ( _ _ ) _ _ _ _ _ _ _ ) _ ) ' G X P _ _ _ _ _ _ _ _ _ _ _ _ _ _ / O . . . . . n wXwXwXwXwXwXwX0.. . . . . E 7.5 z 2 # . 5 . 5 o. . .o.I - P . # 5.7.G u.5 . . X 4.4.% L . . . . . G #.o.+.#.5 . . . . . . G X.O . . . . . . . . . . . . . . . . . . . . . . e &.1 , , , 3 , , . . . . . . c 7XwXwX",
"wXwXwXwX0X] . . . . . . O x . . . . . . . . . L ( J J J G _ 0.] ] ] ] ] X.6.X...6.X.#.@._ _ _ ' ' ] 6.n n n n n #.. . . . , 9 #.`.!.!.!.!.!.!.!.!.!.!.!.!.!.!.!.!.!.!.!.!.!.[.c , ] _ _ _ _ _ _ _ _ _ _ _ ) _ ] x # _ _ _ _ _ _ _ _ _ _ _ _ _ ) ' G X E _ _ _ _ _ _ _ _ _ _ _ _ _ _ / O . . . . n wXwXwXwXwXwXwX0.. . . . X 4.O.> &Xl.Y n x c  .. . . . c +.~ , . J 7.' o.G . . 1 7.K G c . . . .  .G . . . O X.v . . . . . X u.5 . . . . . . O O % . # . 9 x . - m . . . . . ; =.u 1 , 4 E J # . . . . . . c 7XwXwX",
"wXwXwXwX@.. . . . . . G T.`.g.5 . . . . . . . $.K J J J J g.[ ] ] ] ] 6.] M M M / n n K #.] ' _ _ _ #./ n n n n ] 2 . . . . , 9 #.[.'.'.'.'.`.'.'.'.'.'.`.`.'.'.'.'.`.'.'.'.'.+Xc , ] ] ] ] ] ] ] ] ] ] ] ] ] ] [ x # _ ] ] ] ] ] ] ] ] ] ] ] ] ] [ K X E ] ] ] ] ] ] ] ] ] ] ] ] ] ] ( X . . . n wXwXwXwXwXwXwX0.. . . . # 5.] C *X*XC n o.+.. . . . . .  . .m . 1 7.5.L E . . x 7.G ~ m . . . x ~ . . . . . . 6.O . . . . . I F . . . . . . O P G . % . m t.. G G 2 - L v . X : =.( ! _ ! 4 . . . . . . . c 7XwXwX",
"wXwXwX).X . . . . 5 g.`.`.!.`.`.@.% . . . . % 6.K K J J +.@.X.[ ] ] 6.E F M M M / n n n n +.] ' _ ] 0.r.n n l n n  .. . . . . , m  .X.X.X.X. . . . .X.X.X.X.X.X.X.X. . .X. .X.X.I x D P P P P P P P P P P P P P P G x v P P P P P P P P P P P P P P P x c P P P P P P P P P P P P P P P # . . . m wXwXwXwXwXwXwX0.. . . . . J c ,.&X&Xf t. .I . , X # m . O # T.X % G m I X.. . . ! < #., . . . o.O . . . . . . v D . . . . X  .G . . . . . . . I % 2 # % , c O . x . . . . . . X , b M h # . . . . . . . . c 7XwXwX",
"wXwXwXE.. . . . G `.`.!.`.`.!.!.`.~., . . . I ( K K K K u.X.X.X.X.6.~ G G M M M ! n n n n n #.' _ _ _ 6.K n n n n o.. . . . . . . X X X X X X X X X X X X . X X X X X X X X X X X X X X X X X X X X X X X X X X X X X X X X X X X X X X X X X X X X X X X X X X X X X X X X X X X X X X . . . . m wXwXwXwXwXwXwX0.. . . . . G  .,.*X&X> ! 2 . , L , # #.% X O ..x M.u.#.I @.X . X +.m y.# . . . +.. . . . . . . , g.~ I G c %  .J . . . . . . . . . . . . . . . . . . . . . . . . . . . . . . . . . . . . . c 7XwXwX",
"wXwXwXE.. . . . ~ !.`.`.`.!.`.`.!.`.5 . . .  .P P K K W d.X.X.X.X.#.J G G F M M ! n n n n n P +._ _ _ _ +.n n n l #.. . . . . . . . . . . . . . 2 c c x x x x x x x c x x c c c x x x x x x x x x x x x x x x x x x x x x x x x x x x x x x x x x x x x x x x x x x x x x x x x x x x x , . . . m wXwXwXwXwXwXwX0.. . . . . G  .,.&X&Xf ! 7 - X m O . c < % +.~ 2 ^ ( ( D ( . . . ] L 9.- . . . +.X . . . . . . x L X # , v  .L G . . . . . . . . . . . . . . . . . . . . . . . . . X O X . . . . . . . . . c 7XwXwX",
"wXwXwXE.. . . . ~ `.`.!.`.`.!.!.`.'.5 . . . #.P P P P +.@.X.X.X.5.( J J J G F M ! n n n n n n +._ _ _ _ 6.n n n n +.- . . . . . . . . . . . . . 6.!.!.!.H.!.!.!.!.!.!.!.!.!.!.T.w.w.w.w.w.p.w.w.w.w.s.w.w.w.w.p.w.w.w.w.w.s.w.w.w.w.s.w.w.w.w.w.s.w.w.w.w.s.w.w.w.w.w.p.w.w.w.w.s.w.w.w.] . . . n wXwXwXwXwXwXwX0.. . . . . M I C &X&XC ! o.r.. . . . . . ~ I o.G I 2 . | E . . . K L ( v . . . m G . . . . . . +.# . . . x G o.M . . . . . . . . . . . . . . . . . . . . . . . O 6 w r w , . . . . . . . . c 7XwXwX",
"wXwXwXE.. . . . ~ !.`.`.`.!.`.`.!.`.5 . . . #.P P P P 9.X.X.X.X.t.P P K K J G F ! n n n n n n .._ _ ' _ 0.n n n n ! x . . . . . . . . . . . . . 6.J.N.J.d.N.!.!.H.X.N.!.!.!.!.w.8.q.7.q.q.e.8.8.8.8.w.8.8.8.8.e.q.8.8.8.8.w.8.8.8.8.w.q.8.q.8.8.w.8.8.8.8.w.8.8.8.8.q.w.q.8.8.8.w.q.8.8.] . . . m wXwXwXwXwXwXwX0.. . . . . 2 u.> &X*Xl.1 #.^ o.O . . . L ^ V.# m  .6.P o.G . . . G o.L I . . . . +.9 . . . . ! P . . . . ..- u.5 . . . . . . . . . . . . . . . . . . . . . . O w *.t t *.*.6 . . . . . . . c 7XwXwX",
"wXwXwXE.. . . . ~ `.`.!.`.`.!.!.`.'.5 . . . i.........g.0.0.0.0.g...........] ] u.+.( ! E ! E 6.@.@.@.@.g.! ! ! ! X.v . . . . . . . . . . . . . 6.!.H.!.J.E.!.J.!.H.!.!.!.!.w.w.q.q.q.q.q.e.q.q.q.q.w.q.q.q.q.e.q.q.q.q.q.p.q.q.q.q.w.q.q.q.q.q.w.q.q.q.q.w.q.q.q.q.q.w.q.q.q.q.w.q.q.q.] . . . M wXwXwXwXwXwXwX0.. . . . . O ] L 1.*X&XC n +.I +.o.o.o.I M.-  .o.2 - c ..2 X . . 1 r.2 y.# . . . X ( #.~ ( 6.D . . . . O #.D ! O . . . . . . . . . . . . . . . . . . . . . . 1 *.r , , , r t = . . . . . . c 7XwXwX",
"wXwXwXE.. . . . ~ !.`.`.`.!.`.`.!.'.5 . . . 9.E E P P r.X.+.X.X.t.E E E W W ~ ..M.Z.^.S.i.$. .o._ _ _ _ 0.l n n n E c . . . . . . . . . . . . . 6.!.!.!.!.!.!.!.!.!.!.!.!.d.p.p.p.w.8.e.p.p.e.q.q.p.p.p.q.q.e.p.p.e.8.q.p.p.p.q.q.w.p.p.w.8.w.p.p.w.q.q.p.p.p.w.8.w.p.p.w.q.q.p.p.p.q.8.] . . . M wXwXwXwXwXwXwX0.. . . . . . F  .f &X*X%Xf x !  .u.~ ~ r.- 5  .#.o.G  .! X . . . . K ~ ! D . . . . . X ..- . . . . . . ( 7 r.G . . . . . . . . . . . . . . . . . . . . . . . w *., , , , 6 w , . . . . . . c 7XwXwX",
"wXwXwXE.. . . . O _ `.!.`.`.`.!.T.G . . . . #.E E E E 6.@.O.+.+.t.~ W ! ~ ( ..+.g.g.g.g.B.Z.T.@X/.R.C.i.u.b b b l ] 2 . . . . . . . . . . . . . 6.!.!.!.!.!.!.!.!.!.!.!.B.p.q.7.q.e.s.w.7.7.q.s.w.q.7.q.p.s.q.7.7.w.s.e.q.7.q.p.s.q.7.q.w.s.e.q.7.q.s.p.q.7.q.e.s.w.7.7.q.s.w.q.q.q.w.s.... . . M wXwXwXwXwXwXwX0.. . . . . . # ] ^ Y &X&X&XC 2 X 5 , 2 G c r., ~  .5 o.5 . . . . . 5 6.c D . . . . . . ^ . . . . X . c ( m ] # . . . . . . . . . . . . . . . . . . . . . . X w t , , , , , , , . . . . . . c 7XwXwX",
"wXwXwXE.. . . . . . - 6.`.!.`._ O . . . . . +.W W W W ..u.@.@.@.@.#.~ ( _ ..X.+.g.u.g.g.g.B.Z._.Y.Y.R.Q.kX^.C.y.o.u.O . . . . . . . . . . . . . @.H.H.G.G.G.G.H.G.G.G.N.e.q.8.8.8.q.p.8.7.q.8.w.q.8.8.8.q.w.q.8.8.7.p.8.8.q.8.q.e.8.8.8.8.w.8.8.8.q.w.w.8.8.8.7.w.8.8.8.q.p.q.8.8.8.q.w.] X . . D wXwXwXwXwXwXwX0.. . . . . . . h _ - ,.&Xz.j X . . . ~ r.m ^ X.+ x y.J . . . . . . . J ! O . . . . . . ( . . . . X m o.m #.h . . . . . . . . . . . . . . . X . . . . . . . . w *.6 , , , 4 3 , . . . . . . c 7XwXwX",
"wXwXwXE.. . . . . . . . x o.- . . . . . . . | ! W W W W g.@.@.@.@.u._ _ ....X.#.g.t.u.g.g.g.W.Y.Y.Y.Y.Q.~.Z.Z.Z.A.W.. . . . . . . . . . . . . . ] q.e.7.q.w.q.w.q.8.7.8.e.q.7.8.8.d.p.8.7.q.8.w.q.q.w.7.q.w.8.7.8.8.w.7.8.q.q.q.e.q.q.q.7.w.8.7.8.q.w.w.8.7.8.7.w.7.7.8.q.w.q.q.q.8.q.w.] . . . G wXwXwXwXwXwXwX0.. . . . . . . X { 4.4 C C , . . . . v #.( # ~ x +.E O . . . . . . . , 7.] # . . . . . ^ . . . - o.! 5 6.M . . . . . . . . . . . . . x . - L , . 2 . 7 L - . = t t 6 1 w / J + . . . . . . c 7XwXwX",
"wXwXwXE.. . . . . . . . . . . . . . . . . . 9 #.W W ! ! u.@.@.#.5.6.i.....X.+.6.g.t.u.i.g.A.Q.T.Y.Y.Y.}.Z.C.Z.Z.Z.9.. . . . . . . . . . . . . . ] w.p.w.q.d.w.s.q.8.q.q.p.w.7.8.8.B.s.q.8.q.q.s.q.w.d.8.q.s.q.w.q.q.s.q.q.q.8.w.p.q.q.7.q.s.q.7.8.8.w.e.8.8.q.q.s.q.7.8.q.s.w.q.q.q.q.s.] . . . G wXwXwXwXwXwXwX0.. . . . . . . . x 5.5.G 5 . . . . . # +. .- ~ r.K O . . . . . . . . X E 7.O.h . . . . #.L ( #...5 o.+.n . . . . . . . . . . . . . < L < # ~ v . O . P 6.2 . . 1 t *.*.*.U , . . . . . . . c 7XwXwX",
"wXwXwXE.. . . . . . . . . . . . . . . . . . X u.W E ! ! ..g.5.5.5.6.t.g.X.X.+.6.g.t.t.u.A.R.Z.T.T.T.Y./.B.B.C.C.Y.L . . . . . . . . . . . . . . +.e.w.B.q.N.B.q.p.e.q.p.w.e.p.q.w.H.q.p.w.w.p.w.e.d.V.p.w.w.p.H.e.p.q.w.w.q.p.e.w.p.w.e.p.q.p.e.w.p.w.e.p.q.w.w.w.B.w.d.p.w.e.p.q.w.w.w.] . . . G wXwXwXwXwXwXwX0.. . . . . . . . . 2 O.7.4.J 1 O X X O L X.( ] b . . . . . . . . . . . . M 5.7.] n - X 7 x 2 L o. .! 1 . . . . . . . . . . . . . . . , . . # # . , . O . . . . . # 6 6 1 + . . . . . . . . c 7XwXwX",
"wXwXwXE.. . . . . . . . . O 9 m m 5 X . . . .  .( ! ~ ~ ( g.6.6.6.6.6.t.B.g.9.6.g.t.C.Y.T.B.Z.Z.T.T.{.B.B.B.B.B.W.X . . . . . . . . . . . . . . 6.w.w.B.d.N.B.q.q.w.s.q.8.q.q.s.q.T.q.q.d.d.8.w.q.p.~.q.q.8.q._.w.q.q.8.q.s.q.q.q.q.s.w.8.q.8.q.s.q.8.q.q.s.q.p.q.V.d.T.q.8.q.q.s.q.8.8.] . . . G wXwXwXwXwXwXwX0.. . . . . . . . . . O G 4.7.7.' u.u.o.#., n O . . . . . . . . . . . . . . - ! 5.q.7.] u.u.X._ , 5 X . . . . . . . . . . . . . . . . . . . . . . . . . . . . . . . . . . . . . . . . . . . c 7XwXwX",
"wXwXwXE.. . . . . . . m M.( G n n K ( W 2 . . - t.~ ~ ( ^ _ A.6.6.6.t.t.t.u.B.Z.Q.Y.B.g.B.B.Z.Z.Z.~.Y.g.g.B.B.Z. .. . . . . . . . . . . . . . . u.h.N.G.B.d.H.q.q.7.w.7.q.q.7.w.q.Y.p.q.B.G.q.G.p.d.Q.N.q.q.w.~.q.q.q.8.q.w.q.q.q.q.w.q.7.q.7.q.p.q.q.q.d.w.q.B.q.Y.G.Q.q.7.q.q.w.q.7.8.] . . . G wXwXwXwXwXwXwX0.. . . . . . . . . . . . O h K v 1 4 , O . . . . . . . . . . . . . . . . . . . # n E 5 4 1 % X . . . . . . . . . . . . . . . . . . . . . . . . . . . . . . . . . . . . . . . . . . . . . . c 7XwXwX",
"wXwXwXE.. . . . . % Z.nX2Xl k k k k k k P W X . o.#.( ^ _ _ X.A.6.0.0.t.u.u.u.d.B.g.g.g.B.B.B.Z.Q.R.g.g.g.g.g.^.# . . . . . . . . . . . . . . . g.H.T.~.~.N.H.7.q.8.w.8.8.8.7.N.q.Q.N.d.G.Y.8.G.V.B.~._.d.p.d.~.d.7.8.7.7.w.8.7.7.8.w.q.7.8.7.7.p.q.8.d.Q.w.d.T.q.~.Q.'.q.w.w.w.w.7.7.8.] . . . D wXwXwXwXwXwXwX0.. . . . . . . . . . . . . . . . . . . . . . . . . . . . . . . . . . . . . . . . . . . . . . . . . . . . . . . . . . . . . . . . . . . . . . . . . . . . . . . . . . . . . . . . . . . . . c 7XwXwX",
"wXwXwXE.. . . . , +XvXvXxX_ ] ] ' ( _ F l n  .O # i.^ _ _ _ ] X.A.u.t.t.u.u.d.d.V.g.g.g.g.B.B.~.Y.g.g.g.g.g.Y.I . . . . . . . . . . . . . . . . i.|.~.'.+XH.H.q.q.w.s.q.q.q.w.Q.p.{.Y.~.~.{.s.T.Y.Y.'.+XT.T.T.~.~.q.q.7.e.s.w.q.p.w.s.w.q.q.q.e.s.q.w.H._.s.~.+Xd.'.'.'.q.T.V.Y.s.N.q.q.] . . . D wXwXwXwXwXwXwX0.. . . . . . . . . . . . . . . . . . . . . . . . . . . . . . . . . . . . . . . . . . . . . . . . . . . . . . . . . . . . . . . . . . . . . . . . . . . . . . . . . . . . . . . . . . . . . c 7XwXwX",
"wXwXwXE.. . . + }.vXvX+X] J T H R R k E ~ k l ^ . m t._ _ ] ......g.Z.u.u.u.u.d.V.g.g.g.g.Y.~.g.g.g.g.g.g.g.y.. . . . . . . . . . . . . . . . . u.zX@X{.+X~.T.p.p.q.q.w.p.s.T.T._.@X+X2X|.{.!.Q.+X~.'.1X|.'._.Q.{.T.d.s.B.Q.d.H.'.~.d.h.d.T.N.d.T.B.@X'.'.d.{.zX~.{.|.~.H.{._.|.d.'.h.B.#.. . . D wXwXwXwXwXwXwX0.. . . . . . . . . . . . . . . . . . . . . . . . . . . . . . . . . . . . . . . . . . . . . . . . . . . . . . . . . . . . . . . . . . . . . . . . . . . . . . . . . . . . . . . . . . . . . c 7XwXwX",
"wXwXwXE.. . . r.vXvX'./ R M Q H ' <.' z z ^ l F m . ^ #.] ........X.#.C.Y.Y.g.g.V.g.Y.W.W.C.u.u.i.g.g.g.g.A.# . X . . . . . . . . . . . . . . . r.@XzX+X@X{._.H.B.B.B.H.B.B.{.T.xXzX2X1X1X@X@X'.+X'.|.@X2X2X@X_.{.zXxX'.+X{.zX2X|.1X|.zX{.+X@XzXxX+XcX1X|.+X|.cXzX{.@X{.xX1X@X2X+X@XzXzXu.. . . D wXwXwXwXwXwXwX0.. . . . . . L u.u.u.u.u.u.u.u.u.u.u.u.u.u.u.u.u.u.u.u.u.u.t.6.#.#.#.#.#.#.#.6.#.#.#.#.#.#.#.6.#.#.#.#.#.#.#.6.#.#.#.#.#.#.#.6.5.#.#.#.#.#.#.5.6.#.#.#.#.#.#.#.6.#.#.#.#.#.x . . . . . . . c 7XwXwX",
"wXwXwXE.. . - xXvX2X' M R k T N ' ' 7.Q k F P k ( X . ..6.......X.X.X.+.+.9.g.Z.R.C.g.t.t.t.u.u.u.g.g.g.A.% . . . . . . . . . . . . . . . . . . t.1X2X+XzX|.B.T.V.H.!.Y.~._.~._.'.cX2X1XzX1X2X+X{.|.'.{.1X{.+XY.G.d.E.|.{.+XB.{.B.{.'.N.'._.T.H.T.}.{.+XB.1X~.@X1XY.@X~.~.'.1X'.1X+X+X+X] . . . m wXwXwXwXwXwXwX0.. . . . . . X.!.!.!.!.!.!.!.!.!.!.!.!.!.!.!.!.!.!.!.!.!.`.s.s.7.7.8.7.q.7.7.s.7.7.7.7.7.7.7.s.7.8.7.7.7.7.7.s.q.7.7.7.8.7.q.p.w.7.7.7.8.7.7.w.p.7.7.8.7.7.7.q.s.7.7.7.7.q.P . . . . . . . c 7XwXwX",
"wXwXwXE.. . X.vXvXu.' g / j R H N T / Q z f ( l F c . . ^ i...X.X.X.X.+.+.#.6.6.d.9.t.t.t.u.u.u.u.u.g.C.% . . . . . . . . . . . . . . . . . . . u.1X1X{.1X{.w.w.q.q.q.q.e.Y.d._.~.1X2X1X1X@X@X'.~.{.{.Q.{._.|.T.d.q.p.B.B.q.q.q.e.d.q.q.q.B.q.q.p._.d.G.N.Y.Y.+X@XT.~.Q.d.w.'.N.s.~.q.d.] . . . G wXwXwXwXwXwXwX0.. . . . . . X.J.H.!.!.B.q.!.!.!.0.B.!.!.!.!.!.!.!.!.!.`.N.q.s.q.q.q.q.q.q.q.s.q.q.q.q.q.q.q.s.q.q.q.q.q.q.q.s.q.q.q.q.q.q.q.p.w.q.q.q.q.q.q.w.p.q.q.q.q.q.q.q.s.q.q.q.q.q.P . . . . . . . c 7XwXwX",
"wXwXwXE.. . T.vXvX/ R M k R 4 / M k M k j g J F k I . . . v g.r.X.X.+.+.+.#.6.6.d.9.r.t.t.t.u.u.i.W.o.X . . . . . . . . . . . . . . . . . . . . u.|.1X@X{.Q.d.p.p.q.q.w.p.G.p.~.N.|.@X@X{.~._.G.G.~.~.N.G.B.'.s.q.w.p.p.q.7.w.p.p.e.q.q.p.p.p.q.q.Q.d.H.B.d.T.|.Q.~.B.Q.e.p.B.h.7.s.p.p.X.. . . G wXwXwXwXwXwXwX0.. . . . . . X.!.!.B.!.!.] J.!.!.0.!.!.!.!.!.!.!.!.!.!.H.7.7.s.7.7.q.7.q.7.7.s.7.7.7.7.7.7.7.s.7.8.7.7.7.7.7.s.q.7.7.7.7.7.q.p.w.7.7.7.7.7.7.w.p.7.7.7.7.7.7.q.s.7.7.7.7.q.P . . . . . . . c 7XwXwX",
"wXwXwXE.. . @XvX{.' H H H N H 3 J R H H M g 4 ( k W . . . . O o.C.#.+.+.+.#.6.6.d.6.r.t.t.t.u.A.i.5 . . . . . . . . . . . . . . . . . . . . . . 6.~.'.1XQ.~.w.7.q.p.s.w.7.q.w.B.w.Q.@XG.'.d.~.7.7.~.B.s.q.7.~.p.p.q.q.q.w.s.e.q.7.w.s.p.q.q.q.p.s.N.q.N.N.s.B.N.w.~.p.H.w.7.w.p.s.e.q.7.] . . . G wXwXwXwXwXwXwX0.. . . . . . X.!.!.!.H.!.d.N.!.B.N.!.!.!.!.!.!.!.!.!.!.q.7.7.s.q.7.q.7.q.7.7.s.7.7.7.7.7.7.7.s.7.7.7.q.7.7.7.s.q.7.q.7.q.7.q.p.w.7.7.q.7.7.7.w.p.7.7.7.7.7.7.q.s.7.7.7.q.q.P . . . . . . . c 7XwXwX",
"wXwXwXE.. X zXvX~.' g / h l H H g z j 4 j g > _ b ~ X . . . . . %  .i.C.6.#.6.6.d.6.t.t.B.Y.$.x . . . . . . . . . . . . . . . . . . . . . . . . #.V.d.}.d.Q.w.7.q.8.p.7.8.8.8.w.8.d.{.d.~.w.T.8.8.~.p.8.8.q.~.e.q.7.q.8.8.w.8.8.7.8.w.q.7.q.7.8.w.8.7.p.w.w.q.q.q.~.q.w.q.8.8.8.w.8.8.8.] . . . G wXwXwXwXwXwXwX0.. . . . . . X.!.!.!.!.!.!.!.!.!.!.!.!.!.!.!.!.!.!.`.w.8.q.s.d.p.q.8.8.8.q.s.d.s.q.8.8.8.q.p.d.s.q.8.8.7.q.w.d.s.q.8.7.q.8.e.d.s.w.7.q.8.8.w.s.d.e.8.8.8.8.q.s.d.p.8.8.8.q.P . . . . . . . c 7XwXwX",
"wXwXwXE.. . @XvX{.T Q g H H > H M R H j N j g ( l ! . . . . . . X X . , I o.9.r.i.r.+. .c X . . . . . . . . . . . . . . . . . . . . . . . . . . #.w.q.G.p.Q.e.q.q.q.w.q.q.q.q.p.q.q.~.q.H.e.w.q.q.Y.p.q.q.q.Q.e.q.q.q.q.q.w.q.q.q.q.w.q.q.q.q.q.w.q.q.q.q.w.q.q.q.T.q.w.q.q.q.q.w.q.q.q.] . . . G wXwXwXwXwXwXwX0.. . . . . . X.!.!.!.!.!.!.!.!.!.!.!.!.!.!.!.!.!.'.d.q.p.s.q.q.w.s.e.q.w.s.q.q.q.s.w.q.e.s.w.q.q.s.p.q.w.s.e.q.q.s.s.q.q.s.w.q.q.p.s.q.8.s.p.q.q.w.s.w.q.s.s.q.q.w.s.w.q.s.P . . . . . . . c 7XwXwX",
"wXwXwXE.. . R.vXxX/ H H H k Q g k 3 z 3 j 4 J G k I . . . . . . . . . . . . . . . . . . . . . . . . . . . . . . . . . . . . . . . . . . . . . . X.8.q.w.p.Q.w.7.q.q.p.8.q.q.q.s.q.q.~.q.w.p.8.8.8.T.s.q.8.8.h.w.w.8.q.8.q.s.q.8.8.8.p.q.7.q.8.q.p.q.7.8.q.s.q.7.q.p.q.p.q.8.q.q.s.q.8.8.] . . . G wXwXwXwXwXwXwX0.. . . . . . X.!.!.!.!.!.!.!.!.!.!.!.!.!.!.!.!.`.N.p.d.w.7.q.8.q.q.w.d.w.7.8.8.q.7.w.d.w.q.8.q.7.q.w.d.p.q.8.8.8.q.q.d.s.q.q.7.q.8.7.s.d.q.8.8.q.8.q.s.d.q.8.q.q.8.q.p.d.e.L . . . . . . . c 7XwXwX",
"wXwXwXE.. . o.2X' @.Q M R g N z Q k M j k f ( l F c . . . . . . . . . . . . . . . . . . . . . . . . . . . . . . . . . . . . . . . . . . . . . . X.w.q.p.w.Y.p.q.w.w.w.p.q.w.p.w.p.e.Y.p.w.e.p.q.w.d.w.p.w.q.p.e.e.p.q.e.p.w.p.w.q.p.w.w.w.q.w.p.w.p.q.w.p.w.p.e.q.w.w.e.p.q.w.p.w.p.e.q.X.. . . G wXwXwXwXwXwXwX0.. . . . . . X.!.!.`.`.!.!.!.!.!.!.!.`.!.!.!.!.H.q.7.s.q.q.7.q.q.7.q.s.q.7.q.7.q.q.7.s.q.7.7.q.7.q.q.s.q.q.7.7.q.7.7.s.q.7.q.7.q.7.q.e.e.7.q.q.q.q.7.q.s.q.7.q.q.q.q.q.s.q.P . . . . . . . c 7XwXwX",
"wXwXwXE.. . , X.k ( / Q g Q z j j g k j > M E k ^ X . . . . . . . . . . . . . . . . . . . X X . . . . . . . . . . . . . . . . # : ; X . . . . . ] e.p.q.q.h.q.s.q.8.q.q.p.e.q.8.7.w.H.q.7.q.q.s.w.q.q.7.w.s.q.q.q.q.s.w.q.q.8.e.s.q.q.q.q.s.q.8.q.q.p.w.q.8.q.q.s.q.7.7.q.s.w.q.q.q.w.s.] . . . G wXwXwXwXwXwXwX0.. . . . . . _ q.7.e.w.q.8.8.q.8.7.q.p.q.q.7.q.q.d.q.s.8.q.q.q.q.7.q.s.q.7.7.q.q.q.8.s.q.8.q.q.7.q.q.s.q.q.8.q.q.8.q.s.q.7.q.7.q.7.7.e.e.q.q.q.8.q.7.q.s.q.7.q.8.q.q.8.s.q.P . . . . . . . c 7XwXwX",
"wXwXwXE.. . . ~ l l X.Q R R f R k H j k k ( l M G . . . . . . . . . . . . . . . . . . X h K p 8 X . . . . . . . . . . . . . ; u u u y O . . . . ] q.e.7.q.q.q.w.q.q.q.7.e.q.q.q.q.q.p.q.q.q.q.w.q.q.q.q.q.w.q.q.q.q.w.q.q.q.q.q.e.q.q.q.7.w.7.7.q.q.w.w.q.q.q.7.w.q.q.8.q.w.q.q.q.q.q.w.] . . . G wXwXwXwXwXwXwX0.. . . . . . _ q.7.e.w.q.7.8.q.q.7.q.p.q.q.7.q.q.H.q.s.q.q.q.8.q.7.q.s.q.7.7.7.w.q.q.s.q.7.q.q.7.q.q.s.7.q.q.q.7.q.q.s.q.7.q.7.8.7.7.e.e.7.q.q.q.q.7.q.s.q.7.q.7.q.q.q.s.q.P . . . . . . . c 7XwXwX",
"wXwXwXE.. . . # ( n n ..' z R z z k g K ( l l ( X . . . . . . . . . . . . . . . . . . g E g 8 %.8 . . . . . . . . . . . . X y e , , y ; . . . . ] q.e.7.q.q.q.w.q.8.q.7.e.q.q.7.q.q.p.q.7.q.q.w.q.q.q.q.q.w.q.7.q.q.w.8.q.q.8.q.e.q.q.q.q.w.q.q.q.q.w.w.q.q.q.q.w.q.q.q.q.w.q.q.7.q.q.w.] . . . G wXwXwXwXwXwXwX0.. . . . . . _ q.7.e.w.q.7.q.q.8.q.q.p.q.q.7.q.7.Y.q.s.8.q.7.8.q.7.q.s.q.q.q.q.G.q.8.s.q.8.q.q.7.q.q.s.q.q.8.q.7.8.q.s.q.7.q.7.q.7.7.e.e.q.q.q.q.q.7.q.s.q.7.q.q.q.q.8.s.q.P . . . . . . . c 7XwXwX",
"wXwXwXE.. . . . < ( l l K _ _ ' ) ! _ G l n  .# . . . . . . . . . . . . . . . . . . X J h , , < < . . . . . . . . . . . . O u 1 , , , , . . . . G ] ] ] ] ] ] ..] ] ] ] ] ] ] ] ] ] ..] ] ] ] ..] ] ] ] ] ..] ] ] ] ..] ] ] ] ] ] ] ] ] ] ..] ] ] ] ] ] ] ] ] ] ..] ] ] ] ..] ] ] ] ] ..G . . . G wXwXwXwXwXwXwX0.. . . . . . _ q.w.d.d.w.7.q.q.q.q.s.d.e.q.7.q.q.Y.s.d.w.q.q.q.q.q.s.d.p.q.q.7.Q.q.p.d.s.q.q.q.q.d.w.d.s.q.q.q.q.q.e.d.s.q.q.q.q.7.w.d.d.w.q.q.q.7.q.s.d.e.q.q.q.q.q.s.d.p.P . . . . . . . c 7XwXwX",
"wXwXwXE.. . . . . - ( F l l l l l l l l K ~ O . . . . . . . . . X . . X . . . . . . X G b , , 4 , . . X O . X - % - # . . . y e , 3 F # . . . . . . . . . . . . . . . . . . . . . . . . . . . . . . . . X . . . . . . . . . . . . . . . . . . . . . . . X . . X . X X X . X . . . . . . . . . . G wXwXwXwXwXwXwX0.. . . . . . _ s.p.q.q.p.s.q.q.s.s.q.q.w.s.q.q.p.~.q.q.e.s.w.q.p.s.q.q.w.s.e.q.{.s.w.q.q.s.w.q.e.'.e.q.q.s.p.q.q.s.w.q.q.s.s.q.q.s.p.q.q.p.s.q.q.s.s.q.q.w.s.w.q.p.s.q.8.w.P . . . . . . . c 7XwXwX",
"wXwXwXE.. . . . . . . m ~ ~ M l l G ( ~ 9 . . . . . . . . . . # c 7 D ( m P x I 2 ..+ , ! M M ! - . . - ~ % % m L x m - c X = y ! ! b X . . . . . . . . . . . . . . . . . . . . . . . . . . . . . . . . . . . . . . . . . . . . . . . . . X X X . . . . . . . . . . . . . . . . . . . . . . . . G wXwXwXwXwXwXwX0.. . . . . . _ q.q.q.7.q.q.s.d.q.q.q.q.q.q.s.d.w.~.q.q.q.q.p.d.e.q.q.q.q.q.w.d.1Xq.q.q.q.q.e.d.d.{.q.q.q.q.w.d.s.q.q.q.q.q.q.d.s.q.q.q.q.q.q.s.d.q.7.q.q.q.q.s.d.w.q.q.q.w.P . . . . . . . c 7XwXwX",
"wXwXwXE.. . . . . . . . . # c G D x O . . . . . . . . . . . . . % % % 7 - , % % X x . . % b b # . . . . % O O X O . X . . . . O # # . . . . . . . . . . . . . . . . . . . . . . ( ( ( ( ( ( ( ( ( ( ( ( ( ( ( ( ! ! ! ! ! ! ! ! ! ! ! ! ! ! ! ! ! ! ! ! ! ! ! ! ! ! ! ! ! ! ! ! ! ! ! ! v . . . G wXwXwXwXwXwXwX0.. . . . . . _ 8.7.q.7.7.7.w.p.7.7.7.8.7.q.q.s.7.'.7.7.8.7.d.s.q.w.q.7.q.q.7.s.1Xq.8.7.8.8.7.s.p.+X7.8.7.8.7.s.q.7.7.7.8.7.q.p.w.7.7.7.7.7.7.w.p.7.7.7.7.7.7.q.s.7.7.8.7.p.I . . . . . . . c 7XwXwX",
"wXwXwXE.. . . . . . . . . . . . . . . . . . . . . . . . . . . . . . . . . . . . . . . . . . . . . . . . . . . . . . . . . . . X # + . . . . . . . . . . . . . . . . . . . . . X !.!.!.!.!.J.N.!.!.!.B.J.!.!.!.s.q.8.8.8.8.w.8.8.8.8.w.q.8.8.8.8.w.8.8.8.8.w.8.7.8.8.q.w.8.8.8.8.w.8.8.8.] . . . G wXwXwXwXwXwXwX0.. . . . . . _ 8.8.8.8.8.8.w.p.8.8.8.8.7.q.q.s.7.|.8.w.q.8.T.s.q.T.8.8.Y.w.8.s.1Xq.8.h.8.8.7.s.d.+X7.8.8.8.8.s.q.8.8.8.8.8.8.p.w.8.8.8.8.8.8.w.p.8.7.8.8.8.8.q.s.8.8.8.8.d.I . . . . . . . c 7XwXwX",
"wXwXwXE.. . . . . . . . . . . . . X . . . . . . . . . . . . . . . . . . . . . . . . . . ; i i ; . . . . . . . . . . . . . . # r t t w X . . . . . . . . . . . . . . . . . . . X !.d.!.H.!.B.O.H.J.N.@.N.!.!.d.e.q.q.q.8.q.w.q.q.q.q.w.q.q.q.q.q.w.q.q.q.q.w.q.q.q.q.q.w.q.q.q.q.w.q.q.q.] . . . G wXwXwXwXwXwXwX0.. . . . . . _ q.q.q.q.q.q.w.p.q.q.q.q.q.q.q.s.q.@Xq.d.w.q.Y.s.w.T.q.q._.d.d.s.1Xw.q.~.q.q.q.s.d.|.q.q.q.q.q.s.q.q.q.q.q.q.q.p.w.q.q.q.q.q.q.w.p.q.7.q.q.q.q.q.s.q.q.q.q.V.I . . . . . . . c 7XwXwX",
"wXwXwXE.. . . . . . . . . . . . . . . . . . . . . . . . . . . . . . . . . . . . . . . : -.i i -.; . . . . . . . . . . . . . r w , 1 t = . . . . . . . . . . . . . . . . . . . X !.!.!.B.B.!.!.!.!.!.H.!.!.B.q.w.w.q.q.q.q.s.q.q.q.q.s.w.q.q.q.q.s.q.q.q.q.s.q.q.q.q.w.p.q.q.q.q.s.q.q.q.] . . . G wXwXwXwXwXwXwX0.. X X . . X _ q.q.q.q.q.q.w.p.q.q.q.q.q.q.w.N.q.1Xq.B.d.d._.s.w.~.q.q.~.B.T.s.@Xw.s.@Xp.p.q.h.h.{.w.q.q.q.q.s.q.q.q.q.q.q.q.p.w.q.q.q.q.q.q.w.p.q.q.q.q.q.q.q.s.q.q.h.w.T.P . . . . . . . c 7XwXwX",
"wXwXwXE.. . . . . . . . . . . . . . . . . . . . . . . . . . . . . . . . . . . . . . . a e , , e 9 . . . . . . . . . . . . O t 1 , , , , . . . . . . . . . . . . . . . . . . . X `.!.!.!.!.!.!.!.!.!.!.!.E.q.p.e.e.p.q.e.p.w.p.w.q.p.w.w.w.q.w.w.w.p.w.w.p.w.p.w.q.p.e.w.p.q.w.p.w.p.e.q.X.. . . G wXwXwXwXwXwXwX0.. . . . . . _ q.7.q.7.7.q.s.d.w.q.7.q.7.q.d.!.w.1Xw.G.h.G.+Xd.h.'.q.q.Q.T.'.d.@Xd.T.2Xd.N.Q._.T._.T.d.7.q.e.d.s.q.7.7.q.7.w.d.s.q.7.q.7.7.q.s.d.w.7.q.8.8.q.s.d.e.7.H.w.Y.P . . . . . . . c 7XwXwX",
"wXwXwXE.. . . . . . . . . . . . . . . . . . . . . . . . . . . . . . . . . . . . . . . L h , , , , . . . . . X X % . X . . X r w , , k # . . . . . . . . . . . . . . . . . . . X !.!.!.!.!.!.!.!.!.!.!.!.e.s.q.8.8.q.s.q.q.8.8.w.s.q.8.q.q.s.q.8.8.q.p.w.8.8.8.q.s.q.8.7.q.s.w.8.8.8.w.s.] . . . G wXwXwXwXwXwXwX0.. . . . . . _ s.s.q.q.s.s.q.q.p.s.q.q.p.s.p._.p.zXT.H.G.~.1Xd.G.+Xd.B.!.~.+Xq.{.Q.~.2Xd.E.{.~.G.'.~.T.w.s.w.q.q.s.p.q.q.s.p.q.q.B.s.q.q.s.s.q.q.p.s.q.q.p.s.q.8.w.h.!.p.Q.P . . . . . . . c 7XwXwX",
"wXwXwXE.. . . . . . . . . . . . . . . . . . . . . . . . . . . . . . . . . X . X . # X 5 E g j E , . . . . % m 5 I X # I ( . = t r t G O . . . . . . . . . . . . . . . . . . . X B.d.N.d.d.d.d.N.d.d.d.w.q.w.8.8.q.7.w.8.8.q.8.q.e.8.8.q.8.w.8.8.8.8.w.w.8.'.Y.w.w.7.q.7.q.w.q.8.8.q.q.w.] . . . G wXwXwXwXwXwXwX0.. . . . . . _ q.q.d.d.q.8.8.8.8.q.s.d.V.q.d.|.N.1X~.'.Q.'.1XT.~.{.!.!.|.~.@Xw.{.'.+XzXH.T.1XY.H.Q.Q.'.s.q.8.8.q.8.e.G.h.q.q.w.s.@Xe.E.d.q.8.8.8.h.q.s.d.w.N.q.q.H.Y.{.G.~.P . . . . . . . c 7XwXwX",
"wXwXwXE.. . . . . . . . . . . . . . . . . . . . . . . . . . . . . . . . . , # ~ O m X X g K K 5 . . . . X X % . % . # O X . X + 6 = O . . . . . . . . . . . . . . . . . . . . X d.q.p.q.7.q.q.w.q.q.q.q.q.w.q.q.q.q.w.7.q.q.q.q.e.7.q.q.7.w.q.q.7.q.w.d.Q.2Xp.G.w.7.q.d.N.w.q.q.7.q.q.w.] . . . G wXwXwXwXwXwXwX0.. . . . . . _ q.7.e.w.q.q.q.q.q.q.q.d.+Xq.d.+X+XlX'.+X{.+XxX~.~.|.1X~.{.Q.zXs.@X{.@X+XY.'.1X_.Q.'._.1X_.s.w.B.w.q.~.{.B.d.s.G.'.+XV.@XB.B.T.q.w.@XH.d.!.H.~.p.T.1X1X{.H.Y.P . . . . . . . c 7XwXwX",
"wXwXwXE.. . . . . . . . . . . . . . . . . . . . . . . . . . . . . . . . . . O , # % . . . X X . . . . . . . . . . . . . . . . . . . . . . . . . . . . . . X . . . . . . . . . X d.w.s.w.7.q.q.s.e.q.q.q.e.s.q.7.q.q.s.w.q.q.q.w.s.q.7.q.w.s.w.q.8.q.p.T.Q.<Xw.'.d.e.d.Y.nXN.e.q.q.q.e.s.] . . . G wXwXwXwXwXwXwX0.. . . . . . _ q.7.e.p.q.w.N.d.e.w.p.B.1Xq.N.2XzXzX2X2X1X@XnX@X+X1X2X`.+X_.zXN.1X+X2X'.{.2XxX1X{.~.@X~.1X+X+X|.+Xd.xX{.~.xX2X'.2X'.'.xX'.+XxXN.+X@X!.2XnX|.zX'.2XnXcX+X'.{.P . . . . . . . c 7XwXwX",
"wXwXwXE.. . . . . . . . . . . . . . . . . . . . . . . . . . . . . . . . . . . . . . . . . . . . . . . . . . . . . . . . . . . . . . . . . . . . . . . . . . . . . . . . . . . X N.w.q.e.p.w.B.d.w.p.e.p.w.q.w.w.p.w.q.w.p.e.p.q.q.p.w.p.e.q.w.p.w.p.q.T.!.2Xd.nXQ.1X+XN.vXT.q.p.e.p.w.q.] . . . G wXwXwXwXwXwXwX0.. . . . . . #.2X2XzXnX1XxX1X@XxX1X{.E.zX+XQ.+X|.zXnX2XxX1XcX@X1X2X{.~.'.'.xXE.|.1XzX{.1X@X+X1X~.H.cXT.{.cXxX+XxXT.2X+X|.2XxXcX1XT.'.zX+XY.zX|.zX~.1X2X1X+XxX1X2XxX1XxX~.~.P . . . . . . . c 7XwXwX",
"wXwXwXE.. . . . . . . . . . . . . . . . . . . . . . . . . . . x G G G G G G G G G G G G G G G G G G G G G G G G G G G G G G G G G G G G G G G G G G G G G O . . . . . . . . . X d.q.7.q.q.w.H.H.q.w.p.q.q.q.8.e.q.q.q.q.q.p.8.q.q.7.p.q.7.q.7.q.p.q.q.H.!.1Xw.xXh.'.[.N.vXT.q.q.p.q.q.q.] . . . G wXwXwXwXwXwXwX0.. . . . . . _ w.d.d.d.N.d.T.T.N.G.1XG.G.{.~.G.|.zXnX2XnX1XnX'.1X+X{.'._.Y.1X_.'.2X2X'.1X+X{.1XY.d.@Xd.h.w.B.Y.1XY.~.+X1Xp.d.cXp.p.Y.|.@Xq.H.+X+XY.T.B.Q.B.d.@X~.1XQ.@XQ.Y.P . . . . . . . c 7XwXwX",
"wXwXwXE.. . . . . . . . . . . . . . . . . . . . . . . . . . x w.q.d.B.d.d.q.Q.w.d.q.q.q.q.q.q.q.q.q.q.q.q.q.q.q.q.q.q.q.q.q.q.q.q.q.q.q.q.q.q.q.q.q.q.q.q.... . . . . . . . . X d.8.7.8.q.e.H.~.N.T.w.7.8.7.8.e.q.7.8.7.7.w.7.7.7.8.w.q.7.q.7.7.w.8.q.H.!.<Xw.xXh.'.[.N.vXT.~.q.w.7.7.8.] . . . G wXwXwXwXwXwXwX0.. . . . . . _ 8.q.d.d.q.8.8.7.8.q.N.{.N.H.~.B.'.2XnXzXnX1XzX_.2X|.{.2X~.T.Q.{.~.1X1X_.1X+XT.zXT.w.2Xd.s.q.8.N.Y.@Xd.Q.d.q.8.h.8.7.T.!.Y.q.7.w.h.'.q.s.d.w.7.1XY.~.d.T.~.Q.P . . . . . . . c 7XwXwX",
"wXwXwXE.. . . . . . . . . . . . . . . . . . . . . . . X . - w.p.h.Y.h.G.p.d.Q.h.q.q.q.8.q.q.q.q.q.8.q.q.q.q.q.8.q.q.q.q.q.q.q.q.q.q.q.q.q.q.q.q.q.q.q.8.q.w.P . . . . . . . . X d.q.8.q.q.e.H._.@XT.w.8.q.8.q.e.q.q.q.8.q.w.8.q.q.q.w.q.q.q.q.q.w.q.w.T.!.<Xw.xXh.'.[.N.vXw.1XH.w.q.q.q.] . . . G wXwXwXwXwXwXwX0.. . X . . . _ s.s.q.q.s.s.q.q.p.s.q.+XN.B.|.d._.@XzX2XcX2X@X'.xX|.Q.@XB.Q.E.{.~.xX|.G.Q.1Xd.zXY.s.@Xq.w.s.w.q.q.+Xp.q.q.s.p.q.q.s.d.w.q.s.s.q.q.B.s.q.q.p.s.B.Y.Q.s.w.Q.Y.P . . . . . . . c 7XwXwX",
"wXwXwXE.. . . . . 7 +.2 . . . . . . . . . . . . . . . . O 6.q.w.w.w.7.q.7.q.q.q.w.q.7.q.q.q.w.w.8.7.w.q.q.q.q.w.q.w.q.7.7.8.7.8.7.7.7.8.7.7.7.7.7.7.8.7.8.7.w.x . . . . . . . X N.q.7.w.p.p.T._.xXT.p.p.q.q.w.p.p.w.8.q.p.p.w.q.q.e.p.p.q.8.q.p.p.e.h.T.Q.2Xd.xXh.'.|.N.vXw.+X+Xp.p.q.8.] . . . G wXwXwXwXwXwXwX0.. . . . . . _ q.8.8.7.7.q.s.d.w.7.7.|.w.w.2Xd.~.~.1X@X2X+X{.{.2XT.Y.@Xq.h.~.~.Q.xXB.h.G.+Xw.~.~.q.Y.8.7.7.e.d.s.q.7.7.8.8.w.d.s.q.7.7.7.7.q.s.d.w.7.8.7.8.q.s.'.T.7.8.'.B.P . . . . . . . c 7XwXwX",
"wXwXwXE.. . . % #.'.!.`.X.# . . . . . . . . . . . . . . ..q.q.V.Q.T.s.T.B.Y.V.T.d.V.q.h.@Xd.B.~.w.w.+Xd.d.~.d.{.d.d.q.q.q.q.8.q.q.q.q.q.q.q.q.q.q.q.q.q.q.q.q.w.- . . . . . . X @X{.d.p.q.q.T.'.2XT.q.q.p.s.w.q.q.e.s.p.q.q.q.p.p.w.q.q.e.s.w.q.q.w.!.T.Q.<Xw.vXB.[.[.d.vXd.<X+Xq.q.p.s.X.. . . G wXwXwXwXwXwXwX0.. . . . . . _ q.q.q.q.q.q.w.p.q.q.q.w.q.q.+Xs.d.Y.@X|.2X~.Y.~.~.T.Y.d.q.q.p.~.T.1XN.s.d.w.q.Q.Y.q.q.q.q.q.q.s.q.q.q.q.q.q.q.p.w.q.q.q.q.q.q.w.p.q.q.q.q.q.q.q.'.G.q.q.+Xd.P . . . . . . . c 7XwXwX",
"wXwXwXE.. O ~ `.!.`.`.`.!.~.I X . . . . . . . . . . . P w.q.7.w.w.w.7.w.q.p.q.q.w.q.q.q.w.q.w.w.q.q.p.q.q.q.q.p.w.w.7.7.7.7.7.7.7.7.7.7.7.7.7.7.7.7.7.7.7.7.7.q.6.O . . . . . X xX~.+X!.d.Q.T._.|.H.7.7.q.w.7.7.8.7.w.7.8.7.7.q.e.7.7.7.7.w.7.7.7.7.'.H.!.<Xw.xXB.'.[.d.vXs.+X+X7.7.q.w.] . . . G wXwXwXwXwXwXwX0.. . . . . . _ 8.7.8.7.7.8.w.p.7.8.7.7.7.q.B.s.7.G.+X_.1Xp.T.~.q.T.Y.7.q.7.q.Q.T.B.w.q.q.7.7.Q.Y.7.7.7.7.7.7.s.q.7.7.7.8.7.7.p.w.7.7.7.7.7.7.w.p.7.7.q.7.8.7.q.Q.d.7.7.@Xw.P . . . . . . . c 7XwXwX",
"wXwXwXE.. P `.!.`.`.!.`.`.!.`.c . . . . . . . . . . 7 w.q.q.q.q.q.q.q.q.q.q.q.q.q.q.q.q.q.q.q.q.q.q.q.q.q.q.q.q.q.q.q.q.q.q.q.q.q.q.q.q.q.q.q.q.q.q.q.q.q.q.q.q.q._ . . . . . X xXT.!.zXH.xXN._.|.H.q.q.q.w.q.q.q.q.w.q.q.q.q.q.e.q.q.q.q.w.q.q.q.q.@XH.!.<Xw.xXB.'.[.d.vXs.+X+Xq.q.q.w.] . . . G wXwXwXwXwXwXwX0.. . . . . . _ q.q.q.q.q.q.w.p.q.q.q.q.q.q.q.s.q.d.~.'.+Xq.G._.q.T.T.q.q.q.q.Q.T.q.q.q.q.q.q.Q.Q.q.q.q.q.q.q.s.q.q.q.q.q.q.q.p.w.q.q.q.q.q.q.w.p.q.q.q.q.q.q.q.d.q.q.q._.q.P . . . . . . . c 7XwXwX",
"wXwXwXE.. P `.`.!.`.`.`.!.`.`.v . . . . . . . . . - w.q.q.q.q.q.q.q.q.q.q.q.q.q.w.w.q.q.q.q.q.q.q.q.q.q.q.q.q.q.q.q.q.q.q.q.q.q.q.q.q.q.q.q.q.q.q.q.q.q.q.q.q.q.q.w.G . . . . X xXT.!.2Xw.xXN._.|.G.s.8.w.+XH.8.8.8.p.q.8.8.8.q.p.8.8.8.q.p.q.8.8.p.xXH.!.<Xw.xXB.'.[.d.vXd.<X+X8.8.q.p.] . . . G wXwXwXwXwXwXwX0.. . . . . . _ q.8.q.8.8.8.w.p.8.8.8.8.8.8.q.s.8.w.G.{.T.8.B._.8.N.H.8.q.8.8.Q.T.8.8.8.8.8.8.E.~.8.8.8.8.8.8.s.q.8.8.8.q.8.q.p.w.8.8.8.8.8.8.w.p.8.7.q.8.8.8.q.s.8.8.8.G.q.P . . . . . . . c 7XwXwX",
"wXwXwXE.. P !.!.`.`.!.`.`.!.`.G . . . . . . . . . % c c c c c c c c c c c c c c v c v c c c c c c c c c c c c c c c c c c c c c c c c c c c c c c c c c c c c c c c 5 . . . . X xX!.E.2Xe.xXG.'.+Xh.xXe.h.[.T.q.q.p.e.p.e.q.d.h.e.p.q.w.p.w.p.w.q.Q.xXT.!.<Xp.xXN.[.[.d.vXs.<X+Xq.e.p.e.X.. . . G wXwXwXwXwXwXwX0.. . . . . . _ q.7.q.7.7.q.s.d.q.q.7.q.7.q.s.d.w.q.d.|.w.q.B.'.e.q.d.7.q.q.w.~.T.q.7.7.7.q.e.H.'.q.7.q.7.7.w.d.s.q.7.7.q.7.q.d.s.q.7.7.7.7.q.s.d.q.7.q.7.7.q.s.d.w.q.7.w.q.P . . . . . . . c 7XwXwX",
"wXwXwXE.. P `.`.!.`.`.`.!.`.`.P 4 # . . . . . . . . . , O . . O 1 . . . % # . . X 1 X . . + , . . X , # . . X 1 X . . # - . . . 1 O . . O 1 . . . - # . . X 1 X . . . . . . . X xXT.T.2Xp.xXN._.|.d.nXw.B._.E.N.w.q.q.8.w.s.+X'.8.q.s.e.8.q.8.w.s.T.4XH.!.2Xp.xXh.'.|.B.vXw.<X+Xs.w.8.8.] . . . G wXwXwXwXwXwXwX0.. . . . . . _ s.p.q.q.p.s.q.q.s.s.q.q.w.s.q.q.p.d.d.+Xe.s.w.T.w.s.q.8.w.s.e.Q.G.s.w.8.q.s.w.p.'.s.e.8.q.s.p.q.q.s.w.q.q.s.s.q.q.s.p.q.q.p.s.q.q.s.s.q.q.w.s.q.q.p.s.q.8.w.P . . . . . . . c 7XwXwX",
"wXwXwXE.. P !.!.`.`.!.`.`.!.`.W , 3 O . . . . . . # n M F h 5 G n M 1 b F F b 1 F n F 2 h F M n , n M F h 4 F n F 1 h F F n 1 M M F 5 5 F M M 1 n F F h 1 F n F 1 . . . . . . X xXT.T.2Xw.xXN._.|.d.nXN.T.!.B.E.q.q.q.q.q.d.nX'.q.q.w.q.q.q.q.q.p.H.4XH.!.<Xw.xXh.'.[.N.vXw.<X+Xw.q.q.q.] . . . G wXwXwXwXwXwXwX0.. . X . . . _ q.w.d.s.w.q.q.q.q.q.s.d.e.q.q.q.q.q.h.1Xw.q.q.w.q.q.s.d.p.q.q.Y.N.q.p.d.s.q.q.q.Y.q.w.d.s.q.q.q.q.q.e.d.s.q.q.q.8.q.w.d.d.w.q.q.q.q.q.s.d.e.q.q.q.q.q.s.d.N., . . . . . . . c 7XwXwX",
"wXwXwXE.. c `.`.!.`.`.`.!.`.`.J 4 4 O . . . . . . n l _ n M G ( ] n K l ! l l K J X.l J n k k l K F ! ! n J J K E K l ! _ P K M X.( J F ] ! G K l #.] l K M O.! J X . . . . . X xXJ.T.2Xw.xXN._.+Xd.vX'.+X~.B.'.w.7.q.7.'.Q.vX_.w.8.w.q.7.q.8.8.s.V.4XH.!.<Xw.xXh.'.[.N.vXw.+X+Xw.q.8.8.] . . . G wXwXwXwXwXwXwX0.. . . . . . _ q.7.e.w.q.8.q.7.8.q.q.p.7.q.7.q.7.8.w.@X8.8.q.8.q.7.q.s.q.7.q.Q.d.8.8.s.8.8.7.q.w.q.7.s.8.8.8.7.q.8.q.s.q.8.q.7.8.7.8.e.e.q.q.8.q.q.7.q.s.8.7.q.8.7.q.q.N., . . . . . . . . c 7XwXwX",
"wXwXwXE.. . , t.`.`.!.`.`.V.V.`.@.h O . . . . . . n l [ n n F ] O.n J l K X.l J n g.F F n ] X.E J K #.#.n J n T.K J l 6.T.! J J g.0.K M @.T.! J l t.t.l J _ N.#.J X . . . . . X 5XJ.T.2Xp.xXN._.|.d.vXs.+X~.B.xXd.q.q.q.1Xd.xXT.H.q.s.w.7.q.q.w.B.h.4XH.!.2Xp.xXh.'.|.B.vXw.+X+Xs.q.q.q.] . . . G wXwXwXwXwXwXwX0.. . . . . . _ q.7.e.w.7.8.q.q.8.q.q.p.q.q.7.q.8.8.w.+X8.7.q.7.7.7.q.s.q.7.7.q.q.7.7.s.8.7.8.q.7.q.q.s.7.q.8.q.q.8.8.s.q.7.q.q.7.7.8.e.e.q.7.7.8.q.7.q.s.q.7.q.7.7.q.d., . . . . . . . . . c 7XwXwX",
"wXwXwXE.. . . # K H.`.T.V.`.`.!.`.!.P X . . . . . n l E n F J E ! n T n k J n T l ( K J M k l l T n F F M K J n J T n K F M T n / K J F F G G T n ! ] n T n ! J K # . . . . . X 5X!.E.2Xe.xXG.'.+Xh.vXd.+X`.H.xXT.p.w.p.2Xq.xXB.+Xs.q.w.p.w.p.w.B.d.4XT.!.<Xp.xXN.[.[.d.vXp.<X+Xq.w.p.w.X.X . . G wXwXwXwXwXwXwX0.. . . . . . _ q.8.e.w.q.8.q.7.8.q.q.p.7.q.7.q.q.8.q.{.8.7.q.8.q.7.q.s.q.7.q.8.q.q.8.s.q.8.q.q.7.q.7.s.q.q.8.7.q.8.q.s.q.8.q.7.8.7.8.e.e.q.8.7.8.q.7.q.s.q.7.q.8.q.d.- . . . . . . . . . . c 7XwXwX",
"wXwXwXE.. . . + 5 g X.!.'.!.`.`.!.!.`.B.# . . . . O x F K F F K F K n J J J J n K F K F F J F K n J G J F M K F K M J J J J n K F K F F K F K n J J J J M K F K M F h X . . . X 5XJ.!.2Xw.xXN._.|.d.vXp.+X!.B.xXT.q.s.e.2Xq.xXN.+Xd.q.q.q.s.q.q.H.q.4XH.!.<Xw.xXB.'.[.d.vXd.<X+Xq.q.q.p.] . . . G wXwXwXwXwXwXwX0.. . . . . . _ q.q.e.w.q.8.7.7.7.q.q.p.7.q.7.q.7.7.q.T.8.q.q.q.7.7.q.s.q.7.7.q.q.7.7.s.7.7.7.q.7.q.7.s.q.q.8.7.q.7.q.s.q.q.q.d.+.X.X.X.X.X.X.X.X.X.X.X.+.X.X.X.X.X.- . . . . . . . . . . . G 7XwXwX",
"wXwXwXE.. . . # , , @.!.`.`.`.!.`.`.!.`.2 . . . . . . h l E / K K l n ! F F n X.n K M _ ! l K n @.E J n ] ] F K l l l n J l P l K l l l l K l P l J n l E J K l l E n 2 . . . X 5XJ.!.2Xw.xXN._.|.d.vXp.+X~.B.xXH._.~.~.2Xq.xXN.|._.N.N.N.G.N.N.'.q.4XH.!.<Xw.xXB.'.[.d.vXs.+X+Xq.q.q.w.] . . . G wXwXwXwXwXwXwX0.. . . . . . _ q.q.d.s.q.q.q.q.8.q.s.d.q.q.7.q.7.q.p.N.w.q.q.8.q.q.w.d.e.7.q.8.q.q.e.d.w.q.7.q.7.q.w.d.p.q.8.7.q.8.q.d.s.q.d.7 . . . . . . . . . . . . . . . . . . . . . . . . . . . . . c -XwXwXwX",
"wXwXwXE.. . . . , 5 ] `.`.!.`.`.!.!.`.'.2 . . . . . . 5 l 5.A.! J n @.F M M @.( _ J F #._ G J ] u.+.J F 5.B.K J k K l n F l l l J M J J M J F l F F n P ! K J l K l l 2 . . . X 5XJ.!.2Xw.xXN._.+Xd.vXp.+X~.B.xXq.2X!.E.2Xq.xXN.[.+XB.nXd.1X`.T.xXq.4XH.!.<Xw.xXB.'.[.d.vXs.+X+Xq.q.q.p.] . . . G wXwXwXwXwXwXwX0.. . . . . . _ p.s.q.q.s.p.q.q.w.s.q.q.s.s.q.q.e.s.w.q.p.s.q.q.w.s.e.q.w.s.q.7.q.s.w.q.e.s.w.q.q.s.p.q.w.s.e.q.q.s.s.q.d.#.# . . . . . . . . . . . . . . . . . . . . . . . . . . . . . c -XwXwXwXwX",
"wXwXwXE.. . . . . O X.!.`.`.`.!.`.`.!.`.2 . . . . . . n n ! G F T M F l J F M _ l T n F ! n T J X.M K M K / n T l l l F J l K l T n l l n T G l G J F l J F T F G l M 1 . . . . I P P I G ! P P I G ! G I P P ! G I P P I G ! P I I P ! G I P P W G I P P I G ! P I I P ! G I I G G G G x . . . G wXwXwXwXwXwXwX0.. . . . . .  .w.8.q.q.q.w.s.d.e.q.q.q.8.q.s.d.w.q.q.q.8.q.s.d.p.q.q.q.q.q.s.d.s.q.8.q.q.q.p.d.s.q.q.q.q.q.w.d.s.q.q.d.G . . . . . . . . . . . . . . . . . . . . . . . . . . . . . . n -XwXwXwXwXwX",
"wXwXwXE.. . . . . . ~ `.`.!.`.`.!.!.`.'.2 . . . . % n M J J J J n K F K F F K F K n J J J J F K F K M J J J J n J G K F F K F K n J J J J M K F K F F K J J n J J F 1 . . . . . . . . . . . . . . . . . . . . . . . . . . . . . . . . . . . . . . . . . . . . . . . . . . . . . . . . . . . . O s.wXwXwXwXwXwXwX0.. . . . . . _ q.q.q.q.q.q.w.p.q.q.q.q.q.q.q.s.q.7.q.q.7.q.q.s.q.q.q.q.q.q.q.s.q.q.q.q.q.q.q.s.7.q.q.q.q.q.q.s.q.w.0., . . . . # x x x x x x x x x x h h h h h h h h h h h 7 h 7 7 G -XwXwXwXwXwXwX",
"wXwXwXE.. . . . . . ( !.`.`.`.!.`.`.!.'.2 . . . . n K l k M F _ X.! K l ( X.l K / ] _ J n ! 6.F K l J M n J k _ k K l l X.K K K M / F F J 0.l K l E X.l K K O.J J O . . . . . . . . . . . . . . . . . . . . . . . . . . . . . . . . . . . . . . . . . . . . . . . . . . . . . . . . . . . . O u.wXwXwXwXwXwXwXwX0.. . . . . . _ q.7.8.7.7.8.w.p.7.7.7.8.7.8.q.s.7.7.7.7.7.7.7.s.7.7.8.7.8.7.7.s.7.7.7.7.7.7.7.s.7.8.7.8.7.q.8.s.d.( X . . . . n ).7X7X7X7X7X7X7X7X7X7X7X7X7X7X7X7X7X7X7X7X7X7X7X7X7X7XwXwXwXwXwXwXwX",
"wXwXwXE.. . . . . . , u.'.!.`.`.`.!.`.X.O . . . . n k K l n F _ X./ J K 0.6.( J ] @.X.F F 6.6.X.J J X.X.n J E X.K J k n X.k J n #.] M M X.] G J ! d.J l J n X.6.J X . . . . . . . . . . . . . . . . . . . . . . . . . . . . . . . . . . % - - - - - % % % % % % % % % % % % % % % % % % # % s.wXwXwXwXwXwXwXwXwXG.# . . . . . _ q.q.q.q.q.q.w.p.q.q.q.q.q.q.q.s.q.q.q.q.q.q.q.s.q.q.q.q.q.q.q.s.q.q.q.q.q.q.q.s.q.q.q.q.q.q.q.d.x . . . . # @.3XwXwXwXwXwXwXwXwXwXwXwXwXwXwXwXwXwXwXwXwXwXwXwXwXwXwXwXwXwXwXwXwXwXwX",
"wXwXwX(.. . . . . . . . m T.`.!.[.t.< X . . . . . n n b K F J _ X./ T n ( +.n T ! _ ! J M K X.n T n J M M K l ! l T n P ! n T l X.n F F J n G T l n ! n T G M l K . . . . . . . . . . . . . . . . . . . . . . . . . . . . . . . . . # 5.7X7X7X7X7X7X7X7X7X7X7X7X7X7X7X7X7X7X7X7X7X7X7X7X7X7XwXwXwXwXwXwXwXwXwXwX0Xd.# . . . . 5 P P P P P P P P P P P P P P P P P P P P P P P P P P P P P P P P P P P P P P P P P P P P P P P # . . . . x J.0XwXwXwXwXwXwXwXwXwXwXwXwXwXwXwXwXwXwXwXwXwXwXwXwXwXwXwXwXwXwXwXwXwXwXwX",
"wXwXwX9X/ . . . . . . . . X ~ M.v X X X X X . . . O h F F , - M F n # 5 F G 5 # n F M - 1 F F h # h F F 1 # n F n # 2 G F h # b F M , , M F b # h F F 2 # n F n # . . . . . . . . . . . . . . . . . . . . . . . . . . . . . . . . x ).wXwXwXwXwXwXwXwXwXwXwXwXwXwXwXwXwXwXwXwXwXwXwXwXwXwXwXwXwXwXwXwXwXwXwXwXwXwX0Xd.# . . . . . . . . . . . . . . . . . . . . . . . . . . . . . . . . . . . . . . . . . . . . . . . . . . . . . . O ] 3XwXwXwXwXwXwXwXwXwXwXwXwXwXwXwXwXwXwXwXwXwXwXwXwXwXwXwXwXwXwXwXwXwXwXwXwXwX",
"wXwXwXwX9X/ . . . . . . . . . X . . . . . . . . . . . # . . . . # . . . O O . . . # . . . X # . . . + X . . . # . . . O O . . . # . . . . # . . . O O . . . # . . . . . . . . . . . . . . . . . . . . . . . . . . . . . . . . O ] 7XwXwXwXwXwXwXwXwXwXwXwXwXwXwXwXwXwXwXwXwXwXwXwXwXwXwXwXwXwXwXwXwXwXwXwXwXwXwXwXwX0Xd.# . . . . . . . . . . . . . . . . . . . . . . . . . . . . . . . . . . . . . . . . . . . . . . . . . . . . 5 G.9XwXwXwXwXwXwXwXwXwXwXwXwXwXwXwXwXwXwXwXwXwXwXwXwXwXwXwXwXwXwXwXwXwXwXwXwXwXwX",
"wXwXwXwXwX9X] n n n n n n n n n n n n n n n n n n n n n n n n n n n n n n n n n n n n n n n n n n n n n n n n n n n n n n m m m n n n n n m m m n n n n m m m m m m m m m m m m m m m m v v v v v v v v v v v v v v v v v v n J.wXwXwXwXwXwXwXwXwXwXwXwXwXwXwXwXwXwXwXwXwXwXwXwXwXwXwXwXwXwXwXwXwXwXwXwXwXwXwXwXwXwXwX0Xh.] ] ] ] ] ] ] ] ] ] ] ] ] ] ] ] ] ] ] ] ] ] ] ] ] ] ] ] ] ] ] ] ] ] ] ] ] ] ] ] ] ] ] ] ] ] ] ] ] ] ] O.;XwXwXwXwXwXwXwXwXwXwXwXwXwXwXwXwXwXwXwXwXwXwXwXwXwXwXwXwXwXwXwXwXwXwXwXwXwXwXwXwX",
"wXwXwXwXwXwXwXwX0X0X0X0XwXwXwXwX0X0X0X0XwXwXwXwXwXwXwXwXwXwX0X0XwXwXwXwXwX0XwX0X0X0X0X0XwXwXwXwX0X0X0XwXwXwXwXwXwXwXwXwXwXwX0X0XwXwXwXwXwXwX0X0X0X0X0X0XwXwXwXwX0X0X0X0XwXwXwXwXwXwXwXwXwXwX0X0X0X0XwXwX0X0X0X0X0X0X0X0X0X0XwXwXwXwXwXwXwXwXwXwXwXwXwXwXwXwXwXwXwXwXwXwXwXwXwXwXwXwXwXwXwXwXwXwXwXwXwXwXwXwXwXwXwXwXwXwXwXwXwXwXwXwXwXwXwXwXwXwXwXwXwXwXwXwXwXwXwXwXwXwXwXwXwXwXwXwXwXwXwXwXwXwXwXwXwXwXwXwXwXwXwXwXwXwXwXwXwXwXwXwXwXwXwXwXwXwXwXwXwXwXwXwXwXwXwXwXwXwXwXwXwXwXwXwXwXwXwXwXwXwXwXwXwXwXwXwXwXwXwXwX",
"wXwXwXwXwXwXwXwXwXwXwXwXwXwXwXwXwXwXwXwXwXwXwXwXwXwXwXwXwXwXwXwXwXwXwXwXwXwXwXwXwXwXwXwXwXwXwXwXwXwXwXwXwXwXwXwXwXwXwXwXwXwXwXwXwXwXwXwXwXwXwXwXwXwXwXwXwXwXwXwXwXwXwXwXwXwXwXwXwXwXwXwXwXwXwXwXwXwXwXwXwXwXwXwXwXwXwXwXwXwXwXwXwXwXwXwXwXwXwXwXwXwXwXwXwXwXwXwXwXwXwXwXwXwXwXwXwXwXwXwXwXwXwXwXwXwXwXwXwXwXwXwXwXwXwXwXwXwXwXwXwXwXwXwXwXwXwXwXwXwXwXwXwXwXwXwXwXwXwXwXwXwXwXwXwXwXwXwXwXwXwXwXwXwXwXwXwXwXwXwXwXwXwXwXwXwXwXwXwXwXwXwXwXwXwXwXwXwXwXwXwXwXwXwXwXwXwXwXwXwXwXwXwXwXwXwXwXwXwXwXwXwXwXwXwXwXwXwXwXwX",
"wXwXwXwXwXwXwXwXwXwXwXwXwXwXwXwXwXwXwXwXwXwXwXwXwXwXwXwXwXwXwXwXwXwXwXwXwXwXwXwXwXwXwXwXwXwXwXwXwXwXwXwXwXwXwXwXwXwXwXwXwXwXwXwXwXwXwXwXwXwXwXwXwXwXwXwXwXwXwXwXwXwXwXwXwXwXwXwXwXwXwXwXwXwXwXwXwXwXwXwXwXwXwXwXwXwXwXwXwXwXwXwXwXwXwXwXwXwXwXwXwXwXwXwXwXwXwXwXwXwXwXwXwXwXwXwXwXwXwXwXwXwXwXwXwXwXwXwXwXwXwXwXwXwXwXwXwXwXwXwXwXwXwXwXwXwXwXwXwXwXwXwXwXwXwXwXwXwXwXwXwXwXwXwXwXwXwXwXwXwXwXwXwXwXwXwXwXwXwXwXwXwXwXwXwXwXwXwXwXwXwXwXwXwXwXwXwXwXwXwXwXwXwXwXwXwXwXwXwXwXwXwXwXwXwXwXwXwXwXwXwXwXwXwXwXwXwXwXwXwX"
};
