/* XPM */
static char *e27438088c1a4b109b0d65a126d6f12d[] = {
/* columns rows colors chars-per-pixel */
"64 64 7 1 ",
"  c #162829",
". c #0E2F31",
"X c #003133",
"o c #003437",
"O c #21383E",
"+ c #19464B",
"@ c #006779",
/* pixels */
"OO  XXXXXXXXXXXXXXXXXXXXXXXXXXXXXXXXXXXXXXXXXXXXXXXXXXXXXXXX  OO",
"OO  XXXXXXXXXXXXXXXXXXXXXXXXXXXXXXXXXXXXXXXXXXXXXXXXXXXXXXXX  OO",
"    ++++++++++++++++++++++++++++++++++++++++++++++++++++++++    ",
"    ++++++++++++++++++++++++++++++++++++++++++++++++++++++++    ",
"XX++++++@@@@@@@@@@++++++++++++++++++@@@@@@@@@@@@@@@@@@++++++++XX",
"XX++++@@@@@@@@@@@@@@++++++++++++++@@@@@@@@@@@@@@@@@@@@@+++++++XX",
"XX+++@@@@@    ..............  ......        ......  ....++++++XX",
"XX+++@@@      ..............  .....        ......   ....++++++XX",
"XX++@@@     ...............   .....       ......   .....++++++XX",
"XX++@@@   ................   .....      .......   ...... +++++XX",
"XX++@@   ...............    .....      .......   .........++++XX",
"XX++@@  ..............     .....      .......   ..........++++XX",
"XX++@@...............     .....      .......   ...........++++XX",
"XX+++@..............    ......      ......    ............++++XX",
"XX++++...........      ......      .....     ...........  ++++XX",
"XX++++.........      ......      ......    ............   ++++XX",
"oo++++.........      ......    .......   .............   .++++XX",
"oo++++........     ......    ........   .............   ..++++XX",
"oo++++......       ......    .......   .............   ...++++oo",
"oo++++....       ......    ........   .............   ....++++oo",
"oo++++...      .......     ......    .....  ......   .....++++oo",
"oo++++..      .......    ......     .....   .....   ......++++oo",
"XX++++       .......   ........    .....   .....   .....  ++++oo",
"XX++++      .......   .......    ......   .....   ......  ++++oo",
"XX++++     ......    ........    .....   .....   .........++++XX",
"XX++++    .....     .......    .......  .....   ..........++++XX",
"XX++++   ......    ......      .............   ...........++++XX",
"XX++++  ......   ......      ..............   ............++++XX",
"XX++++.......    ......    ...............   ...........  ++++XX",
"XX+++@......   ......    .................  ...........   @+++XX",
"XX++@@.....   .......    .............  ..............   .@@++XX",
"XX++@@....   ......    ..............   .............   ..@@++XX",
"oo++@@     ........    .....  ......   ............   ....@@++XX",
"oo++@@    .......    ......   .....   ............   .....@@++XX",
"oo++@@   ......      .....   .....   .....  ......  ......@+++oo",
"oo++@@ .......     ......   .....   .....   .....  .......++++oo",
"oo++@@.......      .....   .....   .....   .....  ......  ++++oo",
"oo++@@......     ......   .....   .....   .....   .....   ++++oo",
"XX+++@.....      .....   .....   .....   .....   .....    ++++oo",
"XX++++...      ......   .....   .....   .....   .....     ++++oo",
"oo++++       .......   .....   .....   .....   .....    ..++++XX",
"oo++++      ........  .....   .....   .....   ....     ...++++XX",
"oo++++     ...............   .....   .....   .....    ....++++oo",
"oo++++    ................  .....   .....   .....   ......++++oo",
"oo++++   .....  ................   .....   .....  ........++++oo",
"oo++++ ......   ...............   .....   .....   ........++++oo",
"XX++++......   .....  ........   .....   .....   .........++++oo",
"XX++++.....   .....   .......   .....   ......  ..........++++oo",
"XX++++....   .....   ......    .....   ............. .....@+++XX",
"XX++++...   .....   .....     .....   .............. .....@+++XX",
"XX++++..   .....   .....    .....   ......................@@++XX",
"XX++++.   .....   .....    .....   .......................@@++XX",
"oo++++   .....   .....    ......  ...........   ........  @@++XX",
"oo++++  .....   .....    ......  ...........   .......    @@++XX",
"oo+++++.....   .....    ......  ...........   ......     @@@++XX",
"oo+++++....   .....    ......   ..........   ......      @@@++XX",
"XX++++++..   ......    .....   .........   . .....      @@@+++XX",
"XX++++++..  ......    ......  ..........    ......    @@@@@+++XX",
"XX++++@@@@@@@@@@++++++++++++++++++++++++++++@@@@@@@@@@@@@@++++XX",
"XX+++++@@@@@@@++++++++++++++++++++++++++++++++@@@@@@@@@@++++++XX",
"   .++++++++++++++++++++++++++++++++++++++++++++++++++++++++    ",
"    ++++++++++++++++++++++++++++++++++++++++++++++++++++++++    ",
"OO  XXXXXXXXXXXXXXXXXXXXXXXXXXXXXXXXXXXXXXXXXXXXXXXXXXXXXXXX  OO",
"OO  XXXXXXXXXXXXXXXXXXXXXXXXXXXXXXXXXXXXXXXXXXXXXXXXXXXXXXXX  OO"
};
