/* XPM */
static char *result[] = {
/* columns rows colors chars-per-pixel */
"128 128 244 2 ",
"   c #2D9B333C37B9",
".  c #357339703BAB",
"X  c #40543F4038DF",
"o  c #3E1D43E23DA4",
"O  c #423F45103D64",
"+  c #2FAF39B846AA",
"@  c #35443C4D44B0",
"#  c #383E3EF14741",
"$  c #3C4542704547",
"%  c #3BAD43584C4A",
"&  c #3CEE46095237",
"*  c #3E6E48BE5433",
"=  c #3EE649DE58FB",
"-  c #41F44583451C",
";  c #45E04B8B4353",
":  c #4A014DC3461C",
">  c #413F46B94BF4",
",  c #45064ADE4C6F",
"<  c #4AD84DF64BE6",
"1  c #50074D9A4485",
"2  c #4C3554404958",
"3  c #4CD0527C4BD2",
"4  c #521E55364D79",
"5  c #584B57494EB4",
"6  c #531B599D4E04",
"7  c #438A4B665438",
"8  c #44414B74546A",
"9  c #495B4EB45355",
"0  c #44074DB05A6E",
"q  c #4DEF54D6524B",
"w  c #466650FF5D3E",
"e  c #4B34551659D7",
"r  c #4B5553A75C6A",
"t  c #521056E252C2",
"y  c #546B5A5453AF",
"u  c #5A215CDE54E8",
"i  c #51EA56875AEC",
"p  c #55225BA15AE5",
"a  c #5A545E0B5ADE",
"s  c #60A85F22570F",
"d  c #5BD9612956B4",
"f  c #522C60775D29",
"g  c #5D5362965B57",
"h  c #5E5D6CB85DE4",
"j  c #625B64EA5C9B",
"k  c #639C699D5EBA",
"l  c #6A4169315D01",
"z  c #6D3A71115F32",
"x  c #466D52406238",
"c  c #4B3D55B1634B",
"v  c #4E2158E96552",
"b  c #4A00570A690E",
"n  c #4D955A486AF5",
"m  c #4BA359D56DC1",
"M  c #52FD5B5A6440",
"N  c #53F55A7D6481",
"B  c #59735E9863CA",
"V  c #52CF5DA26BCB",
"C  c #51C55ED27119",
"Z  c #5CCA63036346",
"A  c #596D659066A3",
"S  c #55AB61556D30",
"D  c #5B8263646BB3",
"F  c #554C628973A5",
"G  c #5A70656E7406",
"H  c #575F683A7765",
"J  c #5CF5699E746F",
"K  c #58E06C7E7585",
"L  c #55BF64E079DD",
"P  c #597B670A79E5",
"I  c #5C886A617C0C",
"U  c #627F65AF6325",
"Y  c #6A42674E6259",
"T  c #64986B2962DC",
"R  c #6AEC6CED644E",
"E  c #61EB666F6AFD",
"W  c #65126B2D6BE3",
"Q  c #6A9C6D8C6B1A",
"!  c #71076F116786",
"~  c #6591723464EB",
"^  c #6BCE724F665B",
"/  c #671D74696C00",
"(  c #6C4B73BA6AD8",
")  c #6D8D7AA56C53",
"_  c #71F772D26584",
"`  c #72A774B06CB9",
"'  c #750C7863681E",
"]  c #748B7B946C83",
"[  c #7DC37CC16BE9",
"{  c #61B068387229",
"}  c #63986BC173AC",
"|  c #6A886ED473C7",
" . c #62296D967BC8",
".. c #6C3F743E73E8",
"X. c #6D477AAF752B",
"o. c #658672ED784A",
"O. c #6B7574547BBB",
"+. c #6E447AB57B8D",
"@. c #730D756A7372",
"#. c #74177CCA7335",
"$. c #7A457CA273F8",
"%. c #737376427A2A",
"&. c #73B87BE27C31",
"*. c #7B587CCD7B89",
"=. c #80B87E706DD8",
"-. c #812E7E7A75A6",
";. c #765980B6706A",
":. c #75DD823A7454",
">. c #7B2C83167520",
",. c #749483587B55",
"<. c #7B5F850F7BDC",
"1. c #778A88C37EC4",
"2. c #7D7D8AA97D18",
"3. c #82D680A76F38",
"4. c #84C382F37366",
"5. c #82CF84F77C3F",
"6. c #8952862478A5",
"7. c #83A88AE17D67",
"8. c #8C298A9F7CE9",
"9. c #5CB16C928285",
"0. c #5DA26F26881B",
"q. c #5EE7711B86B5",
"w. c #642B72F583E5",
"e. c #6AD775C783AC",
"r. c #6D4D7B20848E",
"t. c #67D978778A8B",
"y. c #688778358D2E",
"u. c #73F27C808396",
"i. c #76567DA28757",
"p. c #753183A38715",
"a. c #7B7D848C841C",
"s. c #7DB38A228417",
"d. c #7C2B84A98B98",
"f. c #7DB78AF28BD7",
"g. c #6F8684609095",
"h. c #796C872A9648",
"j. c #7C318DA4A2E0",
"k. c #7DB191F8A54F",
"l. c #836384A684C1",
"z. c #826F8D0A8541",
"x. c #8B5F8C61835A",
"c. c #83E8861589A2",
"v. c #83D98C988BC5",
"b. c #8AAA8CD48BC2",
"n. c #92168E8788F0",
"m. c #87CA934B8743",
"M. c #85BA92288B7A",
"N. c #8C0494A48DA0",
"B. c #93FF95C08C04",
"V. c #9864977D8CD0",
"C. c #84F48CC5930D",
"Z. c #8AC38E0D931D",
"A. c #844B8D219973",
"S. c #86F79478977A",
"D. c #8D5F953992EA",
"F. c #8E2B99DA9323",
"G. c #8C92946A9B72",
"H. c #921195279412",
"J. c #935D9B4B9494",
"K. c #9A479A5B957F",
"L. c #934A96999AA8",
"P. c #95BD9AD29CF4",
"I. c #997E9D0E9CD3",
"U. c #A35D9D80989B",
"Y. c #9962A3149A8B",
"T. c #9BE8A2C39C55",
"R. c #A3BFA3B59D60",
"E. c #A984A53F9DD2",
"W. c #B458A8DC9E84",
"Q. c #89009671A5C5",
"!. c #94CC9C45A69D",
"~. c #9AAA9E05A1F7",
"^. c #8D369C44B175",
"/. c #8EB6A327ADA8",
"(. c #9D85A27AA473",
"). c #9B22A3EAAAC4",
"_. c #991DA62EB619",
"`. c #A299A514A55B",
"'. c #AAF4A76AA203",
"]. c #A4F2A9D3A496",
"[. c #AD24AB03A4DD",
"{. c #A44CA645A9F0",
"}. c #A866A7B8AC79",
"|. c #A672AA2DABB0",
" X c #AB64ACD9AC96",
".X c #B11FAD0DA6C4",
"XX c #B295AF06AA2F",
"oX c #B918B00EA8DA",
"OX c #A7C7B189AD00",
"+X c #AE90B14DACC9",
"@X c #B393B2DAADAC",
"#X c #BA78B4F3AE5E",
"$X c #A5C1AC9FB627",
"%X c #AC9DAE2CB17A",
"&X c #B212AEFFB07A",
"*X c #AE5DB1AAB2D1",
"=X c #AAEBB2FBBB14",
"-X c #B449B490B44D",
";X c #B949B733B3E0",
":X c #B815B83FB74C",
">X c #BB4EB9E6B586",
",X c #B5ECB703B98D",
"<X c #B73DB908BAA1",
"1X c #BC1FBBFABC89",
"2X c #C141B4E3A9E8",
"3X c #C1C2BB59B547",
"4X c #C1AEBEC9BD74",
"5X c #C377C127BE87",
"6X c #C96CC257BC27",
"7X c #983FA935C37D",
"8X c #A92EB546C589",
"9X c #A8F8B709CCAF",
"0X c #B44FBB6AC6AD",
"qX c #BE97BF5DC149",
"wX c #C0F7BFC4C151",
"eX c #BFC5C0E3C25C",
"rX c #BD1CC340CD1C",
"tX c #B872C4D8D8B6",
"yX c #BCB8CCA6E4C7",
"uX c #C478C38BC44C",
"iX c #C9E7C6A4C68B",
"pX c #C5FEC6ACC985",
"aX c #C992C7E0C8ED",
"sX c #C9D3C90FC9F9",
"dX c #CD1ECAF6CBA7",
"fX c #D0F7C992C641",
"gX c #D220CE13CEC8",
"hX c #D763D135CF24",
"jX c #C9EACCE7D517",
"kX c #D399CF9ED0D8",
"lX c #CB99D17CDC4E",
"zX c #D5E6D211D315",
"xX c #D9ECD55CD63D",
"cX c #D51CD563DBC6",
"vX c #DBE3D7A6D939",
"bX c #DE42D9D3DB02",
"nX c #E11ED917D69A",
"mX c #E1F8DD23DE10",
"MX c #CA8FD634E9A8",
"NX c #D83FDBF1E6E5",
"BX c #E48FDFC0E121",
"VX c #DA8CE411F68A",
"CX c #E70AE2F1E566",
"ZX c #E7DCE94CF20E",
/* pixels */
"0XS.s.f.T } Y.F.X.p.,.../ / / X.+.p p y 4 4 u Y B *.p {.I.L.~.L.G.L.(.E ,X:XwXpXaXdXaXkXV 7.>.;.] ;.5.7.x.V 2 y $ q 7 * S o.p.d.h.u. .J * , i e p y  .V I G 0.9.P D e b  X].R.N.H.R.].[.& ~ U 6 : $ 2 q y w.;X>X>X;X@X@X@X>XI (.D.T.v.(.(.I.D.G 2.7.:.2.2.2.m.s.",
"4X1XqX>X:XrX!.&.7 p.X.+.X.,.X.) X.p U j u u s a % Y 9 ~.I.L.~.L.L.~.`.D wXuXpXdXdXuXsXkXV x.6.7.>.l d r G o.o.p...y A A v Z o.O.O. .D A G D y X.a.d.h.h.G V V c N C v x +X[.].O.].R.OX[.* W T t ; ; : 2 g 9.@X@X;X@X@X@X>X6XH D.J.(.D.I.H.N.$.S m.2.,.2.2.2.2.s.",
"1X4X>X>X>X5X4X4XG p.+./ K X.X.,.<.e g Y y : , Z Y j & (.~.P.~.L.L.~.`.V kXsXjXaXaXaXkXsXC *.j P D.!.% 0 0 x o.i.!.!.lXaX1X5XgXvXzXuXuXaXuX0XL.).r.8 N | %.`.G.t.P c c 0 +X[.].&.E.T.K.$ % R T f 2 2 q d h I @X;X;X@X@X@X6X5Xe x.x.^ a e M A / e s.2.2.:.2.2.s.m.",
"5X1X4X>X>X1X5XW.H ,.X./ X./ o.X.a.% @   + O : d Y R w }.~.~.I.!.~.~.}.9.kXdXiXiXjXdX%X&.i.$XxX~.D O.!.0XwX1X1XdXzXkXdXqX5XpXsXkXuXuXsX1X4XsXsXdXaXaX| 0 0 L x i ..D.r.S E m.H.( B.N.A 0XD T T g y 2 f g T v >X5X;X>X@X;X5X5X} c G } W Y R R T t :.1.1.] 2.2.2.F.",
"5X5X4X3XeX5X5X~ p.X.X./ / / ..X.#.0 & f.f.g.e +   . I |.{.(.P.L.~.(.{.e.kXaXgXgXc.| $X4Xb. .A.{.1X1XuXsXkXdXqXuXpX>X1X5XdXzXzX4XuXdXuXuX5XsXdXgXaXuX..& _.1X1XqX$Xd.e e ^ J w W (.S @X@X( T R T d d Z T ( 8 1X1X;X;X;X@X#X>Xl./ ^ l j j k k l l & 2.2.:.1.2.2.).",
">X1X4X1XqX5X7.K 9 / X.o./ ..X.&.g 7 p 2.m.:.2.m.(.e h.).(.~.D.G.L.(.`.V dXXXE Q.NX~.i.Q.cXwX:X-X1XsXuXzXzXsXuXuX;X:X:XuXgXuXuX1XaXuXuXuXaXuXaXsXuXwX9 & rX<X,X,X<XqX1X<XA.S p p.S p 9 5.@.M @.Q d : . o # 7 %X>X>X@X>X;X;X-X[.q ^ k j d u j j j d q 2.,.1.2.;.:X",
":X>X4X4X>X$.F T ^ f , / X.+.,.,.7 M.N.s.$ ~ :.2.m.T !.(.I.L.L.L.I.`.c.7 V $X>X| h.~.1XiXwXwXdXwXuXuXdXsXsXzXdXqXqXuXaXpXuXuXuXwXiXuXuXuX:X1X4X1X1X3X& 0 eX1X<X,X<X1X<X,X1XqX|.e.> X.o.i p.# #   $ x 0.j./.u.C.:X#X;X>X>X>X;X>Xe R T d j u d d d T Z q 2.2.m.~ >X",
">XqX;XV.p A k k k d A * p ,.a.#.o.M.m.7.2.f / 2.N.e $X~.~.I.!.~.(.Z.9.0X,XB Q.;XaX4X1XwXgXgXkXiXaXkXdXuXeXuXsXuXiXuXpXpXuXdXsXsXuX5X1X1X X XuX1X1X;X& 9.uX<X<X<X,X-X-X,X1XqX1X1XqXC.8 +.+.7 H _.8X_.(.P.P.T.S >X;X@X@X;X>X:X4XF.a R j d 5 d j j k R p $ k s.p.5X",
"k y * S ( j d k k d l R M $ #.e z.7.m.2.h q 7 Z ~ F ).(.(.~.{.P.r 8X-XG ~.iXuX-XaXwX1X1X:X1XuXiXzXzXgXgXuX1XuX1XuXuXdXdXdXkXdXuXuXwX;X1X X X5X1XwXH.& h.wXqX1X,X<X<XqX,X,X<X-X*X*X,X1XS.c @...e D.(.P.F.P.P.A -X-X@X@X@X;X;X;X>X9 T k d d d d j T j S f.o.* * k ",
"f.,.A ~ k k d Y R d k ^ ( ..% o.2.z.2.$ A W A f 3 Q.{.`.I.I.W h.uXA _.gXkXdX1X-XiXuX:X:X:X1XuXiXpXaXdXsXsXuXiXaXsXzXzXzXzXzXdXuX1X:X1XwX1XuX1XuXiX-.8 _.qXqX1XqX1X,X,X<XqX1X<X:X-X,X:X1X1XA.7 &.G g (.P.P.P.C.d.;X@X@X X@X@X;X;XI.q R k j l k k k q p.,.s.f.f.f.",
"1.s.y T j j d j j k R R ] _ F N.;.T e :.2.N.m.m.% ).{.{.b.} qXl.r.zXkXgXzXuX1X1XpXiX1X4X-XiX4X1XpXsXeXuXsXzXdXdX;XN.D.| %.u.U < < E %.| @.Z.l.7.l.N 0 =X1X,X,X-X-X,X<XqXqXeXqX0XqX,X<XqX1XqXuXO.# 8 v s.(.Y.I.v ;X#X@X@X@X;X;X;X;XV d T l l k k u t.1.,.1.1.1.1.",
"1.1.7 R j d d d j k T _ ] V 1.k e / 2.:.;.2.z.` h.(.{.W _.,XU &XkXdXgXdXsXuX-X1XuXuXuXaXwX-X1XuX5XuXgX@Xc...* w Z g / / ) ) #.:.#.$.) #.~ / A A N n > 0 Z.<X,X*X-X*X:X1X1X1X1XeXqX1XqXqX1XuXpXqX|.V & 0 Z (.(.d.D.@X@X@X;X;X;X;X;X@Xi g k k ~ ~ q s.:.,.:.,.,.1.",
"1.1.f T k d d j k Y ( _ e o.i ,.F.2.) ~ #.2.<.7 $XK.| 0XU G.gXkXsXsXpXdXiX1X1XuX:X-XwXaXdXdXjX6Xv.Z y.h.V w r.:./ ~ ~ ~ ^ ) ~ / ( ~ / ~ ~ ~ T ^ #.:.<.M.T G N c.I.-X-X-X-X,X,X1X<XqXqXqXeXeXqX<X<XuXG.& o. .N.(.N -X;X#X;X>X>X;X;X;X;X0 h h ~ $ g.,.,.,.,.:.,.,.",
":.1.A g j d d l ^ ' l - o.S.m.2.m.m.;.~ ] m.^ i.L.N ,Xu.}.iXdXwXdXdXuXdX1X1XuXaX:XuXkXzXkXn.N i.`.@X@X;XU.0 J #./ h h h h ~ ~ ~ ~ T ~ h ~ h ~ / ~ ~ ) <.<.#./ / A 7 a.1X,X-X,X:X:X<X<XqXeX1X<X<X1X1X1X|.n d.w S.C.c.;X;X>X>X;X;X;X;X>X1Xf f d ,.1.,.,.,.,.,.,.:.",
",.X.X.i l j k _ _ y v ,.F.o.:.>.m.m.7.;.&.7.@ , tX1Xv aXiXdXdXkXzXdXgXiX1XwXuXwX:X4X{.U O.(..X.X.XXX.XoX#X0 S 2.^ ~ h h h h ~ h ~ h h h h h h h T ~ ) ~ ^ ,.) ^ ( / ~ 3 e L.-X*X*X,X<X<X<XqX<X1X<X*X-XuXeXD p.f.i D  X;X>X>X;X;X;X;X;X;X>X;.= g.1.1.,.,.,.,.,.,.",
",.1.2.e k k R u 8 r m.2.F.N.e ) 2.m.m.m.-.< @ wXU =XaXdXaXaXkXjXaXuXuX;X1XuXiX&XI.G C.XXXX.X.X[.[..X.X@X;Xe n 2.) ~ A h h ~ k ~ h ~ h h h ~ h h h h h h ~ ] / ~ h ~ ~ / / Z N ).1X:X1X<X*XqX<X1X-X*X,XqX1X1X|.0 f.M v :X>X;X;X;X@X#X@X;XOXeX/.w h 1.,.,.,.,.:.:.",
"s.s.s.* 6 $ & ,.f.,.1.m.7.m.m.J 2 :.m.m.j V jXN {.uXuXaXaXaXsXdXwX&X&X&XwXsX(.{ H..XXX.X.X'.oXoX'..X'.XX@X| x &.:./ h A h ~ ~ T ~ ~ ~ h h h h h h h h h h ~ h h h h ~ ~ ~ ^ / ~ S (.<X:X1X1X<X<X<X%X-X<X<XeXeX|.S S.V &.>X;X;X;X@X@X@X@X@X>X5X1XQ.- < / 1.1.a.1.",
"2 2 q K g.,.1.2.m./ ;.s.:.m.7.7./ ;.N.;.V ZXi.,X1XwXgXuXwX:X:XdXiX&X-XwX&XN Q.oX.X[..X'..X'.'.E.'.'..X.X@Xx.% +.] ) ^ ~ / ^ / ( ^ ) / ^ / ~ ~ ~ ~ h h h h h h h h h h h ~ ~ / :.>.} e K.qXqXpX<X1X*X*X-X-X1XqXuX<Xw.P.M l.4X>X>X-X@X@X@X@X@X>X;X>X1X<Xd.. $ , : ",
"= / 2.:.;.:.2.:.m.f ;.;.2.2.:.:.B.A z Z iXW 4X1X;X1XgXaX-X1X1XuXgX,X4X` e.XX.X.X.X.X'.[..X'.[..X.X.X.X.X#X'.# J #.) ) ) :.:.*.$.:.#.,.#.;./ ) ) ~ ~ ~ k h h h h h h h ~ / ) ) :.#.<.s.> i uXuX1X<X1X*X*X|.-X<XuXqX<XZ a.r l.3X:X;X;X;X;X@X X@X;X;X>X5X6X& 1.s.,.",
":.,.K h f f / 2.2.A ~ ;.7.:.1.:.7.r a 5XE uX1X1X:X1XaX:X1XwXuX4XaX}.Z L.XXXX[..X.XE.[..X'..X'.[.'..X[.oX.X.X# 7 3 q 3 < o @ # 0 w @ $ $ y y d ( :.;./ ^ / ^ ) h h h ~ / ^ ) ) ) ) :.>.>.% > {.eX:X1X*X|. X%X*XeX1X,X1XM a., l.1X;X;X;X@XXX[.@X@X>X>X5X3Xb ;.;.;.",
":.;.;.;.~ ;./ = 1.2.f ;.2.2.:.:.h W iXW aXkX1X:X4X1XuXsX:XuXuXuX! i.XXXX.X.X'.'.'..X'.'.[..X[.[..XoXoX@X-.- w i.!.0XNX4XV nXzXxXzXc.V.% = h.!.0 = @ 9 p ( / ( / ~ ~ ~ ^ ~ ( #.) ~ ) ,.g & w = u <XqX%X*X*X*X*XeX,X-X1XeXN p.i ( >X;X;X#X@X;X;X;X>X>X3XY.f ;.;.;.",
"s.s.:.h ;.;.1.;.; f f.;.:.x.] y w.NX%.sXuXuXgXuX:XwXuXdXwXuX;XN K..XXX[.'.'.'..X[.'.E.E.[..X#X.XE.@.- h.=XNXzXkXvXvXbXvXqXV I.Z.BXnXhXL.8XZ.H.&.x $X=Xh.J # < Y ~ ~ ) / ) ) ( ~ ~ ] ] % % * k.F.N %XqX1X*X*X*XeX,X*X1X<X:XA G.v < [.>X;X;X;X;X;X>X>X4X:.K ;.;.1.",
":.;.1.1.2.) 2.2.f ;.:.:.>.l c b jXh.4XuXiXiXwXzXuX1XuXaXuX`.a &X.X.X[.'.'..X'.XX.XE.'..X.XXXn.i j.jXI.zXiXfXbXmXmXxXvX:XC.,XmXiXwXwXwXfXkXkXfX0 t.{.`.~.I.(.!. .$ d ,.:.#.,.:./ / >.q * & F OXT.J.* (.1X,X,X1X,X-X,X,X*X<XeX{ S.7 % ` 4X;X;X-X#X>X>X5Xh ,.;.h 1.",
";.;.:.;.2.2.2.1.;.;.:.h 9 w i wX} rXuX1X1XuXuXwXdXdXuXgX,XN XX.X.X'..X'.W.'.[.[.[..X.X.Xx.E w -XmXnXZ.aXiXiXbXmXmXxXB.0XzXxXvXiXwXwXzXkXkXzXfX& j.~.P.L.I.~.~.`.|.h.7 u #.#.>.:.:.~ * * = =XOXT.T.D c }.1X<X1X,X1X*X-X*X<X1X,Xr f.I $X0 5.;X>X;X;X5X>X= 1.1.:.;.",
"1.;.7.>.:.2.m.7.*.a > b 0 8 lX| %XuXwXwX1X-XiXaXuXuXwXU.h.XX'.'.oXE.'.[..X'.[.XX.XW.n.D 8XdXgXV {.vX!.dXwXfXzXnXvXU.0XdXaXiXfXxXfXdXhXdXgXkX6X& ^.~.I.L.L.~.L.L.(.(.P.C.v Z #.#.$.0 = % /.].(.].].].+.u.L.qX<XqX<X%X%X*X<X1XqX{.> &.,XzX8X9 %.[.>X4X#Xn z.<.z.z.",
"2.:.2.F.2.' d 7 b { E Z 0 t.:X0XaXkXuX:X4X X&X1XsXdX6.^.XXXX[..X'.'.'..X[..X[.XXK.N 8XfXfXfXxXwXe.-XcXzXgXzXzXBXxXG.kXkXgXaXuXkXmXwXgXfXaXgXE.> $X`.~.~.~.L.!.L.(.I.L.P.~.G.> p q 0 _.].@...J.T.R.D.f.v.& W uXeX-X%X*X-X<X1X<X1X}.*.0 wXxXzX1XV ; ;.a 0 z.>.#.2.",
"f 2 q w n = C W a B U Q w.,X .wXuXuXdXiX4X:X1X1X1X8._.XX[..XE.[.'..X'..XoX.X.Xs i.NXi nXhXV.@.U.D i.c.mXxXxXzXxX| vXxXxXxXxXgXiXBXfXgXdXgXxXc.m }.}.~.~.L.~.(.~.L.~.!.L.~.~.%Xy.* V ].].T.T.f.p X.].T.].U C.| <X%X*X<X:X<X<X<X<XqXN i.| hXdXl.cXbX8X!.Q. .$ % 7 ",
"kXkXcX/.(.v i W Z N U 9 `. .wX1XwXuXiXpXuX1X:XiXI.).[.[.E.'.'.'.'..X.X}..XU.{ wXvXBX4X  - # @ 8 > wXvX~.l.c.L.i.L.vXbXbXbXnXzXgXzXwXgXzXxXbX@.w.}.~.~.~.~.~.~.(.I.I.L.L.L.~.~.{.G.c F.(.T.#./ $ @ T.J.Y.J.w &.v.-X<X<X,X<X1X1XqXqX1X{ i.i.-.,XkXzXzXxXxXzXxXxX|.",
"kXkXkXxX1Xh.0 B E Y Z c 7 -XkXuXdXsXuXuXuXuX;X(.h.'.[.E..X'.E..X'.oXoXoXn.# NXbXvXbX(.VX$X_.NXxX~.NXxXgXhXBXxXhX`.I.c.a q V J w.w.P n 3 p 9 = e P.{.~.~.~.~.~.L.L.~.!.L.I.L.~.~.(.(.N a @ e.p.M.&.T.Y.F.(.z.M J ~.1X1X,X<X<X1X1X,X:X).0 ..0XgXkXkXkXkXxXzXxXR.$X",
"zXkXxXxXxX| n x # E V b /.zXsXsXiXaXdX1XuXaX`.r .X.X.XE..X'.[..X.X#X-XU Q.C BXkXkXvXL.lXmXzXgXzXL.kXmXxXwXn.U # & v ).}.|.].].(.}.}.-X*X|.<X).d.V 8 T D.`.~.~.I.~.~.L.L.L.L.~.L.(.I.~.Q.> R.].T.&.Y.J.J.Y.J.K.c v ~.1X1X1X1X<XqX,X1XwXC.u.| gXkXkXgXkXkXzXzXQ lX",
"zXxXkXkXkXfXb O.w 8 u.} gXsXsXuXuXuXuXuX1X4Xa @X[..X.XE.E.[..X.X&X#Xi 0 > ^.nXkXhX}.i.bXzXgXkXzXI.qXE.E e.!.wXwXp.J  X`.(.T.(.OXXX X X].].|.+X-X XOX!.J 8 &.~.(.~.%X~.~.L.L.~.~.P.P.~.~.Z.v T.R.T.s.Y.Y.m.F.Y.N.Y.N %X1X<X:X-X*X<XqX1X1Xi i.c.gXgXzXcXkXkXi.0XhX",
"kXkXkXkXkXkXw O.r.Q.B 1XdXuXaXsXuXuXiXiXaXN -XoXXXE..X.X[..XXXXXW.9 > > & Z.nXhXi @ !.BXmXxXzXkX! n Q.1X-X:X-X4XR.b |. X`.T.].[. X X|.].(.]. XOX-X`.].(.%XG.w W ~.~.~.~.~.~.~.(.P.P.{.~.{.P.D F.R.#.Y.T.B.J.T.T.W T.M ,X*X*X*X X%XqX1XuX`.V V wXzXzXkXzX-.cXkXzX",
"kXkXkXkXkXzXD { N wXh.zXzXwXiXkXuXuXuXwX$.~..XXX[.[.'.'..XXXoX'.D $X$XMXNX# E.# { wX| hXnXBXK.N Y.@X+X@X+X@X+X>X;X% OXOX].|.|. X|.].|.T.T.(.].|. X].].]. XOX XJ.c | }.}.U.~.~.!.L.L.~.L.~.~.!.N J.z.J.Y.Y.F.B.T.a.T.N.D %X%X X}. X<X1XeX<X} f.D zXkXkX&X,XzXxXgX",
"zXkXkXkXzXkXe.i 0XE zXkXjXwXjXdXuX1X4X[.7 ;X#X.X'.'.'..X'.XXoX{ cXzXdXgXhX# @ 9XbXNXe.{.3XV }.&X+X+X+X+X+X+X@X+X>XA !.|.|.].OX].+X*X`.T.T.Y.].].|.OX].(.|. XOX].&X}.0 c.~.~.!.L.L.~.L.~.~.L.~.~.} T.1.T.Y.J.N.T.{ T.K./ P.-X%X X X<X1XeX<XqX7 +.u.8XkX,Xd.zXxXkX",
"hXzXzXzXkXE.# P wXG.xXzXdX1XgXgXwXuXuXV 0 [.;X.X.X'..X.XXXXXN wXxXfXdXdXzXr 9XhXvXbXBX8 t.<X&X-X+X+X[.+X@X].+X+X-X&.g.OX+X*XOX].OXOX].].~.].].|.|.+X|.].|.+X].(.&X&X%.% i }.~.U.L.L.L.L.L.~.L.~.!.N N.T.Y.Y.J.T.B T.T.I.r -X*X%X*X1XqXeX:X<Xc.f.E n..XxXN xXxXzX",
"9 9 9 % x c.O.0XG &XwXgXdX1XuXsXwXgXl.> 0 0 *.oXoX.X.X.X&X5 0XzXdXzXzXzXzXA.xXzXkXwXN }.-X&X&XXX+X@XOX[.+X@X[.;X;Xm. .@XOX X+X|.]. X].|.`.|.+X X XOX|.].].].`.`.&X}.c 7X_.8 Z.~.~.~.~.L.~.L.~.~.|.L.r (.Y.J.Y.Y.W T.J.z.e.S *X&X*X,XqX1XqX:XeX8 u.# 9.u.w.r 9 , ",
";X#X>X7 n -Xw.,XZ.-X+XpXdXsXqXaXdX4XC 0XA.0 > < '.;X#XXXx.y.kXxXvXvXwXwXL.wXhXhX XZ *X+X@X@X+X X].@X+XOX+X@X@X-X4X+Xn |.-X+X+X X+X+X]. X X]. X|.+XOX X(.T.].`.].'.Y y.NXnXwX9.c.~.~.~.~.~.~.~.L.~.$XL...T.B.F.F.s.f.l.3 R.D ).-X*X-X<X<XqX:XqXC.a.v @X X&X;Xb.;X",
"XX&X;XE w ,.}.{ uX*X-X5XzXzXzXuXaXN 8X-X%X0XG % @ $.:XU.9.n.nXdXfXwX4XwX9 wXwX}.e -X+X].[.].+X+X+X+X;X@X@X;X;X-X@X$.= 9 c H 9.w.w.V w w p ( x.].|.].].T.`.T.T.|.n.m NXkXwXnXwXB Z.~.~.L.L.~.L.L.P.~.~.N z.B.m.z.N.& u.F.T.I.9 %X*X*X<X,X<X-X-X1Xw +.H.[.'.&Xi @X",
"[. X@XR.0 & iXC.:X-X1XeXgXgXdXdX%XQ.&X&X%X%X-XQ.0 # X x wX3XzXdXwXwXwXn.9.wXU.9.:X>X@X+X].].+X[.+X;X>X@X>X:X5.3 c  .h.f.v. .D }  .G.f.8 S 9.r.G q ( `.].`.`.].`.9 9XgXdXBXBXzX0Xu.{ ~.~.L.~.~.L.L.~.~.~.r N.B.N.Q Y.Y.T.T.T.*.J.,X<X<X-X,X<X<X,Xv.p.D  XR.M *.E ",
"B [.[.;X} G.*.-X-X*X<XgXdXkXsXzX} wX,X-X X{. X}.,XC # # N gXgXgXxXdX.Xi 9 - e.oX+X+X+X+X[.[.@X+XOX;X;X[.^ = J r.+.%.a.a.F.r.a.&.u.v.C.O.S G.F.N.S.r.c g K.{.].@.i.cXgXaXzXxXBX2XwXe.Z.}.!.L.L.L.L.L.I.~.Z.q J.J.M Y.N.m.J.J.T.M <X1X-X*X,X<X1XqX1Xi } #.W (.[.`.",
"R.%.n.[.l.cXe.XX-X@XsXzXdXgXkX,XQ.-X&X,X,X}.}.{.&Xi.{ &XwXwXA.U.b.d.+XgXP.S >XOX+X+X[.@X+X+X+X+X-X-X[ e e.8 u.a.X.o.o.&.p.+...c.a.f.v.a.n D.M.s.s.z.F.S.9 p $.V VXBXkXgXgXdXBXzXwXwX{ c.}.!.L.L.L.L.L.~.~.G b.P., m.v.m.N.N.H.>.(.1X,X*X*X<X<X<X<X .D.r.[.[.].R.",
"R.[.L.| | L.(.1X:X1XdXdXdXzXgXS wX%XwXqXwX,X}.%X,XC wXwXwXkXwXwXzXzXzXfXG :X@X@X@X+X+X+X;X;X;X;XR.r t.p.v.O.u.f.a.o.} O.a.o.S a.a.f.Z.<.H a.a.2.2.M.M.s.s.p.w I kXNXkXkXgXdXBXBXcXzXkXD Z.}.L.L.L.L.L.I.~.~.q &.S.y b.N.N.J.T.K.N eX<X-X-X,X-X-X-XI.} N @XR.R.T.",
"R.].[.K.$X .-X1XuXsXuXsXzXdX Xh.}.&X%X,XqX:X,XqXU.$XwXe.kXhXwXhXzXzXxXA 1X:X:X@X@X@X+X+X+X@XOX>.n r.&.p.v.a.D C.f.%.o.&.&.+.D p.&.v.C...o.z.l.2.s.z.s.s.<.2.z.D *.vXmXkXwXdXBXnXwXvXxXwXr }.~.L.I.!.L.L.~.{.G.a.T.l.X...U @ > e.v |.eX1X-X*X*X*X X:XD +.J.+XE.T.",
"@X X[.| zXc.&X,XuXaXdXkXuX1XZ eXqXqX,X,X}.,X1XwX9.i.N !.,XhXhXhXzXzX8.h.1X>X>X@X@X+X+X-X+X+Xd g.+.+.&.&.d.d.9 q a.a.Q i &.&.c.p.u.v.d.J g.M.M.z.M.s.2.<.s.,.a.s.| N mXmXxXdXBX).nXbXwXxXZ.N ~.U.I.~.L.L.!.}.%Xr T.T.T.].T.= % - <.D eX1XqX<X*XqX X:Xd.f...@X.X+X",
"w w F r.L.qX&X1XdXaXuX1X1XuXe.eXwX0XwX&X,X&X&XL.i.kXkXwX}.}.wXhXhX4X# W ;X1X;X@X+X;X@X;X@X: r.a.a.+.+.p.d.&...P x I o.e.B # & %.v.D.a.i S.N.f.f.z.s.s.2.s.<.,.<.s.s.9 kXhXvXBXwXwXbXwXwXwXi.Z.~.L.L.L.L.L.(.).c.a.R.`.]., # J.d.V % uX1XeX1X1X,X%X*X:XJ N r % w ",
"%X(.c.).} 4X,X:X-X X:XdXsXH.$XqXwXwXwX&X&XwXwXC vXvXnXvXhXL.wXxXzXp 0 x , K.4X>X-X;X>X:X< j.r 8 c.p.&.u.p.G C.v.v.L.H.p 0 w.r.V *.&.X.9 F.F.m.m.z.z.,.s.z.s.z.a.a.M.C.F }.}.wX{ }.xX}.wXzXwXr L.L.~.I.!.L.I.L.{.e ].R., @ F M Q H.b.S.eXeX<XqX,X:X-X1XM p.d.* } ",
").{.Q kXi.,X;X-X X-XwXuXdXD 1XuXwXwX,X&X}.wX}.}.xXvXxXvXzXwXc.,XXX7 m F r 7 #.@X>X>X>XT g.v.D.h.7 C.d.a.B Z.d.a.v./ 7 > 0 t._.7X7X^.k.n 3 A f.m.z.z.2.a.s.z.z.2.s.m.b.a.E bXwXBXvXB wXzXwXvX&Xe.L.~.L.L.L.~.L.}.C.T @ @ g.OX].z.i x.7 1X,X<X<X-X1X,X1Xd.F.r.).% ",
"r.`. .I.}.:X:X:XuX-X:XuXiXi.<X<XwX,XwX}.&X0XB kXhXkXhXwXvXnXzX3Xv C c P H n w $ ].5Xn.y.S.C.P.x.0 o.D.D Z.v.v.&.q n t.h.c NXxXxXxXxXmXCXZX0XK 2 a.s.s.2.s.z.s.s.s.z.v.b.i.Z.L.bXxX# wXxXxXcXgXi ~.~.L.L.L.L.L.}.*X@ c g.OX(.Y.N.v W = ,XqX<X,X<X1X1X1X|.r.S %Xx ",
"0 (.Q.i.gXuX1X;XaX1X-XwXb.}.1XqX%X}.qXqXeX#Xe.xXvXzXwXzXnXbXxX}.b c V C 9.c v w % 9 L Z.S.D.a 0 = G a u.v.a.a c g.+.+.,.S jXnXbXbXvXxXxXxXxXxXlX .i 2.z.v.z.s.z.s.s.m.s.F.A J.kXiX0 V iXzXfXgX&XO.~.~.L.~.~.{.{.{.E P.I.J.#.N.A ].T.@ Z.eX<X:XeXqXqXeXeXn } |.u.",
"y.Z 0X@ kXgXuX-X4XuX:X1X{ 1XpXqX|.{.%X:X,Xi.,XkXbXnXzXxXbXvXnXV r w C G  .V 0 n b m G.P.D.v 0 I k.P V } c.e g.d.C.X.o.X.o.$XkXxXkXxXkXxXxXgXzXnXnX> 8 a.m.M.z.z.m.s.s.s.M.N.v vX4X7  .@ Z.kXgX&X# `.~.~.I.!.L.~.{.D.Z t o.S.@.% ( +X7 G eX<XqXeXeXeXeXuX{ +. .C.",
"{.%.bX0 gXaXwX1X1XwX1X1Xw.qX,X{.{.{.:X1X:Xi xXjXwXnXzXbXzXxXwX0 n x C V C B N V w A.P.b.> $ g.A.H H.H.F F /.Z.+.C.+.} +.X.A.jXkXgXgXaXaXgXiXiXvXn.i.>.9 W N.M.M.z.s.z.z.m.F.s.S.vXr h.$X% &X}.G # c.(.I.L.~.~.P.~.}.% m.K.T.T.R.&.[.E & uX1XeXuXeXeXeXeXv.& u. X",
"(. .}.7 -.[.dXwXiXwXiX`.L.wX&X}.-X:X%X:XwXG Q gXhXzXwXwXnXBX-.0 V r V C  .V C r 9.L.<.# w.Q.d.G Z.S.5.v f.F.f.} s.,.o.a.M.g.gXzXgXiXfX4XwXfXiX3Xw a a l * / N.M.z.s.s.s.s.M.M.S iX1Xc kX}.8 n wXm V (.I.L.).~.~.!.(.E m.Y.Y.J.R.[.D N * *XqXeXuXeXeXeXqX`.% D |.",
"~.u.Z.& x x # > W -.'.i rXeX<X*X,X,XwXqXI.=X}.i zXwXnXnXnXhXx w V c V V P  .C C r.U 0 e G.v.N D.G.F.G h.J 1.o./ / o.a.M.a.O.kXzXkXgXhXgXzXzXiXZ ] ] ) T A o s.z.M.s.1.,.,.<.M.s.c.zXw $XK.9.cXK._.O.~.~.~.!.{.P.L.`.c.} `.K.I.N.p 9 Q 8 C.1XqXuXqXqX,X,X1X0 0 %X",
"G !.i. .h.9.w 0 n x m > sXeXpXeX0X%XwXdXu.I.A.# i hXxXzXwX&Xx b 0 C m C 9.C C C N v x 0 A.T r.C.D.i f.f.M p.a.o.a.S.G.P.B V jXnXkXgXkXxXxXxXU.%.' _ z ' ;.;.$ s.M.:.:.a.<.,.<.s.c cXc.O.B cXzX{ kX&Xi.~.}.~.(.~.(.~.{.@ b.*.1 $ . $ & & e.1X0XqXqXqX:X,X1X# a H ",
"-.%X7 2Xx.U C n C r c q.sXeXpXeX-X`.&XwX9 qXzXnXxXi.wXwXBXl.C N V 8 v r V V N V q.N 0 w } w G.P.@.x A v.G +.+.v.S.D.b.N v C L.U.U.}.wXzXxXfXV u _ z z z [ ' ^ Z z.&.,.s.s.z.s.m.%.}.iXx i gXG wXzXxXN (.{.).~.~.~.~.}.> # # # 0 t.7X9X0X& 1X:X<XqX<X,X:X1X{ a %.",
"Y NX .*.N C n C H x = i.jXsXpXeX}.{.1XwX+ # i ! U.oX| c.2Xc c C v c c V C C v $X!.!.V > % u.D.K.7 7 * $ f.n +.v.G.f.w.v.F y./.Q.!.V i Y &XE -.[ d k ^ _ ^ ' ;.0 z.,.#.,.M.s.m.s.b.w B mXZ. .9.zXBXnX= (.~.{.~.(.~.`.).E C tXVXZXxXvXbXbXN 1X1X:X<X<X1X1X1XO.j U ",
"E nXl.c w C n n i.cX$XQ.jXpXeXeX&X}.-X1X+ j.C # # # 0 B E N N C V x r V v C n % > D b.% r.o.d.W 7 w G.z.i W v / B a.j % Q.sXuXuXiX%.Y Q c 9 ' ' ' l k ' ' ] [ ' N a.#.1.s.z.M.s.f.a lXmX0 & r oXn.! % ~.).{.(.L.~.~.~.i.Q.nXzXxXkXkXbXxXL.=XqXqXqX1XeXeXeXZ.a Z ",
"B wXN w c b Q.9X!.aXL.!.pXpXeXeX,X}.:XH.^.vXmXBXVXtX7XQ.b 8 n x V V b c v V i.!.Q.r.$ A.S.} z.0 & D.7.7.N.&.v v f.p 9XuX1Xd.| '.iXj j j Y B X ' 6.7.^ 4 8.4.7.5.r ,.<.<.s.M.s.M.m.&.W q 8 7 & & m w.b c.{.~.}.L.L.~.(.Z.L.zXxXxXxXgXxXxX`.C.1XqX<X,X<XuXeXC.p a ",
"D {.0 0 x n lXN =XwXb.wXpXeXpXqX-X{.,Xb.kXxXzXzXxXxXkXcXi.c c N 0 r r n n w 8 @.v.f.a h.P. .z.= 7 J.7.^ ) 7.5.n i _.uX5X5X4XuX).e.j s 5 s j a a [ [ x.[ e T p a e o.2.a.s.m.s.m.N.D.* L g.^././.~.L.v.u.{.~.$X!.L.~.~.(.Z.zXxXxXkXgXkXzXgXc.1XqX<X*X,X<XqX-Xa D ",
"i.(.8 x 0 9XaXN wXwXi.pXpXqXpXqX%X}.3Xe.zXxXzXgXgXzXzXxXl.0 c c V c b V r c F F @ . & i *.c | c b / 5.x.>.] 8.Z b $X5X1X4X4X5X5XoXu 5 5 5 u s 8 &.[ ;.^ T 5.6.*.>.V <.s.s.s.s.s.M.J.w ).P.D.D.N.c.D.D.F ~.I.I.L.L.I.~.(.u.hXzXxXkXkXgXgXxXi.1XqX<X-X*X-X1XuXB M ",
"i.$Xc c y.wXwXL.wXwX| aXaXaXpXpX}.}.1X%.vXxXxXzXzXgXkXxXi.c c n V c x c c 0 J.7.z.a.W S v * 0 c V V x.m.] x.B.T Q.S uX4X>X4X4X5XL.5 5 5 5 5 s s 8 j 5 % R _ s ; > w M.z.z.s.s.2.M.F.V P.D.M.v.z.v.S.F.V (.~.~.~.!.L.`.~.t.kXxXxXxXkXkXxXzXe.1X1X-X:X<X%X1XpXN D ",
"Q.!.c 9.MXwXwX!.;XwXO.wXpXaXpXwX}.&XwXW xXzXzXkXzXwXzXxX{ c w b C N x N r C n.*.$.T k k ^ >.n n V w x.>.] 5.>.e.zXx 1X5X3X1X3X4Xl.5 5 5 5 5 s s w e M i g.Q.=XuXdXB N.z.z.z.s.s.N.F.A F.D.z.f.s.s.M.D.v }.{.~.~.L.I.~.`. .xXxXxXkXgXgXxXxX..1X1X1XeXqX-X<XuXZ  .",
"Z.A.c 0XwXwXwXwX| wX%.wXqXwXwX%X{.-XwXV zXgXzXkXzXzXzXnX8 N C V N C P C b { c.$.#.T d d h ^ v F v x 9 ] 7.B.$.F A.{ i iX4X4X1X4XY 5 5 5 5 5 5 s y $XpX-X#X;X>X>X4X*.f.s.s.2.s.s.M.F.J F.N.s.s.s.z.M.D.V `.{.!.L.!.I.}.}.F xXxXkXgXgXkXvXvXe.qX<XqXeX1X<X1XwXE | ",
"G.Z.d.0XfXwXwXwXwX~.B ,X*X*X%X}.:XqXaXF zXgXgXgXwXzXzXxXc N c V 9.C 9.C n  .x.*.] R 6 6 d k o.(.s.V 0 p d y $ r.R.Y.T.H.>.b.I.E.1 5 5 5 5 5 5 a i }.#X.X[..X#X;X;X5.f.z.s.<.1.f.N.F.T N.S.z.f.z.v.M.D.i }.(.`.{.~.L.{.%XV gXkXxXkXxXxXvXbX9.uXqX:X<X1XqXwXuX{ u.",
"A.i.u.F F D O.%.w.I.&.-X&X X{. X-X}.:XV zXkXkXgXgXgXgXzXw V C C P V H I H I x.5.] j 6 6 d d J J.m.7.C ,.2.:.( +.Y.K.V.V.V.V.B.B.$Xl.%.E o 2 j j 4 $X@X'.U.U.R.'.[.@.v.N.s.,.s.M.M.F.W F.M.v.f.s.z.D.D.D {.I.I.~.~.L.~.{.C gXgXkXkXvXvXxXzXe.H.b.u.i.} G F G d.c.",
"i.u.D W u.&.@.].*.C.h.w.{ | *. X}.}.1XV zXkXhXgXgXgXhXzX0 9 V 9.I 0.J I C  .b.<.] h 2 6 d k i 7.5.p.2.l.5.l 6 J V.V.V.V.V.V.B.b.[.[.'.R.E.+XC.Q # <X#X'.R.R.U.E.'.@.S.N.s.z.M.M.M.N.D N.z.M.s.s.z.S.J.e %X!.L.).P.~.%X%XI kXzXzXkXU.l.E D h.A.).T.v N V 7 O.e.i.",
"@...( W k M e M r 0 Z O.c.{ I r.8 @.%XE zXkXzXgXgXgXgXxXB m v b P v V P P I B.>.k d 6 6 d h e ` t 6 y i r.A.=Xv K.V.V.V.V.V.B.b.[.R.R.R.[.@X+X#X} :X#X[.'.'.R.'.[.T M.M.z.M.M.N.M.N.Z F.D.f.s.z.z.v.J.V {.{.~.~.~.{.`.{.t.>Xl.E h.G.# w w 0 v i p t o.( W ( @.@.",
"g d d p t t y f W @.M b 7 b & i *.i.N # @.&XkXgXzXgXgXxXi.N V r V P H P 9.I x.R d d d g d k , V Q._.<X].].[.@Xa.7.V.V.V.B.B.B.x.R.'. X[.@X@X>XW.j.;X@X.X'.'.[..X.Xv 7 < q a R >.J.J.F F.v.z.z.f.s.S.D.H ).`.`.}.~.{.Z.E  .!.wXZ.V c N } ../ R A Z Z g a p g g Z ",
"t t t t 3 q 3 y U @.r 0  .` Q Y B i % E I.l.9 *.kXzXxXbXZ.V C c v V  .0.F F *.^ g d d k k T y ).+X+X[.R.].+X@X@Xy J.V.V.V.B.B.D.R.R.[.@X@X;X>XU 0X#XoX.X'.[.[.XXW.J n.x.l.@.J i $ e  .F.z.z.s.v.z.M.D.I %X(.}.~.W B !. X$.w e A U U A g g g f y d f y y q q y i ",
"q e y q q 3 q y Z ( 8 8 Q k u u t s g j 9 r O.$X# { &XcX(.v N V n P  .9.w.N &.#.k k g k k k T i.[.[.].T.[.+X@X-XJ.M B.V.V.B.8.`.R.R.+X#X>X#X6.* B '.XX.X.XXXXXXXl.a.6.6.5.4.6.n.J.Z +.S.M.f.s.s.v.S.B.V %XH.E h.rXv.D M Z d f f p p q q y y p y q e q q 3 3 q q ",
"q y q q q q q t g Y & 0 Q j 5 y : y y 5 y a Z 9 # = 8 E L.r V V V P P P H V O.$.R k k k d k ` w '.].].[.+X[.@X@X;XC.p B.V.V.| `.E.R.+X#X#X;.g.D ~.e.Q [.XXXX#XXXa 5.4.=.3.3.4.6.x.! A.M.v.s.v.v.v.D.a.x V ~.}.W r p f p i t e y 3 q 3 < q q q q 6 3 3 q 2 q 6 q ",
"y y y q q q q y f Z % 0 T u : : : : : 4 t 5 5 Y E D & 0 0 0 w n V P C B J G S 7.( k k d d ^ ( u M.@X+X+X[.+X X+X@X;Xa., ! n.l.&X+XE.E.V.f j.<.r.D Z.Q.N x.#XXXV.o.4.4.=.=.=.=.6.6.a D.v.M.s.v.M.N.a.I $X%XV i U g p y 3 3 3 2 q t 3 3 q q < 3 q 3 q 3 e y y q q ",
"f f p p t q t y U p % S k y 4 : : : : : < y 5 4 a j Y Z 0 Q.A.m c V  .C {  .C l.$.^ k u T R h d e -X+X].[.+X[.+XXXXXi.cX_.N b Y W s V y.h.t u.L.G.r v G.y.s U.B 6.=.=.=.=.=.=.-.4.H D.z.z.z.D.f.i _.|.S V f d y e q 3 * , , 3 q q q q 3 3 3 q q q q q y p d g f ",
"T T U g u q y g W p % D k y : : : < 4 : ; : : : 5 4 p j R M q I.h.b C C C V b Q *.( k j ^ g 6 d t u.[.[.]. X+X[.&X%.NXgXkXcXNXNXNX0Xh.v.w.C.D.v.D.P.G.9 I.Q.0 &.4.=.=.=.=.=.=.6.R h.M.M.v.S.T i. XB N g y y q 2 2 : ; 2 : 3 2 q q q y t y u p p y y q p g Z T T ",
"# < e , % 9 $ - < % % E j u 5 y 4 : 2 2 : : : : 4 : 4 y u k Y v 9 E V b V C V w >.( k ^ k d 6 d d 9 P.+X+X[.].+XK.8XwXcXxXgXmXgXxXkXe...D.v.Z.C.L.!.5.8 h.H.r x.=.=.=.' =.=.=.6.e D.D.M.a.} |.&.c g g i y q q 2 3 2 3 q 3 q q t y p a f Z Z T Z q o , ; , i 7 @ ",
"^ R Q k d h e p i x & @ , u y u u 6 4 : y : 2 ; ; : 2 ; 3 4 g T W r c w.n V c V W ' ( ^ k y 6 6 d g e ].+X+X@X.X| bXxXgXzXgXgXgXkXxXJ  .G.A.S.C.D.N w x } i 8.4.=.=.=.=.=.=.4.=.y.J.D.U ^.{.p Z A p y q q q q q e q q q q q y a g g T d e 9 . 7 e A A k / R R ( ",
"k k k d d d k k ^ _ ( ( f , . $ : y 4 2 : 4 4 : ; : : 4 ; 4 4 p Y Y Z 0 {.e.b m 0 *.#.R k d 6 6 u d k i ].-X>X' lXkXgXgXwXgXkXfXkXgX@.G.b.S.L.Z.V m y.Q.w S.4.3.=.' =.=.=.4.6.r P.z.y.|.W S g g d q q 3 q q q y y y q y y p p t , % w.e.x 0 } #.k g d d j j j k ",
"d g d d d y 6 d d k k T k R k g e @ - d u y 5 : 4 : : : : 4 : 4 y a U j 9 1Xe.w 0 Z *.k d d y d y d h A q I.V.7XxXgXgXbXzXgXgXkXxXiXH.h.S.L.b.9 b Q.A.e D.6.3.=.[ =.=.=.4.6.' g.M.w.].J Z d f u y 6 q 3 q q q y y y y p f 9 0 O.).%X%X,X~.0 D ( R d d d d u g d ",
"6 y d d 6 d g 6 d 6 g g d d k k j k g 9 . < u 4 4 4 : 4 ; : : : < 5 y u Y c 4XwX> % #.^ d 6 6 6 d d k d T 0 > sXwXxXzXdXxXxXgXiXmXwX4Xr.L.l.b k.!.@.r m.6.3.=.[ =.[ =.=.6.6.8 i 8X{.w U f d y q y q < 3 q y e y f d : $ o.!. X|.}.{.|.%X-X7 c ' k d 6 6 d 6 d d ",
"d d 6 d d u 6 k d y 6 d 6 d u u u u k T T i % < y y 5 2 : : : : 2 3 < < 5 j B B 1X& # ] ~ 6 2 6 6 d u 6 k ( W N U.gXzXzXxXxXzXaXgXhXhXc E 9 n @.e p.8.6.3.=.[ =.=.=.4.6.8.y 7 $XW Z a p f q q q q q q q q y f d e 0 j. X}.}.{.{.{.}.{.%X<X9 = ^ k y 6 d y d y d ",
"d d d d j y y 6 6 d 6 d d d 6 6 d u h d k k k t $ p u u 5 3 : : : ; 4 ; 5 4 a a G dXN q @.k 6 6 2 2 6 6 k ^ ^ T e > ` @XdXkXxXvXxXhXhX8 8 x v i.8.3.3.3.=.=.=.=.=.=.6.x.! V 0XC Z g i q q 3 q y y y i y p a i b A.%X*X}.{.{.}.{.{.{.{.}.-X| & &.k d y d d d g d ",
"T j T d d d j d d u y y d d y u 6 u d d 5 j R j g f   2 j u 2 : y : : 4 : 2 4 u p E mXV p Y g y 6 d d d h k ^ d g k D M . t U j Y s i i e.D.x.6.=.=.3.=.=.=.3.3.-.4.6.=.{ pX| W g y y q 3 q q y e y p a t 7 Q.%X%X%X*X}.{.{.`.{.{.`.{.}.%Xb.& W R k u j k k j k ",
"#.R ^ ^ T k d k R k R d d 6 d d y d j 6 d d d h g T ` > . Y j y y ; : : 4 4 ; 4 y j 9 qXN 2 ` ' ^ R k k k k d u d g ^ [ w N.8.6.l.x.8.8.8.6.4.3.=.=.=.[ =.=.=.=.4.6.=.w.;XB W U f 6 q q 3 q q e t u a , w.%X}.%X%X}.}.`.{.(.{.{.(.{.{.}. X}.* A R k k R ^ / ^ ` ",
"% %   . ; - < d ( ` k T k d d d d y d d 6 d 6 y d T R ` % 8 E T u 5 4 2 : 5 O 4 5 u U , 4XM y / k k d g u y k k T R ( ] A 8.6.3.-.-.6.6.4.3.=.3.[ [ [ =.=.=.=.6.8.' { XXB W g p y q q 2 3 q q y p p N L.%X}.}.}.}.`.`.`.`.}.{.`.{.}.}.%X*X@X* 7 e p - , . % % * ",
"].(.T.J.P.P.p.0 &   , : ^ T k g d d k 6 g d u d g R $.u 7 0 0 - Q j y 4 : : O : : 4 y Y 8 4XB - T g d y y Y ' #.( ] #.R E 4.=.=.' =.=.=.=.=.[ [ =.[ [ =.=.3.4.8.l D -XZ T Z a t t q t q q t p a $ y.}. X}.{.}.{.%X{.{.(.{.{.{.{.|.}.|.*X*.> x r.p.C.Y.J.K.T.T.T.",
"Y.Y.J.J.F.Y.T.W m jXlX~.e.. - d T g k g 6 d d u j ^ _ & v x C V v Y U u 4 : : 3 4 2 4 u j 8 xXN . a g d k ( #.` #.$.$.j %.4.=.=.=.=.=.=.=.[ [ [ =.=.=.=.3.8.4.2 I jXZ E g p y q q q 3 q q p u x J.|.}.{.}.{.}.{.%X{.{.{.{.{.}.}.U.| 9 G C.OX].P.P.D.F.H.J.T.J.J.",
"J.J.N.N.B.Y.R.i y.dXuX1XwXwX=XO.$ : g j d u u k T $.< c m P N c v 0 T U y : : ; - ; : y u j E pX0 # : ^ ] #.#.$.$.$.<.N 5.4.[ [ =.=.=.' =.=.=.=.4.4.3.3.6.l S n 0X} W g f q q y q 3 q q p t i =X|.|.}.|.{.{.`.{.}.{.{.{.}.}.l.< J Z.Y.Y.J.T.Y.J.F.N.N.D.J.J.J.J.",
"N.m.N.N.J.P.Y.w ^.aXqX1X1X1XuXiXuX!.9 : k k T ^ ] Y x b v P V V P F x Y k y 4 3 4 2 : ; t 5 B B 1XF !.8 y $.` ! ] $.>.c 8.6.3.>.=.=.=.=.=.=.=.=.4.4.4.l e S.` *XE J g u y q q q q t q t q v $X}.}.|.}.%X}.(.{.}.%X}.{.}.a., u.J.P.J.F.P.F.Y.F.N.m.N.N.m.J.F.N.J.",
"m.N.B.N.N.I.J.0 0XpX1X1X1X1XuXaXuXaXaX$Xe y Q @.! c n C C C { C C C b r a j t 1 4 : : : 4 4 a a B ,X}.gX$Xr < k *.-.$.G 8.8.6.=.=.3.3.6.4.4.8.6.=.u e h.(.m.8XD a d p y q 6 3 q q q q , j.}.}.}.{.{.}.`.`.{.{.}.|.|.l.p f.F.J.J.F.N.J.Y.J.D.B.N.N.J.J.J.J.F.F.m.",
"N.F.D.J.J.T.c.0 rXpXuX1XwXuXuXuXuXuXuXdXdX=X7 < 9 x c V C 9.C C C V C V c > Y y 5 : : : 4 : 2 y a 1XV :XkXiX0Xh.* a 9 w 8.n.8.6.3.6.8.8.4.z s - I S.J.Y.J.D {.Z f p t q q 3 q y q y o ^.}.}.}.{.~.`.`.`.{.}.}.}.P.v h.J.J.D.N.N.m.N.F.J.J.N.N.N.m.J.J.Y.Y.Y.Y.N.",
"J.J.T.J.T.T.%.y.jXaXaXsXaXpXwXuXuXqXuXdXdXjXxXh.8 0 0 x N { C { G G C 9.C c , j y : : : : : : y a 8 1Xi.xXkXwX4XdX0X!.A. .9 i < : q 1 W v w g.Y.J.V.J.Y.y.|.0 g y q q q q e y y q $ /.$X{.`.`.{.{.(.{.{.}.}.}.B J ).J.B.J.D.N.N.H.N.J.J.F.m.N.N.D.H.N.T.J.J.J.J.",
"T.T.T.`.T.].E A.dXuXuXsXaXpXuXwXuXsXsXsXdXsXdXkX,XC & b c V C N 9.{ 9.w.w.9.V j j 4 4 2 : : : 4 5 j E 1Xc.kXgXwX4XiX4X4XuX4XiX4X1X5XfXhXdXD f.K.J.J.J.#.P.r Z u q q 3 3 q q y y 3 ^.|.|.`.`.(.(.{.{.{.{.}.H.N v.J.J.J.N.J.m.N.J.N.J.Y.J.N.D.N.J.J.J.J.T.T.T.T.I.",
"j.i.C % < > 0 N 1XwXwXiXuXaXuXuXaXaXaXdXjXgXgXwX3XwX{ 8 x C V C V V 9.y.} 9.P N W T u : : : : : : y a { ~.,XaX3X4XfX4X4X4X>X4X4X>X4X1X4X3X*.J J.J.J.z.9 0 B g e 3 3 < 2 q e p y h.).`.`.~.{.{.{.{.}.}.|.-.V J.P.N.N.F.N.J.N.D.F.J.Y.Y.N.H.J.J.P.m.@.U , > S h.j.",
"gXdXkXkXkXNX8X!.9.i -.:XaXpXuXuXpXdXjXgXkXaXaXwXwXwXwX8X8 w n C V C y.w.w.9.V V 0 U j y 4 2 : 5 : 4 s i qXl.4X4X4X5XiXgXgX4XaX4X3XwXwX3X3XH.c J.B.Y.M = A Z p t q 3 : 3 y y M V |.{.{.{.{.{.}.$X}.%X%Xi Q.D.J.J.J.H.N.H.J.m.F.Y.J.N.J.P.m./ t # # b rXkXdXdXjXkX",
"dXaXdXdXkXkXgXgXfXzX$Xe.p Z.uXpXaXkXjXkXiXwX1X1XqXqX3XqX}.w V C m 9.9.w. .9. .V c > T a y : < : : 4 5 j v wXl.wX4X>X1XdX3XiXaXiX4X3X1X4X:XoX# H.Y.` J 7 T g y q q q 3 y y y e  X}.{.{.{.{.%X%X&X*X%Xe l.J.B.N.N.N.N.F.B.F.D.J.Y.H.J.>.N * Q.).).O. .gXfXdXaXdXdX",
"aXdXdXdXkXdXiXiXwXgXgXiXdX{.v *.jXkXkXdXiXwXwXwX,X&X&X&X1X,XG r n { w.9.G t.V V C n N ! u 4 2 2 : < < 5 i C.i.1X4X;X@X4XiXiX4XwX1XaXiXaX4X3X& A.V.g.i T Z p q 3 q y e f g x =X|.{.}.%X%X%X%X%X%X{.N M.J.D.N.F.N.m.N.F.N.J.J.Y.T.R e Q.S V `.(.~.b.x dXdXiXdXdXaX",
"dXdXdXdXdXiXaXiXiXaXiXaXgXdXkX,Xv c.kXgXdXuX:X-X%X}.XX%X1XiXpXC n V C V V { 9.P C V i 8 Y u 4 : 2 : 4 y a r iXB 1X;X3XkXfXgX4X3X4X>XiXsXuX4XN u.Z  Xb T f e q 3 3 t a B < !.%X}.%X%X%X}.}.{.}.{.i P.J.J.N.N.D.m.N.F.N.J.J.T.#.v A.(.J.7 o.(.(.(.I.= pXaXuXdXdXiX",
"iXiXaXfXaXiXiXiXiXiXiXdXiXdXdXgXkX=X8 &XdX1X:X-X%X-X-X1XwXpXiXwXC w C { G C 9.w.C C b 9 Q s t 2 : : : y 5 k B `.`.1XiXwX3XwXuXiXdX5XuXhXgX4X@.V 8XJ T g d q 3 3 3 p U T m ,X%X}.%X|.}.{.}.}. XN Y.P.T.N.J.m.N.N.N.J.J.T.z.e A.(.(.(.E F Q.T.G.Y.(.0 =XdXiXdXiXiX",
"iXiXiXaXdXiXiXaXiXiXgXiXiXiXiXiXgXkXu.> U 1XqX1X:X:XwXwXqXwXwXiXqXb c 9 P V C C P P 9.V 8 Q u 3 : : 4 : 5 p r ,X| x.R.mXkX4X4XiXgXiX5XiXgXU.i L %XN Z f q 3 3 q y Z Q V C &X*X%X{.}.%X%X%X}.0 D.F.J.J.F.D.N.D.J.J.P.T.j I r & O.(.b.$ /.!.G.S.Y.(.D Q.gXdXfXsXdX",
"iXgXdXgXgXaXiXiXiXiXiXgXdXiXiXiXaX4Xr C S e  XqX1X1X:X,X,XwXwXwXdX&Xc b C P  .N 9.9.G C V N R u 4 : 2 : < 5 a Z  X& F t.C 0 < , ; , c J t.i.h.=XV a p y 3 3 3 t g ( E V V c *.-X%X|.|.}.%Xa z.J.F.J.J.D.F.N.B.J.T.B.e Q.`.(.d. .5.% y.).(.P.J.P.(.a.g.zXgXdXdXiX",
"gXgXkXkXgXgXaXiXiXgXwXwXiXiXfXgXfXY c T T Z % Y.,X4X&X&X,X1X:XwXaXdX,X0 v C V  .G  .C C  .C Q j 2 2 ; : ; 4 5 i -XF I.J.F.J.J.F.J.I.J.J.J.T.o.-Xe y q 3 3 < q f Z Q V V V V C i }.&X%X%Xx.k.J.J.N.N.N.F.N.N.J.J.m.D 0 P.(.(.T.& % Q.(.(.G.F.G.P.~.I.V iXdXsXdXdX",
"^.w.P 9 < *.U.4XgXfXiXgXwXiXgXgXU.x W d t 3 d % ~.,X&X,X:X,X,X4XwXsXaX .C N V C V { P P C P V ! a 4 : 4 : : 4 s N }.N.H.m.F.J.J.b.N.D.Y.I.z.).V g q e q 3 < y A ..N V P J P P C 0 *.,XL.v J.J.F.N.J.N.J.J.Y.T.D.% |.!.9 D.(.{.H _.(.(.I.G.G.P.d.d.r v 0 V Q.^.^.",
"BXwXd.kX{ n i > < l.wXgXiXgXgXwXN S k p ; : 2 2 % %.&X,X,X,X1X1XwXwXiXdX{ c V 0.9. .C P  .P c | j 5 4 4 : : 4 y q qXM D.J.D.D.F.N.v.z.N.N.p  XM Z y t 3 t 3 p T ..C L F P V N V N w 9 v I.J.N.H.J.m.J.J.J.P.4.0 e.o.w.& x u.*.O.f.S.(.I.Y.P...% h.8XNXNXvXBXvXmX",
"gXA.A.kX{ &.` Y Y B > Q :XiXgX-.c j u ; O o o ; : # `.:X1X1X:X:XwXwXpXiX,XV C P 9.C C { n P 9.N W u 4 : ; : 4 y u e.Z.N.N.z.z.v.F.z.z.z.H.d...T f y q q q t a Q N n V P C H F N w N x G.J.J.J.m.N.J.N.J.Y.v.t.).).].|.(.|.|.} (.(.(.f.C.g H 0XpX&XBXmXvXkXmXvXvX",
"8XvX,XoXx 9 y 5 u j N B 9 Q x.c ~ d 6 o o o o ; : 4 % (.1X1X1X:XwXiXpXpXdXA.C C C C B P V P V V ` Y t 2 : : 2 4 u 9 vX .N.z.z.s.F.F.M.D.( 0X9 p y q q 3 e f T ..0 n F  .N C c L c C t.Y.P.F.N.N.N.N.J.J.M.D `.`.|.|.I.I.`.H.d.(.{.~.! I wXxXmXCXBXi.1X| E n.l.c ",
"mXmXxX}.V 0 Q W p > 9 c ! E x 0 f 6 O o o ; : : < 4 u > %X1X:X:XwXwXuXiXdXkXC C w.0.0.0.B w.V V N ` u 4 < : : 5 t p I.W D.m.z.b.m.F.Y.F.D c.i u y y 2 q y g ..N F P F  .V V c V F L |.Y.J.F.F.J.N.H.J.J.S x.W & b w 7 n x b G.(.Z.V MXbXcXzXnXZXBXCXy.wXi.^.lXBX",
"BXBXBX-X9 i j u s s j U c 9 B r o 2 ; $ O ; ; 3 2 y u g 9 qXqXqXpXaXpXaXdXdX*Xv V 9.{ P V 9.P P N Q g y 3 2 : : 5 u D }.z.N.M.D.J.Y.F.s.Q.i f t q q q 3 q g ( w w N F F C c V v v Q.T.J.F.D.J.J.J.J.T.i % x Q.).v.G.(.` W { {.@.y.VXBXbXkXcXcXnXBXvXjXvXBXgXvXBX",
"BXBXBXU.n | j 5 5 y s s p a s a p   6 2 2 2 : 2 y y u g B O.wXwXwXwXwXwXwXuXsX{ C C  .y.w.G P G c e R p 5 : : : : y 9 sXJ J.J.T.J.(.T.Z 1Xq p y q q 3 q f R M x 0 c C 0 c w b > S `.J.J.m.m.N.J.D.K.R g.9X|.S 7 w n v 0 t.O.Z yXBXnXnXbXwXgXzXbXvXzXD vXBXxXgXbX",
"BXBXU.F 0 Y j 5 t 5 5 , 5 t 5 5 y a . q u t 2 2 y y y d d 8  XuXqXwXwXwXwXwXwX&XV C  .C 9.G V P w c @.j 4 : 4 : y 4 u Z.&.b % . . . % e.b.g i y q 3 q q g Q & C V V V V n c c 8 G.K.F.m.N.m.m.N.J.N.& M T 0 H !.$X_.=X8X(., VXvXBXBXBXbXwXwXnXnXBXK.(.L.cXxXzXkX",
"3X&Xp V i ..j 5 t 5 5 9 4 1 4 < 6 u U   u y y 3 y d y d a d 8 uXqXqX1X1X1XqXwXaX{ C  .9.J G q. .C c E j 5 3 : : 4 4 y N {.Z @...` * @.).M a y q q q q y U D 7 c n V V n r w w n T.J.N.N.N.N.D.J.P.9 V c c g.$X(.I.(.).J.e MXCXmXbXbXxX.X0 8 b.bX| wXxXi.&XwX2XoX",
"w.t.q.v 0 ; s j a a t 9 1 - 4 5 a s k Z @ 4 2 2 : y u t a d t Z.aXwXqXwXwXwXaXaX}.c V V v F P L V m c R u 4 ; 2 : 4 u i zXe W Y ..7 Z uXe p y q q 3 t p W i 0 c P i C m C c 0 A.I.J.N.N.N.N.N.J.>.G / ..H % W P.(.I.D S P wXBXCXBXxXh.9.x 0 0 9 0XfXV.Y # F 0.y.",
"c.S.D.P.!.g.w . s Y 5 t 1 ; 5 u s s y 8 a $ 2 : : 2 y 6 p u d 8 kXaXwXpXdXkXgXaXgXw V V 9.G G V G v 8 W u y : : 2 , y u I.N W Q ..c I P.Z y q q 3 q t Z ` x n C N m v C V 7 % `.J.N.b.N.N.D.H.J.r U R k Y J c e v.} l.yXCXO.bXBXnXl.BXxXcXNXwX0X-.N O.*.w Z.l.i.",
"s.f.f.s.s.f.f.f.v @ 5 a 9 1 4 5 u 5 8 u u i - : : 2 t y 6 q d u Z.dXpXpXaXdXdXaXdXi.w c N C P H V L v B Y 5 : 4 4 : y j V c./ W W Z A.i.Z a e 3 3 q p k E v F 9.P C n C P w w.Y.J.N.N.m.N.N.J.#.i d A u y d T } 0 N i.BXmXwXe.> 8XxXxXzXkXU.u.N &.' ' [ 5 f.a.v.",
"s.s.s.p.p.s.f.S.Z.8 8 a 5 5 5 i u i s u s y 7 < 3 4 6 y 2 3 y g 7 pXpXuXwXwXqXuXaX:X0 V L V V P F C L V T u 4 : 4 2 5 a 9 I.f T T Z $X7 T g t q 3 q p Q v M L I P L V I P w !.T.F.F.N.N.N.J.J.e g h g u 3 p g ( D C VXBXnXvXe.j.BXmXxXkXU.0 ..$.! ! l _ Y w.a.a.",
",.p.p.s.2.s.M.D.Y V Y w 1 a 5 5 t a u u 5 u t $ y u 6 u 3 6 t g q ~.uXwXwXuXpXaXaXgXw C F V 9.P D V V 0 ` t 3 : : 4 y s a & M W Q D dX0 ..Y g p p p Z ..w P H P G P V V v c `.K.J.N.N.N.N.J.>.S T Z f 2 3 q d f 9 tXxXBXBXBXgXi.BXBXnXW.N @.! ! l l l Y _ S a.,.",
",.s.s.s.s.p.f.<.9 j s 5 7 - s < w 5 u u a s s 8 p u y u 2 2 y g a D uXwX1XuXaXaXsXgXi.V F v L D V G F n Q u t 2 : : 4 a B 7 n @.( G |.c t a ( Q T T ( ..V F P G B H G F v w.`.H.B.N.H.N.F.J.N / A d 6 2 q y t u { zXzXzXxXmXnXD bXbX2Xi [ _ ! _ j l l l _ r s.a.",
",.s.p.s.s.d.M.r a s 5 i 5 8 9 s t 5 j j 5 < s a , k u u 6 3 y d u 9 *X:X:XaXwX1X1XwX}.r C C H v 9.V C G D j 4 4 2 : 2 u Y 0  .a &.d.L.C V c 8 % - , Y r C q.P V F V H F V S.T.D.F.F.N.J.J.J.c T h y 3 3 4 3 y t 0XwXgXwXiXzXxX~.NXkXN @.[ Y l l l l j _ ' i z.a.",
"p.s.f.f.s.a.` c Y j s s 9 N x s s E B i B B i r * A g d t 3 y y u p C.1X1XpXuX1X1XwXaXc c m F H m C C w i j t : 4 4 : y j 0 &.Q.Q.!.i.9.I F 7 8 0 7 0 x C V q.G V G V N c $XT.J.J.N.D.J.I.>.e u 3 2 y q 4 p g I xXgXwXwXgXzXhXl.wX{ *.-.! l ! l l j l l _ a u.s.",
"A ) s.f.c.b.B V ! ! ` Y i ! s 0 Y s 0 c ! j j Y a i g g t 6 y d a T J wXpXaXaXuXqX1XwXn i 0 x n J g.Q.f.0 k y 4 4 : t u j < c.0XaX$Xx 5.$._ *.} O.o.V V C P P N V V L F v P.].T.K.J.J.Y.T.U T a f y 2 6 a Y 5 9XBXxXxXvXzXgXE.c D n s ! Y ! l l l Y R _ ' Y p g ",
"_.f * q @.i E b N 0 9 c @.! r r Q c N %.r Y 5 a d & T k g u d g Y Q 0 iXdXaXiXwX1X&X:Xu.C C.P.P.x.z.7.x.e a 4 : : : 4 4 y e J.{.~.jXN Y Y j k Y Y @.%.c C P G N L P I S n 0 < a ' b.T.].Y.w g p y : ; y a a i cXxXBXBXBXgX{ G c e.8Xi.@ Y _ l l l l l j X L Q._.",
"zXD.J.&.J 8 ` V F V i.c ` i | ! b B N @.E j u 5 d 8 Y T R k j 5 - - & pXdXpXwXwX1X:XuXZ./ 6.6.5.>.;.;.;.k 6 2 : 1 4 : 4 y t J.A.H.aXi j j u u y a R Q c C V L C G V  .V n h.F * # @ $ < e i f 3 2 : 3 q y d g.C.zXmXxXvXi.F h.Z.=X(.D.G.i 4 l R _ _ 4 w.MXxXkXkX",
"xXO.v.m.D.f.# S H C E $.9 0 Q ! N *.0 Q Y B u 4 u t # 4 O   . & n y.w ).dXuXwX1X1XwXuX XW ;.>.;.>.' ' ;.h 3 2 2 4 ; 2 : 4 9 v.d.c.-Xt u s j j j u l T v G G G P J F c c A.@X-XC.=X/.J 7 7 J d 3 3 2 2 2 f g !.c.zXxXBXoXC i.ZXy.OX(.*XOX=X!.- R ! 1 9XNXzXzXzXzX",
"xXf.<.s.z.N.D.v F V 0 #.@.B u a p < V Y u < s u y s 0 L y.^._.$X$X|.L.c.dXuX:X,X:XqXiXdXA 7.;.4.;.' ;.' ' , y 4 3 ; : : 3 y *.h.d.L.a 5 5 j j u Y R W b F C C 9.G 9.C r ,X+X[.@. X@Xl.7 M W g d f d : y T E D [.}.&X| H  .y.e.Q.).OX).(.Y.OX=XZ 1 9XcXkXxXxXzXzX",
";X<.a.s.z.J.T. .c C N . Y N U s Y # B s 5 < < s s ! w =X%X).).~.(.).{. .pX1X,X:X:XwXdXuXf 7.;.] ' z z ;.[ > y : 3 : ; : 3 s *.r.A.~.k 5 6 1 4 6 u R W G I P G G F V F n -XT.2.. H.+XJ.% J T f u 6 q y f Y i t.q.V V *.v C F | !.OXY.|.|.OXD.T.].e.kXdXdXkXxXzXzX",
"OXF.s.s.z.N.Y.b.S n v v e u O . @ & Y a 1 1 < 4 a ( n %X|.).!.P.I.~.{.P wX:X-X1XwXaXaXpXf >.>.] _ ;.] ;.>.e u 6 4 : : : y U p.u.h.L.Y u 5 5 5 4 s ! O.C G 9.0.V S P V x p.f.(.].9 x.( & e T a 3 2 6 u f T M qX:XuXpX0X/.Q.w.H $XL.|.D.D.(.(.*XQ MXxXgXdXdXgXzXzX",
"Y.F.m.m.F.N.D.M.c F C L H  .p.f.v.w j 5 3 : 4 < 3 Y 9 *X{.~.I.H.!.{.}.S ,X%X-XqXwXdXaXkXe 2.;.' ' ;.' 3.>., u y : : 2 4 u W i.u.A.c.` j y u 4 5 s @.}  .I  . .{ H F V x +X[.T.T.K.r.=X=X* ( T t 2 q y y p  .;X;X;X>X1X1X1X5XF H.G.Y.).|.OX(.].I xXxXgXdXgXgXgXgX",
",.D.F.F.F.N.P.d.&.h.G.z.a.&.<.&.*.p p t 1 < 4 a # > % }.(.P.P.P.~.~.~.B ,X-X:XwXpXsXdXkXf >.;.' >.' ] ;.5.9 j y 3 y y a k ` i.A.Q.C.$.Y s s u u R @.O.C y.9. .{ S H e b +X+XR.].A E.R.].% ( A y q y 3 y a w.:X;X>X5X>X;X#X#XI b.D.J.(.s.(.I.b.v p.l.[.gXgXzXxXgX",
"9 w F.F.M.Y.} Y.+.r.1.&.X.#.X.a.u.p t 4 3 1 y Y > 0 & |.I.L.!.L.L.L.~.{ :X:XqXwXpXsXdXdXA 4.;.' ;.;.;.>.7.x j u y u s g ` $.i.C.!.L.l.@.R l j j l @.| C P J V P J K n C @XE.].R.o.].R.].* ^ h 2 2 , 3 6 y r.>X>X>X>X;X@X-X#XJ P.(.P.D.z.b.b.z.J m.z.s.a.W n.}.3X"
};
