/* XPM */
static char *result[] = {
/* columns rows colors chars-per-pixel */
"128 128 198 2 ",
"   c #22820F400000",
".  c #25D712C70012",
"X  c #2A4615DA0089",
"o  c #2D091AAD0409",
"O  c #26A016AE0847",
"+  c #281D178B0851",
"@  c #272217DB09A9",
"#  c #2D091BEF0B60",
"$  c #33321BF50205",
"%  c #3A821E9F00E0",
"&  c #321A1E230B71",
"*  c #39AC1EDA0C49",
"=  c #2E171E80104D",
"-  c #30A61F5F1033",
";  c #2F171FEB0E97",
":  c #35681FC20630",
">  c #3BDA2202031E",
",  c #337E21400D0E",
"<  c #3BC723BD0CBB",
"1  c #3E40282F0D51",
"2  c #2F7C210E1143",
"3  c #34BE23D31249",
"4  c #3B73258A1298",
"5  c #3D702945151F",
"6  c #35CF277A17BF",
"7  c #36F5288C1879",
"8  c #3C6A2B741A17",
"9  c #3F8C2FD11DCA",
"0  c #41DD2545002A",
"q  c #46092A08033A",
"w  c #497E2BAE03EF",
"e  c #411226900DC9",
"r  c #43792A130C17",
"t  c #49972E130BFE",
"y  c #4B8D302B0E81",
"u  c #4135269E1210",
"i  c #43C92B1B1455",
"p  c #49D72D6514FC",
"a  c #43242DC719FC",
"s  c #49892EE31916",
"d  c #4FEB2F161717",
"f  c #45E630301717",
"g  c #4C963179147A",
"h  c #457A31261C34",
"j  c #4BD133511BF1",
"k  c #4F39385E1E9A",
"l  c #52E734241552",
"z  c #59AA35E516D0",
"x  c #566D386316DB",
"c  c #5C763AB91682",
"v  c #528D35631BF6",
"b  c #59BD37081AC4",
"n  c #54CD395F1CBF",
"m  c #5B5C3B2D1C38",
"M  c #60E93E5216E1",
"N  c #60AF3DD21E5F",
"B  c #43C833252108",
"V  c #4B9D35B720CD",
"C  c #4E463948232D",
"Z  c #51D9376C20C0",
"A  c #54543B4E230B",
"S  c #5AF83E072390",
"D  c #541A3E8128A5",
"F  c #61BF3E172110",
"G  c #5DAA3FE01DA4",
"H  c #653240E51755",
"J  c #64C842481D38",
"K  c #691346371E1B",
"L  c #573B405F2663",
"P  c #5D0E4115255C",
"I  c #565F41662B3F",
"U  c #5BFF435F2AFD",
"Y  c #5FCD48132F45",
"T  c #5BD946B53100",
"R  c #5DFD4939338C",
"E  c #63B443D9248A",
"W  c #6A5B46A92496",
"Q  c #665848452741",
"!  c #6C2949DE25E6",
"~  c #62E546052A6E",
"^  c #69F74656294F",
"/  c #653F49602D73",
"(  c #6B614BC32C85",
")  c #70F74D5D25E8",
"_  c #71ED4D8C2ACC",
"`  c #78DD4F5E2B53",
"'  c #6F3750632F5A",
"]  c #73ED51D42D3A",
"[  c #7A4D550129C0",
"{  c #7A6F552F2D61",
"}  c #64064BD73305",
"|  c #6B0D4E0E31B5",
" . c #636D4E0F3859",
".. c #70AA4F61308A",
"X. c #66C450B436D0",
"o. c #6D3951A73527",
"O. c #663B51303ACC",
"+. c #6B22544D3B87",
"@. c #734953DC3401",
"#. c #79A256C03301",
"$. c #7ACC598F355A",
"%. c #72B4566039E8",
"&. c #78E857B538AA",
"*. c #75A559FD3CD1",
"=. c #7C075C5A3B97",
"-. c #7F9462743EBE",
";. c #6B55564C4037",
":. c #6EC759394197",
">. c #73F75C9A43B1",
",. c #7A8B5E8C4202",
"<. c #73835E304888",
"1. c #759D605346DC",
"2. c #7DA461F24359",
"3. c #758061854AE7",
"4. c #7CFA64BC4B35",
"5. c #7C4C671D5158",
"6. c #7E1C695A538A",
"7. c #82115C9C334E",
"8. c #81455F3A3C09",
"9. c #8A2F61C635D0",
"0. c #816062AA3EAF",
"q. c #89F064EA3BB5",
"w. c #82CF65AD4245",
"e. c #88FC65DE4382",
"r. c #864E6972460A",
"t. c #8A6B6AD84681",
"y. c #824166274A17",
"u. c #86B16A9F49EB",
"i. c #8A7B6DAC4A5A",
"p. c #91C76D48453D",
"a. c #91436EBE49D6",
"s. c #8E2571794E1D",
"d. c #980A7239463B",
"f. c #954172A04CE9",
"g. c #9A5475D64D80",
"h. c #9D0B78644F76",
"j. c #845D6C2A5299",
"k. c #8A766DCE517A",
"l. c #87D2710F5550",
"z. c #8EE27309517B",
"x. c #864571C75CC0",
"c. c #8B7474095BDC",
"v. c #925E75B95263",
"b. c #963679A55629",
"n. c #9AEB7B155670",
"m. c #9240760D5A72",
"M. c #96F57B2D590D",
"N. c #9A5A7DD15A4A",
"B. c #A13D7DC755D7",
"V. c #A0657E665A96",
"C. c #8C8F76B760E9",
"Z. c #95F77C506210",
"A. c #9A657E5A628A",
"S. c #909E7DCD6897",
"D. c #9E2E81AE5E03",
"F. c #A06B838F5F70",
"G. c #ABE4878F5D9B",
"H. c #9EB5831E61B7",
"J. c #97B283AC69E3",
"K. c #9D2C84F16B19",
"L. c #9CEC89C772DE",
"P. c #9DC08E4D787C",
"I. c #9FD991127DD0",
"U. c #A26E85EA6228",
"Y. c #A65989D865E1",
"T. c #A8818BE26799",
"R. c #A27786E36B0F",
"E. c #A67B8B076AD9",
"W. c #AA7C8DF269D8",
"Q. c #ADC991486CFE",
"!. c #B0F0943F6F62",
"~. c #A4C98CA2734D",
"^. c #AB218E5F717E",
"/. c #AD5F92D77430",
"(. c #A6BE945C7C0E",
"). c #AD949497795A",
"_. c #AF0F989D7D96",
"`. c #B2A296077196",
"'. c #B66F99B27434",
"]. c #B9759C9976AB",
"[. c #B26D97747A99",
"{. c #B4D29B1C7DEF",
"}. c #BB909EAF78CA",
"|. c #BE98A1AD7B46",
" X c #C2C4A59C7E7C",
".X c #ADAE9AFC81CB",
"XX c #B3AD9E7683A8",
"oX c #BBADA1F783B0",
"OX c #B8E5A4EB8A1C",
"+X c #BD28A97390C9",
"@X c #C4C8A7958064",
"#X c #C6AAA95B81C7",
"$X c #CAB3AD3F852E",
"%X c #C3EFAC988E9D",
"&X c #CDDBB05187F7",
"*X c #CFA4B2108995",
"=X c #D21CB4C58C5B",
"-X c #C811B43595E3",
/* pixels */
"5 D U D j g 0 t w q f h j f f j h 5 5 f h V j I f I f f a h j 0 h U I j C j j g r r 0 q q 0 0 > n 0 > n n g v x % n n q > I j I h C r U m D > w > m > j n > 0 0 l g > > t n m 0 g v v v A D a V 9 h r 0 r % l n G g q q w x 0 q n > 0 0 % % 0 l g n v g y I V > ",
"I Y.o.0.=.] ] A Q i.z.=.i P p o.%.*.-.n U t.o.x G +.} E %.Z.A ; B R.J.>.4.4.,.y.4.y.5.u.j.4.1.4.,.4.4.y.y.j.y.j.M.N.A.R.R.[.A g I K.N.i.R.w.! h.$.@.E } -.w.y.=.&.n.w.r.e.v.,.v.y.4.c.N.W.oXP q R ].m.A.U.y.1.g.s.$.r.4.K.oXE.r.) 7.] &.7.m Q f.=.f.@.U b.H.D . ",
"C >.o.m j.+XU.Y.F.T.'.L ] c ! b #.Q #.{ ! ! S A m ! ) %.@.o.f o R } 2.=.$.#.7.{ #.d.] 8.! { ] ] ! t.] ) d.G q.i.9.p.v.&.B.n.n , R *.+.=XD.F./.t.( X z n O.N.A.z P @.%.j { E E _ q.7.$.f.G.| V o C n.B.e.g.` c ^ j L l.D.v.s.D.v.H.N.m.U.U.N.} ).Q E W @.n.*., X ",
"V +.Y R.Y.U.s.n.b.D.b.v.b.U.*.i.! ! g 0.{ b W e.) $.u.H.( / a o B Y A W.Y.=.=.0.) ] W c ( v z $.H *.@.y.c.Z.K.W.,.e.F.m.#.e.4 & I A Y ,.'.i.[.v.A v.].%.i.v.s.[.M.K.H.Z.u.l.v.m.N.v.H.{.o.@.a . 8 X.D '.W.A.A.N.4.H.D.D.s.r.b.s.s.N.v.Q.t.i.b.i.Q.Y.T.~.W.~ 5 , ",
"i X.n Q.H.Y.i.b.s.s.Q.s.s.r.D.D.R.R.K.~.A.m.Z.A.J.R.[.@.Q A 4 ; 5 s.U } J.z.N.m.M.H.'.}.'.b.Q.}.Y.].s.v.b.b.N.U.Q.`.'.,.q.&.h 4 - 4 e g o E i.u.r.`.r.Q.s.z.i.Q.s.b.D.H.j D.D.T.T.W.@Xm.z P h , k *.n Q.}.v.v.v.D.Q.s.b.D.v.D.F.N.w.i.Q.W.Y.w.Y./.Y.i.1.l ~ < , ",
"a %.C Y.D.N.v.z.v.v.r.r.s.s.s.D.t.W.N.W.v.U.b.N.b.D.'.o.n ( 5 o 5 *.i  .b.N.i.N.N.Q.v.M.M.D.s.r.Y.r.s.Q.F.b.D.v.N.z.i.w.b 0.8 3 D D h s.o.v.w.o.E.W.r.r.i.z.s.i.M.N.D.b.Q L f i.F./.f.o.7.=.h 4 , ] 6 6.`.v.i.y.!.D.v.-.D.D.Y.s.b.i.Q.Y.w.N.w.s.w.v.f.v.S 8.i # ",
"a / T Y.U.D.D.s.v.v.s.b.r.D.i.D.N.D.W.T.v.N.v.v.i.v.D.~ A Q 3 o 3 o.4  .b.i.M.N.v.b.b.s.s.z.Q.v.U.b.i.Q.i.s.F.b.e.M.v.*._ w.h , & *.} s.i.W.M.I Q.Q.2.-.-.w.i.Y.v.W.M.s.b.U.w.r.@.E $ ,._ 0.5 , B w.a s.u.r.s.i.Q.W.w.Y.v.b.v.D.N.U.Y.T.w.W.w.-.N.M.v.r.b &.h , ",
"8 o.O.Y.D.D.v.s.i.i.s.0.i.r.v.T.v.M.T.U.u.Y.U.T.s.t.v.E f P 5 3 < } j X.b.N.b.v.w.Q.i.i.s.s.W.U.b.H.s.D.v.Y.N.U.v.W.N.v.p @., . a / h i.W.H.Q.8 Q.r.Q.Y.N.Y.i.i.b.D.w.N.H.w.Q.i.t.D.M.U # @.8 , 2 o.5 m.i.f.b.M.w.Q.-.D.s.D.D.w.s.U.b.w.U.N.Y.Q.F.Q.D.b.p *.a o ",
"6 } I U.Y.i.b.T.v.W.r.U.s.s.v.b.D.D.D.Y.M.s.Q.U.W.T.i.~ l =.8 4 3 } f +.v.b.D.v.s.s.b.F.s.s.s.r.D.D.z.v.-.v.D.D.U.b.D.i.l @.4 X 5 w.K.Q.U.D.b.a r.M.u.N.F.v.N.v.U.b.f.s.D.z.T.T.w.u.t./ n f.: o 3 ~ 5 <.z.T.z.r.s.b.w.r.w.D.0.D.r.Q.s.Q.D.b.T.0.D.D.W.s.m @.j o ",
"3 e.A Y.s.b.D.Q.U.z.Q.Q.i.r.v.F.r.D.F.D.v.b.U.M.U./.N./ s ( Z . 3 / i  .v.b.N.b.v.W.D.v.s.s.r.w.v.e.s.w.f.v.b.D.D.D.W.j.p @.6 X h U ].b.s.Q.i.a v.D.Y.U.U.v.M.n.v.r.D.D.r.z.w.w.u.w.N.%.E @.7 , 8 o.7 %.T.D.b.Q.-.r.Q.b.D.b.Y.H.W.2.i.z.n.D.s.D.N.D.U.U.@.=.8 , ",
"8 o.Y s.v.s.Q.H.s.-.s.b.s.F.s.w.Y.T.D.D.D.r.H.f.t.r.Q./ S A u X 3 o.h j.b.D.b.s.D.s.v.s.b.s.w.s.n.i.w.r.i.D.v.D.D.b.Q.Y.E P h o B a |.Q.Q.i.N.*.D.s.D.D.b.b.D.N.b.r.s.Q.r.r.w.w.i.s.v.| E 0.8 $ 8 / 4 1.D.w.v.v.r.T.b.w.Y.D.T.T.W.s.r.u.w.D.F.N.N.D.b.'.E E 5 o ",
"h / H.i.T.s.s.s.s.r.s.w.r.D.2.D.Y.Y.U.b.D.w.r.t.Q.H.i.@.p ( V 3 4 P E I M.w.i.r.w.i.v.b.b.v.s.v.i.s.-.T.Q.v.F.D.b.Q.s.Y.c ( 7 . j o.|.U.Y.i.s.i.3 s.Y.Y.U.T.D.b.M.i.n.w.U.s.Q.-.w.u.s.| N $.5 $ 3 2., +.D.s.r.D.w.-.s.v.r.s.T.U.F.s.s.z.D.T.D.Y.U.Q.N.y.l 0.4 , ",
"8 @.K.N.M.b.s.s.s.b.Q.Y.f.b.b.T.U.U.D.U.i.D.v.s.N.Y.i./ u =.& 4 h n } r.r.Q.w.w.r.v.b.v.v.s.i.s.w.s.Q.-.s.Y.b.b.Y.w.W.D.x ( 4 o a A Q.b.T.N.s.r.n.i.E.D.Y.w.T.D.-.v.W.w.Y.w.U.Q.W.i.s.,.b =.3 o 8 $.a l.Q.r.s.s.0.w.r.Q.b.v.b.w.W.W.s.U.T.D.F.U.N.Y.U.W.@.( a o ",
"O.P U.N.b.b.f.v.s.v.i.r.r.D.b.b.b.F.N.N.Q.v.b.D.W.H.`.%.! 8.5 # 5 #.i X.D.s.Q.W.s.r.E s.s.v.s.s.b.r.s.w.D.b.s.s.s.Q.D.Y.c E a 3 4 E U N.H.s.r.s.s.8 U.b.Q.b.W.U.w.v.i.s.w.Q.E.W.T.Q.`.~ m 0.7 o 5 0.j R z.D.s.s.0.-.b.-.0.D.r.-.w.v.v.b.D.Y.r.U.Y.H.U.Y.~ @.h , ",
"y.n D.D.v.v.s.i.b.r.i.v.r.r.T.v.D.D.n.H.b.b.N.N.Y.U.D.v.l @.e , h U h 2.r.r.f D.s.s.i.b.b.b.D.w.w.s.b.v.D.D.s.Q.W.Q.s.s.i 0.a o A / 6.M.D.i.i.v.s.i.Q.s.s.Q.s.W.w.w.U.U.N.r.s.Y.w.r.N.| ( =.5 o 5 e.5 z.s.b.v.b.Q.s.w.T.-.w.Q.w.F.b.s.i.D.i.W.N.b.D.Y.U.Q.@.5 & ",
";.u U Y.r.s.z.v.s.s.r.i.s.s.D.b.U.D.b.b.H.U.T.W.v.W.Q.*.E 0.i 3 7 X.u.-.5 i.b.v.v.i.b.v.b.v.k Q.M.r.s.s.-.U.v.0.T.Q.b.Q.! f.4 o A L O.H.b.v.W.r.M.Y.Q o.E.r.n.r.U.T.i.w.0.0.M.U.w.i.N.| ! ( h ; a / p s.s.M.v.s.T.r.r.Q.-.Q.r.v.b.w.i.s.2.v.n.N.N.M.U.U.Q.R.P , ",
"j.G 3.T.0.s.v.r.v.0.0.i.D.b.b.W.T.s.f.s.v.r.s.s.r.r.s.o.i $.8 : f / f R i.u.b.D.b.r.D.v.v.s.v.D.r.w.w.-.i.W.W.W.T.E.U.M.@.@.h # V C A D.Y.D.r.M.D.r.b.z.E.W.r.r.r.T.0.T.W.D.D.v.u.b.N.~ S =.8 $ 7 *.t j.D.D.i.i.i.v.b.i.D.0.r.b.s.F.s.D.s.v.i.b.D.D.D.D.D.o.@.: ",
"} Q.O.s.D.D.b.s.r.b.s.s.D.b.D.F.D.D.H.W.-.r.-.b.r.Q.z.b.j ] h 3 T @.} H.H.H.0.i.v.v.s.i.i.s.b.2.D.i.s.s.W.U.i.b.z.N.Y.v.! @.5 $ h i.E H.z.z.v.v.i.s.i.G Q.H.D.T.D.r.r.Q.Y.s.W.i.v.T.U.%.~ d.5 # i / L D.T.b.s.s.r.r.s.i.s.v.s.r.i.s.-.i.v.r.F.D.v.v.-.D.Y.'.P , ",
"Y i 4.i.s.v.-.s.F.b.0.s.D.D.D.D.s.b.s.r.T.Y.D.r.r.Q.r.U.! e.3 . 5 L g K.!.2.r.D.b.s.D.s.v.o.v.i.w.b.w.W.e.i.i.U.U.v.U.M.! p.3 , Y %.C E.s.D.z.b.r.r.D.Y.D.-.v.-.r.2.r.D.i.i.r.-.N.v.z.*.b =.j X 7 =.f c.s.D.s.s.r.w.s.w.v.r.D.v.D.D.v.s.v.v.s.D.D.v.D.v.M.N.( , ",
"h 1 6.T.r.i.r.T.v.D.D.D.D.D.D.T.U.U.D.U.T.Y.T.s.r.Q.T.v.P @.8 X T | r.m.H.i.r.Q.v.v.i.s.s.n s.r.s.s.b.b.b.D.i.b.i.U.w.,.n t.h # a q.< s.v.i.s.i.r.r.W.v.b.i.W.D.i.r.Q.-.-.D.D.W.t.s.u.M.m 0.h X 3 %.k H.v.D.s.v.s.D.T.D.D.s.v.s.i.r.r.-.b.D.-.D.b.D.D.D.U.N.' ; ",
"A r I D.D.Y.b.b.s.v.s.D.F.F.Y.W.U.U.F.F.D.T.T.W.Q.U.H.'.Q @.a , } L a +.D.U.b.Q.r.v.r.v.T.v.D.D.i.D.s.s.s.b.s.W.v.i.V.,.A $.a o 5 @.7 v.v.v.v.v.v.s.0.s.0.D.W.r.b.r.s.-.v.D.v.v.i.D.v.z.m @., o , *.| 2.D.D.s.v.r.D.D.Y.v.r.s.0.D.s.0.r.b.Y.Y.D.i.b.b.H.b.u.~ 3 ",
"Y 0.k i.D.D.v.D.0.D.D.-.b.D.D.D.U.b.D.D.U.Q.b.i.Y.s.Q.!.{ o.& o f U i %.r.Q.i.r.i.s.r.b.b.b.s.b.N.D.s.s.s.N.N.b.M.N.U.,.i q.a o h w.f l.M.M.s.s.s.i.D.D.D.0.T.v.s.D.i.D.D.v.D.D.M.b.i.z.p ' 4 4 ; 2.A Q.D.D.0.v.w.D.D.D.D.b.w.r.v.s.r.s.Y.D.b.D.b.N.N.D.Q.P P . ",
"j 9.+.N.D.D.v.F.Y.F.D.D.D.b.Y.D.D.D.b.D.U.T.U.D.Y.N.s.b.A Q 5 # 5 ( 3 m.D.Q.b.s.r.i.r.s.L s.2.b.b.b.s.r.U.N.i.v.D.N.A.,.S Q 4 o V e./ D.b.D.s.s.s.-.F.W.s.W.D.F.v.v.Y.Y.D.D.-.b.U.z.U.u.W E 3 o 5 | T D.b.v.b.D.v.b.b.s.D.D.v.D.0.v.b.W.b.b.D.D.U.N.N.D.U.n < 3 ",
"D t.5 s.b.D.i.s.r.T.s.D.D.D.D.D.T.D.D.U.Y.T.D.U.D.D.s.Q.%.@.j , 5 n.f %.N.b.v.r.r.s.s.i.9 v.D.r.v.v.n.i.M.D.v.v.b.D.f.*.m =.a # D k / M.U.0.s.b.b.T.r.D.Y.F.b.Q.T.s.i.s.i.s.v.i.W.w.M.i.J o.V 3 C +.L D.b.s.v.b.D.D.v.-.D.D.r.r.s.v.i.i.b.r.D.D.N.b.U.Q.].] a o ",
"h w.s N.b.M.b.N.b.0.T.Y.D.D.D.D.D.D.U.H.D.H.Q.w.Y.Q.r.w.i.@.V & j / 5 *.s.z.s.s.s.v.v.s.D.v.r.s.r.v.v.v.v.b.v.D.D.D.D.} p @.j & C @.S.H.Y.W.i.s.w.D.v.b.Y.F.s.r.D.r.-.v.0.D.-.i.v.v.W.v.( 8.h , a ' j.i./.Q.i.D.n.M.D.D.N.-.r.b.b.v.v.F.b.F.N.N.Y.N.D.b.|.j p & ",
"I *.A m.D.U.b.v.v.0.Y.D.Y.D.b.D.v.D.D.D.z.H.U.D.r.w.w.b.~ a.8 , ; I s +./.M.s.i.v.s.s.s.r.Y.D.D.v.b.Y.v.n.s.b.-.N.D.U.%.N | a # C | <.H.D.Q.H.v.H.b.-.-.b.D.s.s.T.D.i.i.s.s.Y.D.i.s.v.s.S e.h 3 a w.j.i.Y.T.T.D.D.D.D.b.s.b.v.b.N.v.N.b.U.F.U.F.b.N.U.D.v.j p , ",
"C a.s R.W.F.r.w.T.F.s.Y.b.D.b.D.D.D.n.v.W.D.U.D.U.w.Y.u.U.a.5 # a a v 5.i.N.z.s.D.r.b.L s.b.v.v.b.T.U.D.s.s.D.s.s.D.N.v.p &.s o f *.L H.b.T.D.b.D.W.D.s.D.s.v.Q.-.i.i.v.F.D.D.D.s.s.s.r.m n 8 , C  .U.M.w.Q.D.v.N.b.z.N.b.D.b.D.F.b.b.v.T.U.Y.U.D.U.U.Y.D.E A o ",
"& @.V u.U.D.b.i.Y.b.v.D.b.D.v.D.b.D.D.U.U.U.D.D.i.b.r.v.U.b.j o a i.k K.A u.z.s.v.r.s.U s.v.b.v.v.v.-.T.b.s.b.s.M.N.U.N.m | a o f / g M.Y.U.U.T.b.D.D.Y.W.D.0.0.s.D.Y.D.v.D.v.D.i.r.i.2.l e., ; C w.I `.r.U.w.s.s.D.b.r.b.D.n.D.F.N.N.U.U.N.b.v.b.b.Y.Y.v.E S & ",
"i w.h H.N.D.v.v.D.D.b.D.v.s.D.D.b.F.D.T.n.D.U.T.U.H.u.i.'.F s , L h P 1.s.L z.v.i.w.s.T s.r.D.v.F.i.i.r.b.D.b.s.Y.v.U.F.! =.8 o 3 o.A j.D.D.D.D.b.-.W.i.s.r.i.v.D.W.D.s.r.s.D.0.D.-.r.-.1 j a . R k :.E.s.w.w.w.i.i.b.b.D.v.N.N.N.F.D.U.M.F.b.b.i.U.T.W.U @.a , ",
"= o.j m.N.b.U.U.D.b.s.b.v.s.U.D.U.i.D.s.b.D.D.U.F.Y.U.Q./ ~ j # h L h +.i.v.C b.U.s.s.s.Y.r.Q.r.Q.U.D.b.D.v.-.r.r.v.s.N.2.@.5 o 6 o.X.f.U.Q.T.Y.Q.0.v.i.v.s.D.D.T.D.D.D.D.Y.s.v.D.D.s.b.! T n . A f.5.Y.H.r.Q.i.0.s.n.D.b.b.U.b.N.N.N.n.M.N.N.N.N.M.N.M.~ 8.a 3 ",
"3 / o.N.N.N.v.N.v.b.v.b.D.v.s.s.T.s.0.Q.r.Q.T.Y.W.T.H.k.v E V 3 f f 5.b.z.s.D./ r.s.s.D.s.v.0.v.F.D.D.v.D.F.b.s.i.i.M.v.m.E 5 o h U v *.T.Y.v.s.w.b.v.b.v.v.i.v.s.v.D.D.Y.F.b.v.D.i.v.; , X X , B E :.M.i.w.s.Q.s.s.v.v.n.v.b.D.D.Y.F.N.N.b.F.M.M.Y.U.H.l %.a o ",
"3 / I U.i.s.M.N.b.D.F.D.D.D.D.T.U.T.U.Q.w.Q.Y.U.-.T.T.Y.` &.4 , 9 ! 1.`.b.f.D.M.h U.r.v.D.b.F.D.D.r.D.v.b.v.v.s.N.i.Q.U.o.=.h o A w.Y T.Y.Y.T.b.D.v.D.b.v.-.v.v.D.D.v.v.D.s.D.D.D.v.D.v.|.X.5 & 2.f.I s.N.r.0.i.W.r.b.v.b.v.N.t.D.v.N.U.U.F.b.N.N.U.A.M.z @.a o ",
"a o.D M.v.D.z.v.b.N.U.r.W.D.Q.-.U.D.b.Q.-.Q.r.i.D.b.T.D.8.@.j 3 a q.!.F.N.s.z.b.u.V U b.i.i.D.F.Y.v.b.v.v.b.s.W.s.D.s.D.D =.a & V L I M.T.W.F.b.D.D.D.v.v.W.v.v.w.s.N.N.N.n.b.F.M.V.M.!.k.S S o h x.i.v.t.s.i.v.Q.r.D.v.v.G.b.D.b.D.D.D.D.D.D.D.D.D.D.F.-.@.a o ",
"6 } ~ M.N.v.b.b.b.D.b.Y.D.F.0.i.U.r.s.0.i.i.r.Q.W.T.T.Y.~ =.j X V v. .W.i.s.b.i.s.E v.v.i.w.D.v.T.Y.T.r.r.b.s.-.s.s.Q.2.l ( a & L *.I b.T.T.b.r.F.b.T.b.v.i.s.b.D.v.i.U.D.v.w.b.N.W.M.b.U =.3 . h < v.v.z.z.i.D.i.i.v.s.D.D.b.s.D.b.D.D.D.r.b.v.v.D.D.Q.s.-.5 o ",
"5 +.V m.D.b.s.b.b.N.D.F.N.b.r.T.Q.D.0.r.s.-.w.T.Y.T.W.H.+.f.i o h j D.v.r.r.b.b.v.v.b.v.s.0.b.b.T.r.Q.-.i.r.-.Q.w.W.i.D.g ( j , C f.1.D.T.r.s.r.W.F.F.Y.D.r.b.v.Y.D.i.i.b.s.v.b.v.i.N.F.n @.< . C I ].i.z.i.b.v.s.b.r.D.v.b.b.D.D.D.D.T.s.D.b.b.D.D.Y.D.~ @.a o ",
"C =.c b.D.s.v.N.r.D.Y.D.D.v.r.w.s.b.-.s.i.-.i.D.U.Y.Y.Q.*.E a ; a ! k.i.r.N.b.s.s.s.z.s.s.r.s.D.s.r.0.r.v.s.W.T.r.Q.Q.j.m X.u 3 A X.L `.Q.D.b.W.r.i.Y.v.W.T.Y.F.U.r.U.U.Y.N.b.T.F.N.U.W.@.f.k 3 , / }.v.D.t.v.N.v.i.D.D.D.b.D.D.D.D.T.Y.v.b.v.v.F.T.D.D.Q i.h o ",
"j j g N.H.N.i.r.s.v.-.D.v.s.D.F.W.-.-.r.w.T.Y.v.v.Y.Q.W.|.E f 3 o.j.Q.U.s.v.b.Q.s.f.s.s.s.v.s.v.s.D.w.w.r.w.b.w.Y.T.w.o.W @.4 o k i.v s.Q.U.r.-.W.0.0.Y.Y.Q.i.D.U.T.U.U.r.D.Y.v.W.Y.Y.`.^.0.* , a A v.s.v.v.v.i.s.D.i.b.b.v.i.v.i.b.D.Y.D.b.D.v.N.T.Y.>.P | a o ",
"a k a l.N.M.b.r.s.v.s.v.w.Y.T.0.s.0.T.D.D.v.w.r.U.U.D.Y.|.{ P ; R <.N.E.T.s.F.v.U.i.i.i.s.i.D.D.U.D.r.U.-.v.s.s.T.Y.Q.s.( -.5 . 5 e.n 4.T.s.s.r.b.W.Y.W.w.Y.D.v.D.Y.D.s.e.W.W.D.F.U.M.U. X@.V o j j.b.b.s.i.M.s.v.i.v.v.v.s.v.s.i.s.-.F.D.F.D.D.N.Y.Y.W.E ] 5 # ",
"C } A i.D.v.b.b.v.v.s.s.0.w.U.T.Q.U.s.v.s.s.Q.D.Q.D.Y.Q.'.A E : ( x.D.Y.D.M.v.b.D.v.r.s.r.r.r.i.w.Q.w.i.s.s.r.w.b.i.v.Q.2.] < o 7 U X.E.D.Y.b.Q.-.s.T.D.v.T.D.Y.U.U.D.v.N.N.Y.N.N.F.D.U.k.e.A . U i ].b.v.D.i.v.v.v.s.v.v.v.b.i.D.s.v.D.F.D.s.b.U.D.Y.W.=.g.5 o ",
"a o.f z.M.E.i.v.v.s.r.Q.r.s.U.v.D.v.r.D.s.0.U.U.Y.Y.-.Q.'.i.G o j D U.Q.i.r.D.v.b.s.Y.r.0.i.i.v.T.Q.-.0.-.s.s.0.r.w.r.D.|.! 5 . < G z.Q.D.r.T.-.s.D.-.r.U.F.W.D.Y.s.N.b.T.N.M.U.D.N.M.U.} ( h , h =.I v.N.v.b.v.v.v.s.v.b.v.v.v.b.D.D.b.T.b.D.v.D.Y.H.H.Q $.a 3 ",
"6 r.a D.b.D.b.v.v.v.s.v.D.D.D.D.r.U.r.s.r.i.T.U.U.U.M.U.r.u.( X V j C W.r.v.s.v.D.v.w.-.w.r.r.r.r.Q.W.w.w.r.s.s.N.i.i.U.s.P P X j M.~.Y.r.v.W.W.Q.D.U.s.Y.s.i.U.T.U.D.D.N.0.D.b.b.N.v.4.m p.Z 4 ; l I s.z.s.s.f.z.v.v.s.T.r.s.i.N.D.N.b.M.v.N.N.v.M.Y.Q.( 8.a o ",
"a n.A v.b.D.D.D.v.s.s.i.s.D.D.v.T.U.D.U.D.T.b.r.U.w.b.v.U.+.E X h G  .W.b.b.v.D.s.s.w.s.s.-.r.Y.w.r.0.i.-.r.s.D.t.-.H.D.v.,.| o Y S.Y.D.Y.W.r.W.U.Q.s.-.T.s.D.Y.T.D.N.D.F.Y.D.F.U.N.`.W.l @.a & I U I M.b.s.b.r.r.w.v.N.s.v.w.b.N.N.N.U.U.N.D.v.F.U.D.i.E =.a $ ",
"h i., M.D.H.D.v.D.b.f.v.v.-.D.i.D.D.D.D.s.s.i.0.e.i.z.N.N.2.l X C ( ( D.D.D.D.r.b.s.i.i.-.v.Y.r.i.w.T.0.r.Q.w.T.w.M.U.Y.Y.v.~ o h $XY.w.b.W.W.Y.0.s.s.s.-.w.D.Y.Y.D.D.U.s.D.U.D.Y.U.Y.M.F 8.V # h ] +.M.v.i.N.v.v.w.r.i.s.s.v.s.w.D.e.D.U.W.e.D.U.v.D.!.S =.V # ",
"a @.5 !.Y.D.b.s.s.F.i.v.v.-.Q.T.D.D.U.r.i.D.s.w.W.b.v.U.b.*.E o P f G i.s.v.v.i.-.s.w.r.0.D.r.0.r.s.r.D.-.Q.b.s.b.U.U.W.`.,.E X n #XY.D.W.Y.W.w.r.T.w.0.Y.T.T.Y.w.v.D.Y.T.w.D.Y.Y.Y.W.`.j a.h & U %.j H.b.U.i.T.s.s.s.w.s.s.v.s.s.Q.W.U.F.U.v.F.D.W.T.U.Q i.a 3 ",
"a ~ 5 U.D.v.r.v.Q.Y.w.W.U.U.v.D.i.Y.s.E.v.r.D.D.v.v.b.D.N.M.( o k ) u s.!.i.r.0.T.i.-.i.s.r.D.Y.0.v.b.r.0.U.w.W.r.D.N.U.!.U.x X Y %.W.W.W.w.w.w.s.T.s.-.U.U.Q.b.U.D.T.T.b.n.H.U.Y.U.T.W...t.j , I s.} H.s.i.s.w.U.s.W.s.s.s.0.s.s.T.D.U.U.T.U.U.F.U.W.T.~ ( 5 & ",
"a t.Z H.D.v.D.U.U.s.w.b.D.D.U.i.T.0.i.f.b.v.s.s.b.v.b.b.M.%.S # ' n i Q.2.D.i.s.v.i.Q.r.i.-.D.w.r.s.r.v.N.v.v.N.r.D.v.Y.W.].Q o I 5.i.Q.T.Y.w.s.w.-.W.s.Y.Q.F.Q.Y.D.D.T.T.U.D.Y.v.Y.!.N.S B.3 o V A 2.u.Q.v.i.i.s.r.s.s.s.s.0.i.D.b.r.U.T.W.F.Y.T.Q.W.T.! h.a & ",
"a 2.A N.D.Q.r.r.r.v.Q.w.D.D.v.s.W.w.W.r.U.b.N.v.s.b.N.b.D.o.S o I 4 i i.s.b.s.s.-.i.r.Q.r.r.U.s.i.i.-.D.v.v.U.N.Y.U.D.W.Q.'.n o / '.N.w.W.N.Y.s.w.Q.F.Y.T.Y.T.s.U.T.T.T.r.v.D.D.N.Y.T.s.p $ > X I A k N.b.s.r.i.r.r.r.s.s.0.r.W.Y.s.v.U.v.U.U.Y.U.T.Q.v.E o.a , ",
"h w.Y E.Q.Y.0.v.Q.D.U.Q.T.-.D.D.T.Y.U.T.N.s.z.b.N.D.N.N.Y.( i 3 j 5 U R Y.b.i.b.v.W.0.Y.Q.r.-.D.b.v.r.b.U.Q.r.i.Y.Y.w.Y.U.].Q o S L D.Q.U.D.U.Q.0.r.s.Y.F.U.r.Q.U.T.U.T.Q.s.D.U.W.Y.Q.F.a p h , h &.x.b.r.W.H.b.r.r.r.r.r.w.w.i.s.W.w.U.W.T.U.Y.U.!.W.%.^ &.7 o ",
"j o.h y.v.H.U.N.Y.s.s.W.i.s.-.Q.Q.w.s.U.F.r.b.v.b.b.b.D.o.i 5 o a u u '.i.W.b.D.s.-.w.F.r.s.r.i.r.b.0.n.r.W.b.r.D.s.w.s.U.'.P # | m.U.Q.F.Y.0.Q.T.0.r.-.-.b.D.Y.N.N.U.N.U.N.v.v.N.W.!.'.( f A X } | X.v.v.0.i.Q.i.s.w.r.s.r.s.i.i.f.v.M.b.Q.U.s.D.D.D.-.h @.8 , ",
"h } < c.i.N.U.r.-.v.N.s.v.e.w.U.r.0.-.Q.s.D.D.b.M.N.N.s.z.j j 3 6 ~ U v.s.s.i.v.v.N.Y.W.0.s.r.Y.i.b.i.-.i.v.F.2.-.T.F.U.D.].E o o.Q.D.H.T.r.b.Q.T.D.T.r.Q.-.D.D.N.U.U.U.N.v.M.v.M.U ~ R.} W U o L E /.T.b.b.T.r.r.r.r.0.r.Y.r.D.r.N.z.s.-.w.0.T.Y.Y.F.*.m t.5 , ",
"4 ,.X.Q.v.U.T.r.N.r.r.i.b.H.v.Q.U.U.s.s.r.s.n.D.D.U.U.Y.S E i o a k 5.v.s.Q.r.s.s.r.w.w.v.r.w.W.Q.s.v.s.s.M.f.Q.U.T.D.N.D.'.( : o.Q.D.H.D.b.w.D.Q.w.-.D.Y.Q.D.D.N.N.F.F.D.v.N.A i =.:.U.$X..*.o L { +.E.D.s.i.-.r.w.i.r.i.T.N.b.s.w.U.Q.T.-.U.Y.D.Y.D.4.S @.a 3 ",
", o.+.s.w.r.i.Y.D.i.T.v.v.D.D.D.r.i.r.r.w.r.s.v.N.N.D.Y.A &.& , g z o.v.r.Q.w.w.i.i.z.i.r.W.w.T.Y.v.s.b.v.D.D.D.D.N.b.D.U.'.E , U Q.D.b.v.2.w.-.i.Q.v.r.-.T.T.Y.M.f.M.N.D s a / N.z.t.!.'.F ( X L ] C D.Y.Q.H.Q.Q.r.i.r.i.b.Y.N.w.s.w.-.D.Y.-.Q.D.D.D.T.n @.a , ",
"j i.O.s.N.W.v.Q.r.-.0.U.M.N.N.W.D.s.0.s.Q.T.b.s.N.W.v.N.j j u ; X.P y.s.Q.i.b.Y.r.i.i.i.w.w.F.T.b.v.v.b.D.D.z.D.D.N.F.N.F.Q.o.o U 1.Y.s.D.r.i.D.Q.T.D.-.b.D.Y.W.Y.U.M.a 8.N.U.W.v.i.T.H.s.i S X L c V Y.D.b.T.U.w.0.U.r.v.b.D.N.w.w.-.w.Q.D.T.-.U.U.T.W.y.0.a $ ",
"5 o.6.Q.T.r.D.Y.w.-.M.D.M.v.N.U.v.D.r.s.v.i.s.v.v.b.Q.U.6.Q k . a ( c./.r.i.U.i.r.v.s.N.Y.U.N.v.D.v.v.v.b.b.D.b.D.D.N.U.U.].( X ~ :.D.H.s.D.W.D.T.v.Q.Y.W.D.-.D.W.i.Y.Y.N.N.w.U.w.M.Y.W.M.9.Z X  .#.3.D.N.s.s.-.W.r.Q.0.r.M.v.s.w.r.-.Q.T.T.T.D.N.v.N.i.2.0.A , ",
"z./ (.U.w.Y.Y.U.W.e.U.W.N.N.U.T.D.-.r.b.s.Q.b.s.b.N.H.o.u v < X 3 A 6.Q.H.W.w.r.-.t.w.v.W.N.U.v.D.D.b.s.D.b.D.v.N.b.Y.n.F.'.P $ / :.D.M.H.D.v.D.D.v.T.D.T.0.W.Q.U.M.U.U.Y.Y.U.b.N.U.H.Y.W.M.S & L b.Q.s.s.s.s.T.W.w.w.-.b.b.N.Y.Q.w.b.s.Q.-.w.s.b.v.v.W.b.Z l # ",
"T U m.y.r.Q.Y.Q.!.W.F.N.N.b.U.T.D.D.b.T.0.v.v.s.r.u.U.| a j , o 6 U C s.s.w.w.s.t.Y.w.0.U.U.v.N.s.D.v.v.b.v.v.D.D.b.b.F.D.].P X X.+.W.D.b.v.s.-.T.T.W.Y.Q.D.D.D.N.D.T.D.W.M.N.N.Y.U.U.Y.W.&.@.3 U [.Q.D.s.s.Q.D.r.-.w.T.t.s.r.U.b.-.w.U.-.T.0.D.N.b.M.b.F.w.i & ",
"4 @.U i.u.t.y.w.T.Y.T.U.N.U.t.-.D.s.D.b.i.v.M.e.z.r.M.n ( / 5 . 5 , } D.v.i.t.W.Y.Y.w.N.v.v.v.v.b.v.D.v.U.v.v.i.u.T.Y.W.N.Q.S , D T N.U.b.v.N.w.-.D.T.T.D.i.F.D.v.Y.U.N.U.Y.A.U.i.Q.Q.H.W.T.~ . k Q.s.Y.i.r.i.W.T.N.T.b.i.t.s.s.i.i.i.T.W.U.T.w.F.e.N.M.D.Y.~ 3 ",
"7 G T Q.M.W.U.N.w.w.Y.W.U.v.w.w.D.T.D.b.t.Y.i.v.r.i.v.( i ~ + o 4 u +.!.i.v.w.w.W.s.W.H.v.M.k.U.v.Q.b.D.v.N.i.Y.w.U.N.U.b.'.m & A o.>.U.U.U.v.D.T.Q.T.r.F.-.D.b.M.U.N.Y.Y.M.N.U.u.v.U.i.Y./ b . j l.b.H.Y.v.D.0.W.!.M.v.b.N.s.r.i.W.b.U.w.Y.U.e.Y.M.D.Y.W.`.@.& ",
"6 '  .D.i.n.Y.v.N.s.W.w.W.v.T.U.s.Y.v.b.k.N.U.i.N.v.M.S b Q @ , 7 < } `.^.v.v.M.H.b.U.N.v.i.r.U.D.v.s.H.U.v.U.V.T.F.U.M.b.*.b o T ~ :.E.Y.D.M.t.Q.b.s.2.T.T.Y.D.Y.N.M.H.U.N.Y.i.s.M.T.v.'.j A < h R Q.v.W.w.D.b.N.v.U.M.f.H.z.w.U.Q.Y.W.w.2.w.T.-.w.i.D.t.!...& ",
"5 K Y.D.U.N.b.M.Y.N.!.w.N.U.M.i.W.v.Q.Y.T.U.W.Q.N.v.v.E.S j 3 X 4 A 4.!.'.N.t.b.Y.t.W.v.i.U.S ~ k k L v.U.U.Y.Y.U.A.N.F.N.n a & Z A M.U.U.N.D.A.D.Q.T.Y.D.v.v.Y.i.T.N.Y.Y.T.W.Y.U.N.W.N.+.S U o } U.W.z.v.v.W.r.H.Q.M.a.v.N.r.r.Y.N.w.i.i.v.r.W.t.r.U.U.s.'.@., ",
"C z.N.N.H.M.n.M.U.M.b.b.T.~ A.W.'.|.S A ].T.Y.V.D. .S v j.| 5 . f D ^.*.!.`.v.'.'.o.Z s s p u u u u * s A !.W.W.Y.Y.V.U.Y.b n # U @.m.D Z Z v V j A.V S f j k k / / D F D S Z v v } j j Z A E 3 u.R '.v.b.Q.W.W.t.k.N.i.n.v.z.T.w.i.t.i.v.i.i.N.Q.u.M.N.M.#X( , ",
"=.6.@X| *.Y.N.A F.U.U.`.z.T Z A I r a u j D |.#Xn i u 5 s ..k # T +.Z >.A u u 4 p & s m * u & s , < 4 u e u * i } '.!. X| ,.F 3 m.J.l m s N b u u p ..* 1 j j p j a n i v E u s E n l s j o.( X &.>.@.p I '.].W.W.D U.M.'.b.n.%.b.F.U.s.`.M.i.Y.D.U.Y.D.b.Q.( , ",
"D v S p e s l S A a p i 4 * D v f a 4 3 - - s Z * & & u a ,.U X a 5 i i v i S v i a s 5 a - 4 5 4 5 a a a v u A Z p a u s ~ / o O.S j S s ~ s u j j s 5 i 5 j j 4 # j v j 4 i s s s i a j Y a . a j S u * 4 v j v b A u s u u i p r j < i s j j I P A S U %.( # ",
". 4 3 $ o o - - & $ & *   X & 3 & , # # o = - # # + # = # - 3 w # # + # - 5 # & 3 - 3 - + # # + + # # - & # # 3 & o o & & 5 4 q u * - & & X   # o X - X X & X   & # X 4 # - # + r # # + + # # n # # & & & & o X o   X & 4 * o $ o X 4 X $ < 4 X < < * < < # X L ",
"> h I l t t t k o C A t t y g L k 5 V C j I I I h r j j : A P > 8 A p i k n a i 1 L I C f k f f j h a V I h V A V l w 0 k i m > e k D P g 0 > t t n y L g i j L D h C I h f , f k 5 j j B D a n v V A 0 y y j r x g x q x L t t g 0 l q w l w m c w w w r g j % ",
"8 j.].[.E.m b @.o M.D.| ( ! f k E S A F n @.&.&.( S k Q =.v.k.a j ~.z.*.u.*.~ 4 ' ( ( @.*.@.*.U / *.1.u.>.P y.s N D y.a.( o.n $ a K.%X(.W.E K *.*.*.>.u.4.z.2.c.z.c.m.P C 6 m.*.l.*.*.4.y.j.C.i 8 W.@.*.n w.u.M Q r v J G ' v.m.i.! ~.W j c.E.Z.K.{./.R.%X-XU.% ",
"j 4.$X].`.}.^.C.> &X|.'.1.@.n L n n m S ~ &.$.( ' g g ] .X2.&.% 3 a | E 4.s ~ _ v m E ! ] -.#.$.( n H 9.g J ] m g S.].(.4.2.@.$ 3 T }.Q.|.&X) z E $.H { @.0.t.' ) 9.$.x j $.] q.r.K [ ! w./ | a # j ).o.v  .T.J.m.|._.K.w.[.D.'.].].N.D.~.b.z.s.`.i.s.i.M.'.%.4 ",
"k :. X`.T.T.0 D.F.n j b.b.v.b.'.H.v.m ^ Q q._ ^ J i.( x.$X$Xv i 7 S o.).E ! ^ _ l _ ) E ( ! ( { l 7.! l b 7.*.u.S !.N.U.].i.h.: 3 6.D.t.f.b.v.|.U.=.9.J 9.[ 7.! [ 0.k ' ( Q ! ' -.$.) f.@.w.k < 3 a U J.~.M.v.v.v.v.Q.T.!.f.b.Q.v.M.Y.v.v.s.i.r.i.i.s.W.N.`.o.0 ",
", 4 * < , c.D.T.i.s.D.N.C v.Q.D.v.v.XX{.OX(.H..XT.D.U.F.u $X@.e h C ~.R b.Y.N.!.].OX_.XXT.|./.XX/.Z.L.b.M.~.R.K.M.M.Y.M./ p u i = A D.v.f.D.b.b.U.J.).z.S.Z.H.~.oXoXc.[.m.J.H.m.^.J.[.z.~ &.U % 9 @.V A b.v.t.D.D.D.D.Q.v.s.s.v.z.t.v.v.N.r.i.0.w.w.i.Q.v.`.~ u ",
"< Q /.] w v.Q.b.r.b.N.b.D.w.Q.s.w.m.v.N.Q.Y.W.E.U.Y.W.T.> P ~ < 8 A *XU.i.U.N.W.W.`.`.v.i.Q.Q.b.z.T.i.s.v.N.N.N.W.T.t.Q.f.S E , o j T.s.i.i.F.i.f.s.z.M.T.f.i.i.Q.s.D.b.s.v.v.U.s.Q.'.%.Q $.( i 2 | < I i.i.M.U.v.D.v.b.v.b.v.s.i.i.i.w.w.-.s.W.Y.i.i.W.T.W.E e ",
"a j ].}.f !.D.i.r.b.D.s.w.0.D.s.N.H.t.W.W.Y.Q.E.Y.W.W.}.< V.P i 3 =.| D.T.N.N.U.Y.!.W.E.Q.D.Q.i.U.v.b.z.v.v.M.v.v.T.M.*.v z n $ & l U v.i.v.i.i.W.i.w.W.z.v.v.b.b.s.D.D.r.r.s.w.D.Q.Q.w.m 9.i.h 8 ' n } v.M.M.M.i.D.T.U.v.v.Q.W.N.t.M.u.i.w.r.w.w.r.T.i.v.i.%.i ",
"8 i &Xe Q.D.M.Y.Q.n.r.D.D.v.w.w.s.M.i.Y.Y.T.Q.Y.Y.Y.T.<  Xv P < 8 i m D N.k.Y.N.Y.Y.W.T.s.E.Y.v.s.i.i.i.v.t.v.Y.v.M.T.*.P i n $ o f h D.Q.c.s.r.s.U.w.U.W.r.b.s.b.b.b.v.i.z.s.r.r.W.n.} b Q A 8 # C j D N.D.N.D.Y.Y.v.r.-.s.i.s.Y.N.i.w.i.r.w.r.i.0.i.v.t.T.~ < ",
"8 *.'.N.b.f.D.s.r.D.s.T.i.w.s.-.W.D.U.U.W.Q.W.W.Y.U.v `.(.w.v a 8 i j } W.b.D.N.F.D.T.T.b.Q.s.b.N.i.f.s.i.w.v.v.Y.v.Y.E s p C $ , ( < T.s.w.s.E.2.N.v.r.s.N.v.v.v.s.b.v.W.E.F.T.c.i.z.| v ] ~ 8 8 A 5 C Q.b.Q.T.U.D.M.v.-.-.s.b.r.-.s.r.s.s.i.r.2.r.s.N.r.v.Q u ",
"& 5 `.Y.T.v.s.2.0.D.b.D.T.s.r.i.N.t.U.W.W.Y.Q.s.W.W.Y.Q.A y.E u 9 a D j U.M.b.H.D.U.F.Y.T.D.-.n.M.v.r.s.M.U.v.N.M.M.M.*.z E j < 8 a a D.v.W.s.s.0.Y.T.v.s.b.b.b.s.s.b.z.-.D.b.r.b.b.N.%.F u @.a 9 4 %.>.T.D.D.D.D.b.-.T.-.Q.r.s.s.s.Y.i.i.s.0.U.Q.r.-.i.s.'.E e ",
"7 i #XT.U.D.s.i.r.D.s.T.U.s.s.w.N.-.U.Y.T.Y.Y.U.N.N.M.U.v W 4 * 3 I E o.F.U.D.i.T.Q.Y.i.T.U.Y.Y.i.b.b.D.U.D.v.U.T.W.Y.%.z | S 5 7 I 6.Q.r.U.w.w.s.s.D.r.Y.D.b.v.v.s.r.r.T.w.r.w.v.t.M./ E d =.a 3 S _ +.T.H.Q.v.F.D.v.U.r.r.r.r.r.r.v.s.s.r.r.T.F.W.Q.Q.Q.$XE < ",
"j : R Y.U.r.b.s.T.s.s.Q.s.f.r.2.Q.Q.U.W.-.Y.Y.U.N.U.i.`.i S Z a 3 U P U W.Q.Y.U.Q.U.T.Y.Q.F.U.Q.U.U.N.b.N.D.U.F.D.W.N.%.n W b , 7 T A  Xb.w.Q.w.v.i.Y.r.b.D.v.n.b.D.i.s.D.s.D.w.D.v.N.@.W m / 5 3 D f } '.T.D.s.D.b.D.v.r.r.v.w.w.0.U.Q.T.w.r.T.e.b.Y.w.i.=XA > ",
"- 4 V T.D.U.b.b.i.s.s.r.0.-.w.-.F.w.T.Y.W.Y.D.N.W.U.U.Q._ v ~ & 9 -.P P !.N.U.w.Q.D.s.-.T.D.D.s.N.n.N.N.U.T.Y.T.U.W.W.k.^ m v , 7 h A U '.Q.E.T.D.Q.T.Y.w.U.s.r.f.z.w.v.z.e.U.Y.s.D.U.| n #.@.# = C I P `.Y.D.n.D.s.r.D.b.T.r.w.T.Q.-.T.s.T.-.r.w.Q.D.Q.i./ u > ",
"3 k P.v.U.D.v.s.i.s.i.-.Q.w.Y.v.i.b.b.Y.Y.w.Y.F.T.Y.N.~ m P a & 7 | $.S U.Y.N.D.T.v.D.D.T.D.D.v.D.v.v.Y.U.D.U.U.H.N.W.W.N.@.E , 6 k j D ].Q.s.U.U.D.T.s.s.U.Y.Q.D.D.s.v.D.N.N.-.v.Q.U.2.{ P U i 7 L , A s.s.s.v.f.r.r.r.w.Q.Q.0.r.Q.-.Q.v.Y.U.T.Y.W.i.v.Q.E P > ",
"8 h i `.Q.Q.N.v.s.b.s.w.Q.-.s.r.0.s.s.D.W.v.i.D.r.D.U.} d A j a # h k Q N.b.r.z.D.N.T.b.b.D.D.W.W.D.D.n.D.D.F.Y.N.Y.v.W.#X^ _ 5 3 5 S ' ].U.T.D.U.D.F.Q.Q.Q.U.D.D.r.s.b.D.D.b.M.u.T.T.>.m e | a 8 5 k Q D.z.c.s.D.Q.-.r.w.r.r.r.w.T.w.w.w.T.U.Q.U.2.D.i.F.4 P < ",
"& j g U U.U.D.Y.v.D.D.U.w.r.w.i.w.Y.D.w.w.0.W.i.i.b.N.%.S F 4 & B 6 P p b.U.w.0.D.D.v.Q.b.Q.r.-.r.D.v.s.r.b.v.F.M.v.v.A.'.v.Z < B k k A ].D.T.U.U.T.Q.w.-.w.v.0.b.b.D.b.N.b.v.N.-.f.T.!.d ( @.5 9 5 A 4.f.b.b.v.H.Q.D.-.s.r.-.w.r.Q.r.-.Q.Q.U.e.v.T.D.D.U.c.p $ ",
"# ,.~ '.W.t.t.z.U.N.N.i.w.t.W.U.-.r.w.0.b.i.r.w.r.Q.T.+.s d n a 6 h # i |.M.D.Y.Y.D.D.b.b.D.U.U.w.D.s.r.w.D.b.b.M.b.H.H.Y.R.F 4 h I 8 a S.t.s.Y.F.D.0.0.-.W.W.r.r.v.D.v.v.T.F.T.s.s.Q.o.m @.| h h -.$.v v.s.s.T.D.D.D.Q.v.-.Q.r.w.r.r.r.Y.T.W.D.Q.b.s.v.D.G A $ ",
", i I./.M.U.Y.w.v.s.N.b.Y.i.U.i.r.-.-.D.r.s.b.b.b.b.r.-.E S Z - 6 k 3 < 3.Q.Q.E.H.Q.D.D.Y.U.F.T.U.D.s.U.v.v.D.D.U.D.T.H.N.w.4 r 7 A h ^ `.W.W.U.W.Y.r.r.i.W.-.r.Y.D.D.D.D.-.W.T.U.r.b.| S W _ i 6 U &X'.i.s.r.v.i.Y.D.Y.D.i.r.r.r.w.w.r.T.Q.i.W.T.v.Y.D.D.*.g o ",
"h -.<.Y.M.H.i.W.w.w.v.N.N.N.W.r.i.v.-.b.v.r.-.Q.s.v.b.+.z n k 3 ; 5 h 4 T s.v.Q.D.D.b.w.s.T.Y.T.U.T.Q.D.v.D.v.D.D.v.D.D.Y.[.g i V L Y , `.Q.Y.U.-.W.T.i.i.i.W.0.-.D.D.i.D.F.D.W.H.s.Y.`._ #.e.i h Y D.D.Q.Q.W.-.v.D.w.s.r.T.Y.r.r.D.w.w.W.W.T.s.D.b.D.v.T.U k : ",
", =.x.U.U.T.w.N.w.Q.b.N.N.Y.U.Y.s.w.-.r.D.-.r.v.v.U.s.U n Q n , 3 f | < T v.s.-.v.b.b.D.T.D.Y.-.b.U.D.D.v.b.L H.s.s.D.D.U.E.j : 2 u.a v.'.W.W.w.D.Y.-.r.r.-.r.0.-.Y.D.D.T.D.D.D.D.U.Y.W.f.a ( u ; 2.b.Q.W.T.T.r.F.-.w.-.Q.s.s.Q.D.w.w.Q.W.Y.Q.r.D.D.D.r.i.|.J e ",
"h 0.O.W.w.W.N.T.U.U.D.U.N.s.W.w.T.-.w.s.Q.w.-.s.s.v.T.T.1 h } 4 9 k z < I i.r.Q.D.0.D.T.s.D.D.U.v.D.b.n.z.s.-.D.s.b.b.Y.E.$Xn e 8 D E @XW.T.H.W.D.r.r.W.W.s.s.s.D.F.Y.i.Y.D.D.v.r.U.D.i.L.{ u i ; X.!.Q.r.-.Q.D.W.W.Y.W.Q.Q.w.0.-.-.Q.T.w.Q.D.0.E.D.Y.b.s.Q.E > ",
"a t.5 v.W.T.w.T.Q.t.i.D.U.Y.W.U.T.r.T.T.W.-.i.s.-.D.v.v.f n n h 3 I g f +.Q.s.T.v.w.v.D.D.D.b.r.v.D.F.D.s.b.D.M.b.U.D.Y.D.|.E 5 3 P v |.W.W.W.T.D.Y.i.W.D.0.r.s.i.F.Y.v.D.D.D.s.D.N.!.W.U.[.A i 7 U Q.Q.Q.-.T.-.T.Y.r.-.r.v.s.s.z.-.w.i.w.r.r.Q.U.Y.w.b.v.T.E < ",
"7 4 A D Y.M.v.t.N.Q.i.U.w.s.Y.W.-.0.W.r.v.s.r.s.v.r.s.D.&.k a 4 2 4 j u './.w.Y.r.s.F.v.v.v.D.b.D.b.U.v.w.D.D.M.D.b.D.U.T.} i X = a A @XN.H.U.D.D.b.Y.b.b.0.i.r.v.-.i.D.s.D.s.D.b.D.U./.v.C n e , U D.Q.D.Y.T.F.T.r.D.T.r.w.i.s.w.w.s.-.Q.r.i.D.T.s.T.n.!.].p < ",
"3 # * j U.U.v.Y.D.T.Y.w.W.U.Y.F.0.Q.0.r.v.r.r.i.s.s.b.Q.S i j 4 B h 1 7 D u.H.T.v.b.s.D.D.v.D.D.D.v.U.v.U.T.D.D.L D.D.b.Y.m j < 8 A a I E.W.W.N.D.D.W.r.Q.r.i.s.i.0.r.0.i.D.i.v.v.F.Q.T.Q.).n % h Y !.Q.s.W.W.W.T.W.Y.Y.D.T.w.-.w.s.r.w.w.v.w.r.0.U.F.b.U.m a : ",
"8 n < i D.s.Q.Q.w.Y.Q.D.s.s.T.T.Y.Q.-.r.D.w.r.w.r.r.W.s.N.E Q e 6 g , 5 6.Y.D.Y.D.w.i.b.D.b.D.D.b.v.s.U.N.D.D.8 / N.M.M.N.l 4 , @ a S C Q.s.U.D.D.U.D.-.b.s.s.v.i.0.r.D.D.D.D.D.D.D.D.i.!.|.S $ h 4.Q.Q.T.0.-.-.T.Y.W.T.F.W.v.Q.s.n.i.s.0.s.Y.W.s.U.s.b.Y.f j , ",
"8 ( z g Q.s.D.U.i.T.w.0.w.T.T.s.w.r.Q.Q.-.w.s.w.s.u.i.s.'.y.P $ L v ~ e ].U.Y.U.T.s.U.D.s.D.D.D.D.b.D.U.D./ 2.z.M.M.M.M.D.E i u 6 j & v Q.T.U.D.D.N.D.s.D.v.v.v.s.r.D.s.v.D.D.0.T.-.Y.-.z.'.N i , i v.s.T.Q.w.Q.T.Y.Q.0.T.Q.r.T.-.r.v.Q.T.i.w.r.v.Q.U.s.D.A , : ",
"3 h x j '.v.D.U.U.b.n.D.D.W.U.w.r.-.D.w.s.w.T.Q.w.N.i.s.N.W./ < ; 6 L i !.Q.T.Q.0.Y.b.F.D.r.w.Q.U.U.U.U.i.b.D.Q.U.N.v.I N.| j $ 3 5 A k Q.U.U.D.b.D.f.E.s.v.v.-.s.-.i.D.D.D.D.-.-.-.D.r.s.b.@.r 6 k v.b.W.-.Y.-.D.-.W.w.W.r.D.0.b.s.w.w.s.r.b.s.s.N.Q.i.}.E i $ ",
"9 Y j 5 +.i.E.U.U.U.E.Q.D.D.T.s.b.r.T.s.r.s.s.w.T.2.W.e.v.}._ $ 6 x 5 n Q.Y.U.U.Q.T.Y.Y.Y.-.i.s.Q.2.2.U.v.H.Q.U.M.H.Y.U.}.s i a 3 p f / !.H.T.D.D.v.D.D.b.v.r.v.D.v.r.s.s.i.s.D.v.Y.D.D.Y.b.' 1 , *.Q.D.Y.T.W.T.r.b.T.D.-.Y.r.-.U.T.r.r.r.s.U.r.i.v.b.T.].p 5 < ",
"7 n L ~ ].Q.Y.D.U.D.T.D.Q.s.D.i.T.U.w.r.T.Q.i.r.Q.T.r.i.b.!.0.> 6 r ,  XU.T.D.Y.T.T.-.T.F.T.w.U T.D.W.Q.Y.b.H.Y.v.D.N.M.@Xs u < 7 5 j.j.D.T.U.D.D.s.U.b.s.r.v.b.D.D.s.T.v.D.D.r.D.D.D.D.v.|.g 1 o +.Q.r.b.-.-.Y.Q.v.T.D.D.T.Q.D.T.s.w.D.s.s.v.b.v.b.r.i.|.s ~ 4 ",
"6 f k ( '.W.Y.D.Q.0.U.Y.Q.b.F.U.T.Q.r.w.-.r.r.s.Y.0.w.r.Q.D.J $ 7 n ~ W.U.H.D.b.T.Y.U.D.T.W.A Q.i.s.D.U.W.b.Y.w.M.U.D.D.A a / 5 3 o.( U U.T.D.D.D.F.r.v.v.W.b.s.-.D.D.D.s.v.D.D.D.W.D.i.T.U.P > 1 R E.r.i.D.b.D.0.D.b.v.s.s.U.-.r.r.w.v.i.i.i.U.D.T.T.E.`.v k u ",
"7 C j %.Q.T.T.T.Y.s.W.Y.U.b.D.D.U.w.-.W.W.Q.T.s.v.D.W.w.r.b.@.e 3 $.Q.D.Q.T.W.T.U.w.D.s.r.r.D.b.r.s.i.T.i.s.z.w.b.U.N.T.( & | 6 3 j R c.Q.T.M.s.s.F.D.v.s.b.0.i.D.s.D.D.D.s.i.D.D.D.D.D.D.|.Q : 4 L T.s.b.b.b.D.T.r.s.D.D.Q.T.T.T.r.s.v.i.s.N.N.N.D.U.i.D./.A < ",
"9 V A I Q.Q.w.T.F.T.U.b.v.D.T.U.T.T.H.Y.T.T.f.-.i.r.Q.M.r. Xz i h +.!.Q.Q.T.T.Y.D.D.s.w.Y.-.-.r.w.Q.0.2.n.b.f.i.T.b.v.T.E o S h 2 k C l.T.D.v.b.D.s.v.s.r.i.T.w.D.D.s.s.s.i.v.v.D.D.D.D.D.`.Q 1 . A D.U.Y.b.b.i.s.Y.b.r.D.b.Q.T.D.W.b.b.v.n.s.v.w.i.Y.Y.v.@.8 < ",
"7 L A L.`.Y.F.W.0.Q.Y.D.D.b.D.0.D.v.-.D.D.D.D.s.s.0.-.i.r.|.' 1 # C Q.Q.Q.T.Y.U.T.D.Y.Q.D.D.s.Q.-.-.s.w.w.-.r.s.v.W.U.!.% h ~ & ; P Y L.D.D.i.D.D.T.i.r.r.W.b.b.i.Y.N.v.s.-.Q.s.b.b.b.H.T.'.~ r 9 U '.H.U.U.T.D.w.D.D.i.b.Y.D.T.W.D.D.-.v.D.D.D.D.v.!.Y.|.L w.1 ",
"B C 5 A !.r.b.Y.T.T.Y.v.D.i.D.Y.D.D.D.D.D.F.v.D.i.r.r.Q.r.D.#.t ; A '.b.b.T.T.T.b.D.Q.T.s.Q.r.w.s.w.r.s.T.D.T.Y.U.M.Y.`.S o.} 5 7 o.j D.r.D.v.b.0.Y.i.i.r.s.-.s.s.Q.b.b.s.i.s.N.N.v.v.Y.U.|.v < 3 r.].b.s.b.U.U.b.b.W.Y.D.T.D.Q.W.D.Y.Y.Y.0.T.D.Y.b.H.D.T.G P 5 ",
"2 L L #Xs.w.f.w.T.0.-.D.D.D.v.T.T.Y.D.-.D.D.D.Y.T.Q.Q.v.Q.|.' i , Y z.i.T.U.U.w.b.v.s.r.w.w.U.U.U.-.v.-.s.T.D.D.W.U.Y.<.E =.f 3 ; f h I b.T.v.s.i.s.W.0.i.i.i.T.s.b.n.b.r.b.r.T.b.N.D.b.D.].! < < *.'.r.s.Q.v.b.b.v.r.r.b.F.F.W.D.D.b.v.D.W.F.W.F.T.0.!.y.p E i ",
"9 x *.].i.r.r.s.i.i.D.D.b.b.s.D.D.v.F.Y.D.D.D.D.i.D.-.i.Q.'.E o f V D.D.Q.D.D.D.D.w.U.i.r.s.r.n.s.D.i.r.w.r.D.D.v.Y.U.I E ~ ( > : +./ 1.T.H.r.s.v.v.b.i.-.b.r.T.s.v.v.b.s.T.b.U.Y.D.D.Q.Q.|.E i , } '.T.D.N.b.D.D.D.s.i.D.r.Q.Q.i.Y.r.v.-.D.D.r.i.0.W.Q.S ] Q a ",
"6 G  .].Q.s.T.s.Y.T.Y.D.b.b.s.f.D.Y.D.D.D.Y.D.T.Y.D.w.w.Q.N.P < , X.Q.H.s.Q.r.U.T.W.D.D.v.D.T.v.b.s.2.i.r.v.w.Y.N.i.T.~ l U | h h -.c <.D.D.v.D.D.v.D.v.D.0.s.v.r.b.D.D.D.U.D.T.D.Y.F.F.F.v.E < , L Q.Y.D.D.D.v.v.v.b.D.s.D.U.T.D.0.i.b.D.-.F.Y.U.w./.i.p ( ~ u ",
", G ! '.H.Q.Q.-.-.F.i.b.v.D.D.D.b.F.D.Q.T.D.Y.Y.T.N.N.T.T.T.l i f X.'.r.s.b.D.D.b.Y.D.v.s.i.s.W.r.D.r.i.s.b.v.D.v.i.z.o.! w.~ a 9 } h 4.D.D.D.v.D.s.-.r.T.r.s.b.w.T.i.b.v.D.D.Q.F.F.N.U./.'.F e 1 %.E.z.U.D.D.v.D.D.v.v.v.i.D.D.i.b.D.v.T.T.W.v.i.W.t.v.{ H p u ",
"6 A L '.Y.w.w.W.2.-.T.D.T.D.v.b.i.0.T.T.Y.-.T.W.N.F.N.T.U.].J 1 , c.U.v.D.b.D.T.s.n.w.T.T.w.U.s.b.i.D.v.v.D.D.w.u.r.W.%.{ b ~ i 6 5 A A W.D.D.v.W.Y.T.s.Y.F.b.T.U.Q.D.s.b.D.T.N.N.D.N.W.W.'.^ > , x.U.H.T.f.b.v.D.D.i.s.-.D.Y.b.D.D.b.D.Y.T.D.D.Y.r.Q.i.A ~ i.i ",
"h 7 4.z.Q.Q.U.Q.s.Y.D.D.W.v.D.D.i.D.v.Q.s.W.Q.F.U.F.U.Q.T.b.S r f V D.s.w.U.r.v.Y.v.r.U.b.U.D.D.T.i.D.D.v.D.T.s.i.w.s.~ l E v i o C 4 +.v.D.b.v.D.b.D.D.b.F.v.b.Q.M.f.D.0.i.v.N.b.D.D.w.W.`.=.> 7 R D.D.b.N.i.i.D.D.D.D.Q.Q.F.s.D.b.D.D.-.-.b.i.Y.Y.t.v.w.v / p ",
"8 h U i.Q.T.r.D.s.Y.D.s.s.D.F.r.Y.i.r.W.b.0.Y.0.Y.Y.Y.U.T.`.@.p h C /.Y.D.f.w.b.-.Q.T.-.w.Y.T.D.D.F.b.F.D.v.v.i.-.r.s./ l E S $ , } i C D.b.D.v.0.D.s.D.D.v.b.i.D.w.D.v.Y.T.v.D.D.U.Y.Q.b.D.&.i 5 +.D.D.s.b.b.D.s.v.D.U.i.F.D.v.D.b.v.s.0.s.D.z.i.v.v.z.( p v 6 ",
"V i %.Y.D.Y.U.U.D.D.D.D.Y.Y.F.W.D.N.r.W.v.s.Y.i.T.Y.U.T.T.v...p B C v.D.i.r.r.T.s.w.Q.T.r.T.W.D.D.D.D.D.D.D.D.i.i.s.Q.o.W ] | X 1 U l <.s.b.v.D.D.v.Y.T.s.b.v.s.D.b.D.-.T.-.Q.D.w.r.F.W.Y.v.i.p 6 U z.Y.s.D.v.b.D.s.D.s.D.r.F.w.s.b.s.T.Y.i.v.s.w.Q.v.D.*.0.~ i ",
"3 5 '.`.U.T.r.b.U.D.D.D.F.U.D.W.Y.b.s.Y.N.v.b.Q.N.Y.U.Y.T.'.E i , +.U.Q.s.r.s.T.Q.0.r.i.r.0.v.D.s.v.s.s.D.Y.s.i.i.i.s.o.p $.n > 5 } v T z.s.s.b.D.b.b.r.D.v.r.D.s.b.s.w.s.0.T.v.r.i.s.U.W.s.2.$ 6 :.Q.U.v.D.s.b.U.b.T.v.r.D.s.v.s.v.v.F.Y.i.z.v.i.i.Y.s.M.! p X ",
", p <.`.r.Y.r.v.s.D.Q.U.W.U.b.Q.b.D.v.N.N.b.e.M.Y.U.T.T.W.*XF $ ; +.v.Q.Q.2.v.w.r.-.r.r.s.v.v.s.i.s.i.r.Y.0.s.i.-.s.Q.o.@.d.} < . C K +.Q.s.N.v.s.v.i.D.s.v.D.0.v.r.T.s.w.s.v.s.U.s.W.D.r.i.~ $ ; *.s.Y.D.b.b.D.D.T.W.v.v.r.s.i.s.s.s.D.F.D.z.s.W.w.Y.Q.i.& - $ ",
"7 1 &XE.Q.D.z.D.b.D.F.Q.W.s.Y.D.b.v.b.D.W.D.M.D.N.w.U.Y.`.Z p i , } '.r.r.Y.-.T.s.-.W.v.s.s.r.s.s.r.s.r.i.v.v.s.s.D.0.2.-.h.X.% o } J T s.s.i.s.D.v.D.Y.-.D.D.b.v.D.s.D.s.w.Q.r.r.T.w.r.F.v.~ $ 6 1.r.W.s.s.b.T.v.s.Y.s.-.r.Q.i.s.f.v.r.H.s.s.s.W.F.W.v.v.!.@.$ ",
"h c $XY.D.N.s.M.w.b.M.T.T.s.b.v.i.v.b.f.N.i.v.v.M.N.T.`.} l @.u 3 k A `.Y.i.0.v.F.s.i.s.r.r.r.v.r.r.Q.D.-.D.2.s.H.r.Q.'.( -.A > 3 *.Q R D.b.i.r.W.v.v.D.D.D.b.v.b.D.b.Y.D.T.Y.-.r.U.Q.N.v.v.P $ 4 +.D.v.D.-.s.b.D.v.v.b.D.Q.Y.s.r.s.v.b.w.0.i.f.M.M.0.!.F.=X( i ",
"h h J.U.U.D.u.s.D.T.w.Y.r.s.s.v.r.v.b.i.U.Y.D.N.b.N.w.s.j d 3 i 7 6 ; '.Y.Q.-.v.s.r.i.T.r.s.s.r.v.W.s.r.r.r.Y.r.D.s.r.r.Q q.U 5 , X.g T b.v.b.2.b.F.b.D.D.D.D.0.v.D.s.W.s.D.Q.Q.0.r.i.D.Y.b.v < 5 1.D.H.b.b.b.v.s.D.b.F.T.F.w.Y.s.s.s.v.s.r.f.0.T.Q.U.i.Q.T.F 5 ",
"B # j N.f.i.r.D.n.D.s.s.s.s.s.v.r.r.v.v.F.v.N.b.W.i.t.b.s & n & 6 h 3 |.Q.s.r.-.s.Y.-.s.w.-.s.s.r.i.D.i.i.D.q.D.i.2.r.W.g @.Q > X P P E.r.b.b.v.s.r.F.v.b.D.U.s.v.v.v.Y.U.Q.U.D.s.D.D.e.b.U.E > 6 +.D.D.z.r.D.D.F.D.b.U.Y.D.Q.w.r.s.T.w.z.r.i.0.T.W.F.i.v.!.l i ",
"# # j 3.s.z.Q.W.s.E.b.f.v.U.v.b.z.s.v.E.0.D.v.s.r.F.r.Y i m A , 3 i 0.U.`.s.i.N.w.T.e.w.i.i.Q.s.s.s.D.r.r.i.w.s.i.N.W.t.E $./ < o U g *.i.s.v.2.D.s.F.F.Y.s.r.F.b.s.s.D.Y.w.0.Q.-.s.r.D.D.E.] i 5 1.D.U.b.D.D.Q.W.U.T.W.Y.v.r.i.i.v.s.i.0.r.i.-.-.b.D.b.v.L 1 $ ",
"# 3 A Y.b.U.b.N.D.D.b.h w.b.D.s.v.r.T.Q.-.-.v.r.b.s.Q.Y ! g @.V 8 k I I v.F.r.w.W.U.U.w.r.b.r.r.s.s.r.r.r.s.Q.r.b.w.W.`.E E | r , =.g 5.b.b.s.-.b.T.T.D.i.Y.Q.b.D.b.D.U.Q.Q.w.Q.Q.i.s.z.b.}.( e 6 O.D.M.Q.U.b.D.T.i.i.s.v.i.i.v.b.r.r.v.-.r.D.s.T.T.D.s.D.o.< $ ",
"7 @.i U.D.z.r.T.D.v.D I i.w.D.s.r.U.U.s.s.i.i.i.0.D.Q.z._ e f h B 5 P T T.Q.0.w.W.U.w.s.w.n.r.b.s.s.U.r.T.r.r.s.u.b.!.b.S ! ~ r : } G 4.v.b.v.2.Y.T.Q.T.-.D.Y.-.v.v.r.Q.U.T.W.-.T.i.0.r.Y.@X$.: 6 g T.b.D.b.v.F.F.N.i.s.s.Y.i.r.Q.r.Q.-.T.Q.-.-.Q.i.-.Q.b.!.j $ ",
"3 k k v.b.b.s.N.T.v.n I D.s.D.v.2.0.r.i.r.r.r.D.i.D.r.| p i i 5 # a S 5.!.!.N.w.Y.b.-.W.Q.b.w.v.s.s.s.T.W.0.s.r.W.t.N.i.U b ~ $ o k i +.Y.b.r.i.W.W.Y.Y.Y.D.v.r.0.s.D.W.U.W.w.0.D.D.E.Q.y.S ] < 1 Y b.D.D.b.D.s.r.i.v.b.t.i.w.u.-.w.Y.Q.s.-.r.r.r.Q.T.s.Q.p f $ ",
"8 a U.z.b.s.N.b.b.w.U } v.Y.D.w.-.W.r.r.w.i.s.W.w.w.i.%.r g l 3 3 & i } i.r.-.w.r.r.W.Q.D.U.Q.U.r.r.r.i.w.Q.w.r.w.s.i.b.| m E $ o L ( 1.v.b.b.b.s.D.i.T.r.W.D.D.U.s.W.U.w.N.w.U.T.H.Q.w.-.P ~ : o U Q.N.M.D.r.v.i.n.w.w.r.z.i.i.w.Q.-.T.r.0.r.-.Q.W.Q.W.t.M.5 : ",
"3 a `.D.v.r.r.s.Q.s.C Q.s.r.i.w.s.Q.W.w.w.0.i.T.U.Q.r.N.#.W s 4 3 V 4 $X`.r.Q.w.r.r.r.w.T.i.Q.D.b.i.r.s.w.2.w.w.r.i.u.U.%.( / f : / G D.D.b.f.F.F.D.Y.D.b.i.0.i.D.t.W.M.Y.z.t.T.T.D.b.Q.I i P $ : j :.z.s.s.s.w.v.s.v.s.t.r.i.r.-.w.s.s.-.s.-.Q.Y.W.Q.W.!.#Xn 0 ",
"4 e |.b.z.U.0.r.s.T.I A r.U.v.2.i.v.v.Y.i.Q.F.s.v.v.N.Q.! v S & 3 8 E / i.u.v.i.b.Q.b.r.r.b.T.D.U.Q.-.W.H.f.Y.W.r.s.N.b.@.F S < X o.E 1.Q.z.Q.T.W.Y.b.v.b.-.W.F.D.b.W.W.Q.U.U.T.F.U.v.E.o.J ~ e , D | D.v.s.w.w.s.s.s.i.t.r.w.r.r.T.s.-.-.r.-.F.W.-.w.W.T. Xb e ",
"3 S !.w.W.U.N.s.Y.U R z.s.s.U.e.0.b.s.r.W.Y.r.v.s.N.s.`.H < v 4 3 5 , i i.i.w.v.s.s.s.0.s.-.s.-.r.0.-.r.U.w.r.Q.z.r.r.i.b.h.I : 9 Y U l.Q.b.D.Y.F.D.D.b.v.F.D.v.b.w.W.N.i.U.W.Y.-.v.b.Q.~ [ ~ : o L A N.D.v.s.s.v.v.i.s.s.Y.w.w.Q.T.b.w.T.2.0.0.W.Y.w.W.t. X* e ",
"6 / ].Q.r.b.D.M.W.Z s i.i./.i.w.Q.s.s.v.e.W.M.t.T.Y.U.Q.| p { 4 3 g 7 j s.`.b.s.b.N.w.s.F.z.U.r.U.s.Q.T.r.0.Q.r.r.i.b.H.i S R.l 8 g.a /.Q.Q.v.r.0.i.Y.-.D.D.v.b.N.N.v.U.N.T.W.W.W.M.U.N.| q.( 5 , %.] Y.b.b.b.v.b.v.i.u.N.i.w.w.w.W.U.r.t.W.W.s.Q.W.2.Q.s.'.' $ ",
"9 P !.Q.D.D.D.D.v.S I i.i.i.y.t.w.u.s.i.v.v.v.!.i.w.s.b.`.i Q 3 3 4 p < I s.z.z.s.z.z.s.s.v.i.Y.s.s.s.D.-.2.W.i.u.z.D.S ~ S S $ 8 v.,.N.W.W.b.M.0.D.D.D.D.D.D.b.i.W.M.t.N.N.M.N.v.N.T.T.t.( ~ < : A } D.N.r.D.w.w.i.a.U.N.i.i.r.r.w.Q.w.w.w.r.r.W.w.Q.E.'.$XE i ",
"4 / Q.s.v.T.z.s.v.%.O.v.t.r.i.i.U.v.T.M.N.v.Y.W.Q./.D.Q.^ $ j & 8 a i i O.N.v.v.v.s.s.i.b.i.t.z.s.r.r.w.w.Q.Q.i.w.k.< S.U.~ @.i 7 A z.W.W.W.U.w.D.v.D.D.D.b.Y.Y.w.W.T.i.T.M.Q.z.`.i.M.T.~ 8.l < o A I F.H.N.s.D.w.v.W.N.Y.W.w.w.r.D.s.z.2.i.t.Q.w.e.Q.Q.Q.t.4 e ",
"3 X.Q.N.U.N.M.b.M.Z v.v.D.N.Z k s k N.U.'.M.^.i.Y.T.W.W.Q.x p h # A V ~ A h s j }.b.`.N.N.Y.b.,.v.D.D.s.Q.r.v.s.t.i.v.'.} Q 8.< 6 j.Q.`.w.Q.W.T.!.i.r.D.Y.Q.D.r.z.`.Y.v.v.`.t.v.Q.b.v.U.~ q.A $ X X.i F.D.D.Y.s.Y.i.v.W.w.Q.Q.w.w.r.i.t.i.w.i.u.w.w.Y.s.i.P P e ",
"3 / Y.b.b.v.D.s.M./ u s * * * # # * u s j V n.s D Z a 3.Q.=.S & 6 C >.a s e * & j i s j j s j j v Z j j U Y j u.%.u V v y.$.t.< 4 >.Q.`.T.W.`.t.r.D.D.Y.!.!.Q.v.`.W.} Y.=.I +.v ~ V / Z ( | S $ . / O.U.D.D.b.b.v.t.i.v.v.s.v.Y.i.Y.T.i.w.w.w.w.`.Q.E.f.].~ / $ ",
"8 j $X!.T.T.T.'.j u & & * - u i * i * 4 i s Z u * >.e.Z m / Z 3 = / U A i u p S i p n u u m v l p M g l g 1 g 4 u l c &.&.G.e.< i @.+.w.@X}.V.{.].T.!.`.'.} C 1 s i p p | S F ^ s i _ =.i t.~ 8 9 } d s j 1.+.D.v.Y.b.N.U.M.v.z.v.M.N.'.'.'.].z.].v.N.U.*XH.%.i ",
"V S s A & # g , d ^ F * * = - * = # * = a u - # s * i 4 5 s / - a B a a 4 5 i 4 s 6 i i u a a i i i u V b A 4 A u Z Z Z i j | 6 + A a i _ E i j v A v i i } | g.v A S | S a u Z a n j A s 5 & 3 6 C a s A j p E p A p p u p j ~ s n n 4 u S | S F Z v v A s A 5 ",
"- 6 4 o . o * & # # - # # = = O O - # = = # # - + O + O O O * 7 = = O # - # + # + o . . X X     . . &   &   & . & & & & & + 3 v q # o X . X X < X & X # X $ . o X # X o   . o     & * & - 3 = a r # o o & X $ , X X X X o $ $ * X X X X X * * X * X o   o & & % "
};
