/* XPM */
static char *result[] = {
/* columns rows colors chars-per-pixel */
"128 128 235 2 ",
"   c #3C2C1D",
".  c #36281A",
"X  c #3E301F",
"o  c #220023",
"O  c #2C0027",
"+  c #3E1829",
"@  c #3D2E21",
"#  c #3D2525",
"$  c #3E3124",
"%  c #3F3429",
"&  c #412E1D",
"*  c #46311E",
"=  c #49321F",
"-  c #461A2D",
";  c #45132F",
":  c #422C23",
">  c #462629",
",  c #443324",
"<  c #4A3625",
"1  c #4E3827",
"2  c #453629",
"3  c #493729",
"4  c #47382B",
"5  c #4C3A2A",
"6  c #513A27",
"7  c #533D2B",
"8  c #593F2C",
"9  c #513622",
"0  c #4E3E31",
"q  c #513F30",
"w  c #563631",
"e  c #56402E",
"r  c #5A412E",
"t  c #554131",
"y  c #5C4432",
"u  c #5E4836",
"i  c #59483B",
"p  c #60452E",
"a  c #614632",
"s  c #624936",
"d  c #644C3A",
"f  c #6A4E3A",
"g  c #6D533E",
"h  c #5C4D43",
"j  c #5E5148",
"k  c #685549",
"l  c #6C5C52",
"z  c #6D584A",
"x  c #76655A",
"c  c #6F6159",
"v  c #7A6C66",
"b  c #7E716A",
"n  c #806A5E",
"m  c #826E67",
"M  c #84756A",
"N  c #887A77",
"B  c #8D817C",
"V  c #95877D",
"C  c #8A7D85",
"Z  c #877C84",
"A  c #917F84",
"S  c #8C8284",
"D  c #8D828B",
"F  c #8F898C",
"G  c #928485",
"H  c #92858C",
"J  c #948B8D",
"K  c #998D8D",
"L  c #968B84",
"P  c #9B918E",
"I  c #98928C",
"U  c #928691",
"Y  c #958C92",
"T  c #9A8D93",
"R  c #9D8F9B",
"E  c #978F98",
"W  c #959293",
"Q  c #9B9394",
"!  c #9C9995",
"~  c #9C949B",
"^  c #9D9A9B",
"/  c #979698",
"(  c #8F8890",
")  c #A29495",
"_  c #A49A96",
"`  c #A2969C",
"'  c #A49B9C",
"]  c #AA9D9D",
"[  c #AA989A",
"{  c #A5949C",
"}  c #AAA29E",
"|  c #A5A39E",
" . c #B0A19D",
".. c #9E9BA1",
"X. c #9D95A1",
"o. c #A495A3",
"O. c #A49CA3",
"+. c #AA9DA3",
"@. c #AA9DA9",
"#. c #A69AA9",
"$. c #B09DA5",
"%. c #A5A2A4",
"&. c #ACA2A4",
"*. c #AEAAA5",
"=. c #ACA4AB",
"-. c #ADAAAC",
";. c #A6A4A9",
":. c #B1A4A5",
">. c #B2A5AC",
",. c #B3ABAC",
"<. c #B6ABA7",
"1. c #B8B3AD",
"2. c #ADA4B2",
"3. c #AEAAB1",
"4. c #B1A6B3",
"5. c #B3ABB3",
"6. c #BAACB4",
"7. c #B4ACBA",
"8. c #BAAEB9",
"9. c #B5B2B4",
"0. c #BBB3B4",
"q. c #B5B3BA",
"w. c #BCB4BA",
"e. c #BCB9BD",
"r. c #B7B9B6",
"t. c #AFB1B4",
"y. c #C3B4BB",
"u. c #C4BABC",
"i. c #CBBCBC",
"p. c #C2B6B5",
"a. c #CDBAB7",
"s. c #C6C2BC",
"d. c #D4C2BD",
"f. c #D7C5BE",
"g. c #BDBCC2",
"h. c #BBB5C0",
"j. c #C4BCC3",
"k. c #CBBDC3",
"l. c #C5BBC7",
"z. c #D3BEC4",
"x. c #BDC1C3",
"c. c #C3C2C5",
"v. c #CDC3C5",
"b. c #C4C4CA",
"n. c #CCC4CA",
"m. c #CCCACC",
"M. c #C7CACA",
"N. c #D4C5C4",
"B. c #D9C6C4",
"V. c #D5C9C5",
"C. c #DACAC6",
"Z. c #D3C5CB",
"A. c #DAC6CC",
"S. c #D5CBCC",
"D. c #DBCDCC",
"F. c #D6D1CD",
"G. c #DCD1CD",
"H. c #D8D8CE",
"J. c #CBCAD1",
"K. c #D5CCD2",
"L. c #DCCDD3",
"P. c #DCCED9",
"I. c #D7C9D5",
"U. c #CED2D4",
"Y. c #D6D2D3",
"T. c #DCD3D3",
"R. c #DDD9D6",
"E. c #DDD4DA",
"W. c #DEDADB",
"Q. c #D6D8D8",
"!. c #CCD1C9",
"~. c #E1CECD",
"^. c #E1D2CE",
"/. c #E1CED3",
"(. c #E1CEDA",
"). c #E2D4D4",
"_. c #E2D9D6",
"`. c #E9D9D6",
"'. c #E3D5DB",
"]. c #E9D6DB",
"[. c #E3DBDC",
"{. c #E9DCDD",
"}. c #E8D4D4",
"|. c #F6DEDF",
" X c #DEE1DD",
".X c #E3E1DE",
"XX c #EBE2DE",
"oX c #E8EBDE",
"OX c #F1E2DC",
"+X c #DED6E1",
"@X c #DEDBE1",
"#X c #D7DBE0",
"$X c #E2D6E2",
"%X c #E4DCE2",
"&X c #EADDE2",
"*X c #E5DEE9",
"=X c #E9DFEA",
"-X c #F2DCE5",
";X c #DFE2E3",
":X c #DEE3EA",
">X c #E4E2E4",
",X c #EAE2E5",
"<X c #E5E9E5",
"1X c #E5E3EB",
"2X c #EBE4EB",
"3X c #E6EAEB",
"4X c #ECEAED",
"5X c #EBEAE4",
"6X c #F2E4E4",
"7X c #F3EBE4",
"8X c #F2E5EB",
"9X c #F2EBED",
"0X c #FDEDEC",
"qX c #FBEAE8",
"wX c #ECF1EC",
"eX c #F5F3EC",
"rX c #FCF2ED",
"tX c #FDF6EA",
"yX c #EBE6F2",
"uX c #ECEBF3",
"iX c #EDECF9",
"pX c #E6E7F1",
"aX c #F2EDF2",
"sX c #FCEDF3",
"dX c #F5E9F7",
"fX c #EEF1F4",
"gX c #EDF2FA",
"hX c #F3F1F5",
"jX c #FDF4F4",
"kX c #FDFCF4",
"lX c #F4F4FA",
"zX c #FEF5FC",
"xX c #F5FDFC",
"cX c #FFFEFF",
"vX c #F6FAF4",
/* pixels */
"y 5 7 @ & : .   & * = * < = <       = = & 9 * 1 e f t t 7 a , , 5 6 < 5 < 8 , < 6 6 8 < 1 < , < , , < , , 6 6 1   < 1 6 , e u 5 e 4 t 1 $ 1 e 7 5 5 r 7 e 8 7 4 3 t r 7 r 7 e 3 y t u e q t u t 5 t t t t t t t 4 7 t 5 y d e t % 4 u 5 2 3 7 7 , 5 8 5 t e u y ",
"t t 6 <.jXkXkXcXcXcXcXcXcXcXcXcXcXcXcXcXcXcX1.X t u f y , N a.|.jXjXcXcXcXcXcXcXcXcXcXcXcXcXcXcXcXcXcXcXcXcXcXcXcXcXcXcXcX[ r u u y 1 ^  XU.r.+ - - - > , 9 6 , 7 6 < 1   1 1 5 u y s t , 3 3 6 : , 8 6 < 8 , 5 $ @ 3 8 7 7 1 7 , 1 $ 7 , l B _ <.p.1.1.V 8 s s ",
"s e v.[.9XjXcXcXcXcXcXcXcXcXcXkXcXcXcXcXcXcXcXcXcXt a l.(.sX6X0XsX0XcXkXtXrXcXcXcXcXcXcXcXcXcXcXcXcXcXcXcXcXcXcXcXcXcXcXcXcXcX6 7 h 3XxXcXcXcXcXcXcXcXcXcXcXcXcXcXcXcXcXcXcXcXcX,Xa u N (.8XcXcXcXcXcXcXcXcXcXcXcXcXcXcXcXcXcXcXcXcXcXcXcXcXcXcXcXcXcXcXcXcXcX8 ",
"y o >.i.C.T.S._.T..XG.F.>X_.>X_._.H..XXX5XrXcXcXcX< 1 @.j.(././.D.A.D.A.D.C.^.`.).L.R.`._.{.).{.2X7X,X)._.[.%XR.>X.X{.7XcXcXcXB 7 b.J.2XcXlXzXcXcXcXcXcXcXcX0XsXsXjXcXcXcXcXcXcXcXr 8 4.j.E.2X>X6X,XaX9XzXlXzXcXcXaXjXzXzXcXhXzXlXjX2XhXjX2X>X3X5X,XwXcXcXcXcX1.",
"6 o Q u.V.S.T.T.T.H.D.R.F.H.[.^.C.H.R.F.R._.cXcXcX7 s R #.z.Z.A.L.D.A.B.D.B.~.D.C.D.G._.T.).C.,X2X&XXX,X,XR.2XR.,X,X_.D.qXcXcX5X9 5.7.Y.1X*XyXpX1X1X1X*X1X1X%XL.L./.'.$X[.aXcXcXcX8 7 R +.n.K.K.D.F.A.W.T.3X1X@X%X;XW.Y.<XW.R.W..X>X>X>XR.E.@X>XR.W.;XW.xXcXcXcX",
"6 o J n.S.S.T.F.T.D.T.R.'. X>XoXR.H..X_.H.F.tXtXkX8 7 U #.B.z.I.L.L.T.).).A.).D.G.).G.'.T.[.,X2X,X,X,X2X2X'.>X'.>X.XR.S.5XcXcXcX< >.' =X*X2X2X2XyXyXyXyXyX*X'.E._.'.%X%X%X$XzXcXcX8 3 ( ~ Z.L.S.D.A.Y.uX3X<X1X3XW.<XR.E.R.E.Y.E.W.4X;X[.W.3X<X>X X>X:X;XgXcXcXxX",
"r o F S.S.S.T.T.D.F.>X.X5X[.>XG.G.R.G.F.R.R.7XcXkX7 3 U @.z.Z.A.V.L.E.).)._._.).T.'.'.'.{.}.9X8X2XfX,X,X[.2X4X,X'.[.[.[.4XcXcXxX< =.Q yX=XyX2XyX2XyXyX2X=X2XyX1X'.].$X&X%X%XcXcXcX7 5 D o.K.n.S.V.A.'.T._.R.>X@X1X>XR.Y.Y.%X%X@X3X4X<XE.Q.%XW..X.X3X X>X<XcXcXxX",
"1 o S S.v.D.F.F.F..X.XR.F._.5XH..XG.T.R.C.R.vXkXkX, 8 C +.N.Z.A.Z.L.L.L.L.L.L.R.`.%X{.^.}.F.,X5X5X2X2X5X2X,X3X,X>X_.T.R._.kXcXvX& +.#.2X=X=X=X2X=XyXyXiXyX2XyX2XyXyX$X=XyX=XcXcXcXt 3 S X.Z.Z.D.B.T.Y.E._.@X;XE.3X,X%X@X>X[.3X3XuX>X<X>X3XR.[..X;XW.>X:X3XcXcXxX",
"r o B v.S.R.'.T..XY.F.R._.^.R._.G.R.R.H.H.S.eXcXcX* 2 D +.k.A.D.A.D.L.'._.L._.{.`.}.).^.^.~.,X{.XX,X1X4X2X2X>X[.[.T.T.T.R.cXcX.X& +.~ $XyXyX=XdX2XyX2XyXyX2XyXdXyX8X=X=X=XyXzXcXxXi 2 C ` n.n.L.V.Y.V.N.R.1XK.W.Y.R.%X4X>X%X<X>X2X>XW.R.W.'.R.'.[..X>X;X3XcXcXxX",
"X o S d.Y.Y.R.%X>XT.R.[.^.F.F._.F.R.G.G.>XR.5XcXcX, t C @.A.I.z.N.A.N.T.'._.'.}.).^.D.).G.D.5X,X&X`.2X4X5X,X,X.X`.%X>X>XhXcXcX X  ] #.=X=XyX=XiXdXyXiXdX2XyXyXyXyXyXyX$X=X$XcXcXcXj 5 D ` K.I.E.v.Y.R.T.%XW.>X>XW.[.[.K.>X%XpX>X3XW.E.>XW.R._.F..XW..XQ. XcXxXxX",
"e o S v.Y.T.F.[.F._._..XH._..X_.D.R.G.R.T.G.kXkXcX1 3 C &.A.A.N.Z.T._.A.L.T.'.).^.G.^.^.D.D.,X5X>X,X2X5X,X,X,X,X[.>X[.[.XXcXkXF.< 5.~ yX*X*XdXiXyXdXyXyXyXyXyXyXyXyXyX*X$X*XzXcXcXc 5 A X.K.I.Y.E.E.E.E.%XY.>X>X;X[.W.Y.W.1X>X>X>XW.Y.[.W.W.[.oX.X X.X.X>XcXcXxX",
"e o F v.Z.N.T.D.T.W._._._..X^.F.R._.R.V. X.XkXrXvX1 1 D +.A.E.N.L._.^.D.A.T.G.^.^.~.G.D.).^.[.,X>X>X2X,X2X3X,X3X[.[.[._.,XcXqX!.& &.@.=X$XyXyX=XiXyXyXdXyX2X=XyXyXyX*X$X=X$XzXcXcXm 2 ( ~ K.K.E.Y.;X%X%XE.E.T.Y.%X%XW.@X[.R.>X@XW.>X>X.X3X>X>X[._.[..X.X XcXcXfX",
"1 o B K.v.Y.S.F.G._.R..X_._.G.[._.F.R.'.R.R.7XkXcX: q A >.A.D.Z.L.D./.C.G.D.D.C.C.^.^.G.^.D.).[.>X,X2X,X,X2X,X2XR.R.%XR.5XcXkXY.< &.#.2X*XdXdXyXyXyXyXdXyX8XyXdXyXyX$XP.yXP.zXcXcXv e D X.K.U.L.Q.*X,X@X%XW.%XE.Y.R.%X%X[.E.<X>X>X1X>X3XW.>X<X[.R.R.R.W. XcXcXxX",
"6 o S v.T.R.D.H.R.R.[.5X.X[.[..X_.R.R.R.V.F.eXcXcX6 q C @.z.A.A.).L.).G.D.T.G.D.C.C.G.G.D.D.C.R.[.2X,X5X_.,XD._.>X[.[.>XlXcXcX!.< 5.` =XyX$X=XyXdXyXyXdX8XyX=XyXyXyXyX(.yX$XsXcXcXx r F ~ I.K.m.@X1X*XY.;X1X>XW.2XW.R.Y.W.%XW.%XW.W.%X>X@X3X;X>XR.R.R.R. XcXcXxX",
"= o I F.v.S.T.R.R.[..X_..X_.F.H._.R..XF.R.R.cXcXkX6 7 C ` N.D.A./.).).T./.'.).D.C.D.G.D.D.G.C.F.'.2X`._.'.)..X_.[.,X%X,XhXkXcXV.1 +.` =X=X*X*X8XyXyX=XyX&XdXyX=X=X=X=X'.'.$X9XcXcXx 3 D T K.n.Z.K.@X@XpX1X>X1X@X%X%XT.3XR.%XW.1XW.R.>X X@X<X>X;X@XR.Y.R.<XcXcXxX",
"= o F v.v.S.R.C.T.[._..X_._..X_._._.R.H..XR.tXkXkX3 5 C #.Z.N.B.B.D.A.D.L._.}.C.V.C.G.G.G.D.G.'.>X_.'._.F.^.).'.[.`.R.>X4XkXcXF.8 3.T =X=X$X$X*X=XyX=X=X*X(.yXyX2X&X%X=X'.L.-XcXcXx 5 H ~ I.Z.J.+X;X>X@X@XW.>X@X%X@XR.W.W.Y.Y.,X1XR.W.@X>X>X3XQ.W.W.W.>X3XcXcXxX",
"e o H Y.Z.R.R._.H._..X_._.H.R.H.H.T.R.[.[.R.tXtXvXe t C o.Z.Z.D.)./.D.T.).D.G.C.d.A.G.G.G.G.D.T._._.T._.G.G.)._._._.T.[.2XkXcXW.& ,.Q =X&X$X$X'.*X=XyX*X=X=X].*X=X=X&X'.'.$X8XcXcXx @ U ~ J.Q.P.K.:XW.E.1X@X%XY.1X[.%XR.R.Y.R.[.>XR.W.W.pX>XQ..X;XW.Q.3X3XcXcXxX",
"1 o J K.Y.S.R._._.^.^.^._.R._.oX.X_.R.R.H.H.7XkXcX, r D +.L.D.A.D.C.A.^.D.).G.A.C.F.D.T.G.A.D._.'.^._.L.G.T._._._.R.[.R.5XcXkX[., ,.~ %X$X$X$XE.=X2XdX2X*XyX'.&X=X=X(.(.].P.dXzXcXn 8 U ~ P.K.P.Y.W.E.E.W.>X%X<X%X).Y.W.E.%X3X[.W.[.E.R.W.R.W.Q.3X;X3X3X3XcXcXxX",
"X o F Y.Y.F._._._._._.H.G.H.H._.R.[._. X_.R.kXcXkX1 5 D ` Z.N.A.N.A.).).).D.L.'.R.D.D.G.C.G.L.R.T.'._._._._.T._.T.D.G.R.2XcXkXH.& 5.` [.'.P.'.$X$X*X$X=X=X%X]./.$X'.'.I.(.I.zXzXcXx 3 C X.J.P.E.I.Y.1X>X1X4X%XY.E.>X[.Y.R.E.,X>XW.E.%XR.>XW.W.;X>X3XW.Q.4XcXcXcX",
"X o Y T.L.T.H._.H._._._._._._.oXH.XXH.[..X XkXkXkX1 3 F o.I.Z.E.L.D.D.N.D.T._.T.T.[.~.).D.D.A.%X,X{._.T._.'.C.D.C.C.G.F.2XcXcXV.& 5.` '.'.$XE.P./.I.L.'.$X(.$X(.A.(.E.L.=X*XsXzXcXn 5 D ~ Z.K.Q.E.W.3XY.%X@XW.[.R.[.%XR.@X<XR.>X<X%X%XR.W.@XR.W.>XQ.R.Y. XcXcXxX",
"e o G v.H.C.^._._._._._..X^.H._.V._.H.C..Xf.OXtXcX: 2 H Y Z.Z.E.T.L.L.D.L.T._.%X{.L.,XD.[.T.[.).'.).G.T.).D.^.G.D.D.S.T.`.jXcXs., 4.~ '.$X'.I.I.'.I.Z.I.$X(.$X*X$X].(.$X$XL.zXcXzXm y U E Z.Q.K.E.:XE.Q.W.%X%XW.T.Y.'..XW.>X'.[.E.W.>X[.W.W.R.@X>XR.Q.Q.>XcXcXxX",
"e o F <.G.H.^.H._._.H.oX^..X^.H..X_.<X>XF. XXXvXeX6 3 H S 6.A.P.'.[.,XL._.).[.,X).2X,X,XXX,X,XR.{.)._.^.).^.^.D.G.L.[.).9XjXkX<.6 =.T Z.'./.D.'.P.(.Z.A.(.L.(.'.(.$X*X$X=XP.zXsXzXx , U D l.E.E.K.S.Y.Y.W.%X[.R.R.[.[.>X[.;X;X.X@X<XW.>X>XW.[.>XW._.;XR.fXvXvXxX",
", o F B _  .<.1.1.1.<.*.*.*.-.<.<.<.1.1.1.r.!.<XvXe r H S H ' =.>.5.+.&.>.,.,.:.0.0.0.w.0.w.0.y.p.u.1.0.1.0.p.0.p.m.M.s.Y..XkXM 1 =.T =.k.I.L.*XL.(.P.P.$XP.].A.I.(.~.(.I.I.(.-XsXk 5 U C #.6.n.n.U.E.W.W.W.Y.Y.Y.F.F.S.Y.S.n.Y.n.m.M.m.c.e.m.M.J.c.x.1.!. XwXm.",
"y O W I I I ! V _ I I _ ! ! ^ ! ! | ! ! | *.s.R.eX8 5 U ~ Y ~ ~ Q Q O._ %.o.%.%.` ~ _ ' ) ! Q ! ! Q P K K K L G W W ! &.e.F.4X. , >.` J H C C U T U U H U A G U ~ U H U T { y.z.-X5 8 E W F F J F Y Y / W J W F I W W W W W W / ^ / ! ~ W ^ W W ^ ! ! ;.e.V.3X< ",
"4 @ W ' *.,.*.&.<.<.1.r.<.1.9.r.r.9.e.r.r.x.M.m.| < e % ^ ~ O._ &.&.=.*.=.,.,.9.q.9.<.<.,.*.9.9.,.:.&.&.} &.} -.-.=.*.9.r.c.1X7 5 j #.` o.T T Y T E R R T T T K T o.R T T +.>.y.z.8 5 N ..~ ~ ` ~ ~ O.' ' O.%.%.;.;.| | ;.-.-.*.3.-.3.*.3.3.t.t.t.t.-.t.x.x. X2 ",
"e e 4 1 6 5 8 7 a e 5 , 3 3 8 7 7 7 1 8 , 7 1 2 4 5 4 e e 3 5 , , e 7 r 8 e , $ e , e 5 4 1 e , 4 7 , 4 1 3 , e t 3 5 3 < 1 y q q 5 7 v +.#.o.#.o.o.R o.o.o.#.o.o.$.o.o.#.o.$.$.w 4 q q 3 N q.e.r.e.r.5.9.*.&.%.' ] _ Q I B b x l t , e 4 7 5 7 r t e 5 5 e 5 e ",
"t y t 8 , @   .   6 e , , , @ < , 6 , < , < @ 8 5 y u y u s 7 t X , 7 < 8 7 8 , 4 , $ 7 7 q r d y 5 y y t t t t u s 5 y q q y u q q 7 <   = & *   = : # &   . < & = & * = * * 4 y q 0 q t r 8 y 8 5 8 , a r 4 7 5 7 7 e 6 7 4 t s u s t e t t q 5 r s r t g u e ",
"t 4 R.oXkXcXcXcXcXcXcXcXcXcXcXcXcXcXcXcXcXkXcXcXp.r e s a z 1.5X5X5X5XwX<X XF.s.p.<.*.V L M M m x c k 4 7 r 5 , , t i y , 7 0 t s 3 xXcXcXcXcXcXcXcXcXcXcXcXcXcXcXcXcXcXcXcXcXv.8 0 q q s 7 7 r , < 2 @ @ 1 1 1 < , 1 , 5 @ < 7 7 1 7 1 , 7 5 u h x v x k 2 t e ",
"u h s.H.eX7X7X5XXXXX5XOXXXoXoX7X7X7X7XeXkXrXcXcXcX5 t 3 R..X7XeXeXeXvXkXcXkXcXkXkXrXrXcXkX7XkXkXcXcXcXcXcXcXcXcXcXcXkXcXcXcX, t s P :XxXcXcXcXcXcXcXcXcXcXcXcXcXcXcXcXcXcXcXcXcXcX6 t 5 L kXcXcXcXcXcXcXcXcXcXcXcXcXcXcXcXcXcXcXcXcXcXcXcXcXcXcXcXcXcXcXcXxXP < ",
"a <.} p.F.H.T.G._.H.G.F.V.F.V.V.R.m.F.!.F._.cXcXcX@ t 7 s.v.XX7XrXkXcXcXcXkXcXtXtXtXqXtXtXkXkXkXcXcXcXcXcXcXcXkXcXcX9XkXcXjXcX8 8 e.x.W.:X X;XW.;X>X;X;X:X>X;XQ.@XR.;X3XwXcXcXcXcX6 s 2 '.9X0XjXjXcXrXkXcXcXcXcXcXcXcXcXcXcXcXcXcXcXkXcXcXcXcXcXcXcXcXcXcXcXcXe ",
"r ,.%.Y.F._.[.R._.H.F.C.C.V.C.C.F.G.W.W.R.H.OXkXkX< 5 , p.1.F.H.R.S.Y.R.R.R.R.H.G.^.^.C.C.G.V.[.R..X4X_.,X_._.T.[.5X5XjXjXeXcX* 3 -.-.:X:X>X<X;X>X;X:X3X;X@X;XR.Y.F.Q.W.#X:XcXcXcX8 4 @ Y.F.4XjXeX7XXXsX{.9X{.hX7X,X2X7X7XXX{.XXhX,X,XzX9X7X9XaXvXcXcXcXcXjXcX8 ",
"1 t.! R._.R._..XR.R.C.G.G.C.F.C.C.F.^._.G.C.OXkXkX, e 6 r.r.d.H._.R.H.R..XY. XH.f.G.G.G.G.G.R.T._.R.V.S.F.Y.R.R.R.T.XXrXkXjXcX< , -...;X>X<X X>X3X@X>X;X X.X[.W.R.F.T. XR.3XcXcXcX6 t i M.j.R.%X,X2XG.G.C.G.D.).'.5X%X.X'.).XX[.>X[._.3X,X%X,X,X2X`._.cXcXjXcX* ",
"5 ,./ R.[.T.[.)._.T.V.G.G.C.G.^.C.G.G._._.F.OXkXkXe 5 5 r.*.f.R.R.'.R.W.T._.T.R.G._._.C.F.D.Y.).R.R.R.V.T.R.R.R.R.R.R.8XjXkXcX8 e %...>X X3X3X1X<X>X>XoX.X>X>X.X_._.T..X[.;XcXcXcX8 5 l c.w.`.&X[.{.^.,XC.G.}.T.)._.[.>X{.>XaX2X>X{.`.,X2X,X,X,X4X>X{.cXjX0XcX@ ",
"5 } ! F.[.T.H._._._.^.G.C.C.G.G.G.G.C.C._.C.`.kXkXt t , 1.} F._.H.S.D.H.G.F.T.S.F.F.T.T.G.G.R.W._.R.R.T.E.R.[.T.T.T.T.rXjXjXcX5 5 | I W.T.'.R.R.<X>X>X>X>X5X,X3X.X[.R.[.>X[.cXcXcX5 5 x g.,.%X[.{.{.{.)._.).).{.{._.`.[.aX2X9X,X,X3X,X>X,X,X[.2X,X&X[.zXcXrXcX@ ",
"a ! ! m.'.H._.F.'.G._.T.G.D.C._.G.C.F.^.^.^.OXkXcXy t @ <.&.V.[.[.C.V.V.G.G.G.F.).T.F.).G.L._.R.Y.'._.G.R.).[.'._.T.L.6XcXkXcX6 t O.W >XY.R.>XR.@X;X1X>X>X>X<XY.W.R.E.L.>X>XkXcXcX8 5 c j.,.).'.`.,X^.)._.^._.)._.XX{.{.>X%X.X&X4X4X,X2X2XaXaX'.,X%X[.cXcXrXcX, ",
"7 ! ^ Y.R.S.[.A.R.T.D.[.F.G.).H.^.C.C.C._.G.XXkXcXt u 4 x.} F._.R.V.G.C.G.F.C.^.).G.G.T.D.T.R.R.`.T.R.D.T.).R.L.L._._.7XcXcXcX< e | J >XY.>X XR.T.W.1X%X<X.X>X[.W.W.R.Y.R.>XjXcXcX6 4 c w.*.R.,X4X{._.[._._.2X_.[.[.,X2X_.2XuX8XlXaX2X9X4X9X9X_.2X`.[.kXcX0XcX< ",
"3 ! ^ S.[.G.oXT.D.G.G.H.D.C.G.T.C._.f.C.N._.XXcXcXr y @ e._ T..X_.T.A.G.A.R.G.S.[.D.T.G.N.F._._.Y.T.G.T.D.D.F.D.D.D.D.6XcXcXcX, 7 ' I >XR.,XW.W.R.R.%X,X>X>X>X>XW.F.R.W.<XT.jXcXcX7 t x <.:.).{._.{._.`.{.,X).7X&X_.%X2X,X=X&X,XaX9XaX9X4XaXaX2X_.{.).jXcXcXcX, ",
"e _ ! !._.D.G.G.F.^.).G.C.C.G.G.C.G._.C.D._.{.kXcX, q , 9.] T.W.R.R.R.F.C.V.F.V.R.D.)._.V.F.A.G.`.T._.T.D.D.)._.D.T._.7XjXcXcX: r *.F %XW.%XY.'.R.W.W.%X>X>X>X>X'.<X>X>XT.E.jXcXcX< e m <.:.^.)._.[.`.,X).{.%X,X).).).8X2X[.aX9X=XaXaXaXuXaX4X{.&X).).rXcXcXcX, ",
", -.' V.)._.G.C.d.^.^.XX).C.^.^.^.G.).'._.V.XXcXcX, t r 9.} T.[.R.D.D.D.T.C.C.C._.S.F.G.G._.D.R.T.R.T.T.D.R.R.T.T.D.D.9XjXkXcX, 2 -.W R.[.R.R._.'.Y.@X<X[.W.,X>X,X5X.X`.'.R.cXcXcX. 5 x 0. .}.`.).`.`.2X).'.{.{.6X)._.8X,X`.9XaX9XaXaXaXaX4X9X8X,X{.{.jXcXkXcX< ",
", ,.' S._.^.^.^.f.C.G.^.F.V.T.D.[.G._.L._._.{.cXcX5 2 8 r.&.Y.>XH.D.C.T._.^.).[._.>XA.D.G.R.G.T.T._._.).T.T.^.C.).T.V.9XcXrXcX, 3 -.I Y.[.).F.T..XY.Y.E.1X1X3X3X4X3X,X%X'.E.vXcXcX, 4 v k.<.^.{.}.).).8X9X,X[.{.,X).^.8X{.9X,X8X9XaXaXaXaX9XaX9X{.,X).zXcXcXcX@ ",
"8 *.' T.D.D.D.D.G.V.C.^.C.T.G.G._.D._._._._.&XcXcX, u r e.=.R.`.G.C.G.D._.F.T._.[.[.D.T.T.T.T.).T._.L.G.^.C.G.G.G.C.D.qXjXjXcX< 5 ;.W @XR.T.F.G.T.R.R.R.>X>X>X[.>XE.R.%X>X@XcXcXcX, 8 v e.,._.{.`.)._.{.4XaX{.,X{.XX{.,X{.aX8X9XlXaX8X,X4XyXuXlX9X{.{.jXcXcXcX, ",
"a } I C.G.C.^.B._.D.G.F.f.V.D.G._.D.`.T.T.).7XcXcX5 4 , e.-.R._.G.G.G.V.T.A.T.G._._._.G.T._.).T.D.R.T.).^.G.).^.^.^.V.{.rXkXcX, t -./ >X[.>XT.R.'._.)._.5X3X>XXX[.W.R.W.R.[.cXcXcX, 5 v u.w.&X{.,X{.&X,X&X2X8X{.{.{.,X6X`.aXaXaXdX7X8X8X8X7X2X,X,X4X[.zXcXcXcX< ",
"y } L D.G.A._._.G.C.G.A.C.d.D.F.^.G.D.G.G.T.6XcXcX, e , r.:.D._.G.C.G.C.^.V.C.G.D.[.R.T.T.T.D.G.D.T.G.C.G.^.).G.G.T.C.OXqXrXcX7 a ;.W %XW.'._.T.T._._.%X>X>X1X.X[.[.[._._.'.cXcXcX7 e v e.5.%X{.&X2X).&X8X6XaX{.-X{.6X,X&X&X9XaXaX9X2X9X9X2X,X[._.=X_.zXcXcXcX< ",
"5 ,.P ).^._._.D..X_.C.C.C.^.f.C.G.C.C._.`.D.XXcXcX6 t , ,.+.F._.C.^.G.D.^.C.).C.D.[.[.A.D.D.D._.5X^._.f.C.^.^.^.D.^.~.OXqX0XkX1 7 P W R.[._._.).G.T._.E.,X,X>X1X2X_..X_.).R.jXcXxX  % v j.,.&X,X,X6X,XT.2X2X9X9X6X=X8X{.{._.}.8XjXaX9X9X7X2X`.G.D._./.0XcXrXcX, ",
", &.P {.XX_._.)._.C.G.C.C.G.C.G.C.C.G._._.T.6XcXcX, s y <.+.N.D.C.C.C.C.N.R.G._.'.5X).D.L.D.)._._.G.G.C.G.^.G.G.G.G.^.OX0XtXjX6 4 J W R._.[._..X_.R.%XR.'..X1X2X1XR.R.R.'.'.kXcXcX, 7 M l.e.].&X'.8X0X}.2X,X,X,X{.&X&X=X&X-X{.=X&X^.`.}.).).}.).).^.).qXcXjXcX& ",
"7 _ L ^.f.C.^._.^.^.C.C.D.C.C.G.).C.T.)._.T.9XcXcX5 u h 0.*.G.D.G._._.G.B.T.).T.Y.[.[._.).D.A.D._._.G.C.G.^.^.T._.^.~.XXtXtXcX8 r S ~ Y.'.R.R.W.%XR.E.%XT.K.R.%X3XA.'.%X[.R.cXcXcX< 4 v b.0.2X2X'.9X,X,X7X7X6X{.{.'.{.'.'.`.[.{.6X{.`._._.`.).}.)._.).0XsXjXcX< ",
"p } ! _.^.^.~.C.C.C.C.).D.C.C.f.G.G.T.%X_.[.0XcXcX1 3 x <.] D.[.C.C._.C.G.[.R.R.[.>X>X.X).T.R.T.G.D.~.C.C.^.'.[.).G.F.6X0XqXcX  r B W Y.R.E.%XR.>X>X[.@XR.R.T.Y.'.1XE.T.R.W.jXcXcX1 5 x l.9.2XaX2X/.{.8X2X2X=X,X,X'.7X).[.&X[.&X%X`.{.{._.}.}.).)._.).sXzXkXcX@ ",
"< _ P XX^.~.f.^.^.B.B.^.G.^.D.F.V.B.T._.R.T.7XcXcX1 5 B r.:.G.G.C.G.G.C.T.'.`.[.,X_.[.,X[.>X,X[.[.,X5X3X_.^.D.D.^.).G.OXjX0XkX< % S H R.E.W.[.>X%X[.,XT.).Y.E._._._.W.%X[.%XzXcXcX, t m c.5.4X8X&X9X&X&X=X2X{.,XD.&X,X{.).{.).'.&X6X{.^.`.)._.).).)._.jXzXjXcX, ",
"< ' K ^.^.G.^.^.C.^.D.).).D.D.D.D.A.C.G.D.D.OXcXcX, 5 K ,.*.D.T.R._.>X`.'._.R.%X_.'.[.>X>X.X,X>X,X5X,X_.3X_.).G.).^.G.6XrXtXjX1 e G I Y.W.W.[.%XW.%X%XW.T.).L.R.L.T.T.[.[.1XcXcXcX, a b b.w.aX2X=X,X9X-X,X6X&X,X6X^.].{.,X).}.[.&X,X{.`.}.}._.^.).^.D.jXjXcXcX< ",
"3 ] P ^.^.`.^.C.C.D.f.C.).D.D.R.G.G.G.G.D.C.qXcXcX6 5 K <.,.V._.'.%X[.[.'..X[.`.XX_.[..X>X[..X,X,X>X,X.X,X,X_._.T.).C.OXrX0XrX1 y L ~ Y.W.'.%X[.Y.%X%X[.R._.T.R.Y._.T.G.R.%XcXcXcX6 y b j.w.2X2X8X&XyX9X'.,X,X{.8X=X{.=X{.{.}.).'.6X|.{.}.}.}.^.G.D.C.qXcXcXcX, ",
"y %.P ^._.)._.).L.D.B.).d.G.B._.G.V.D.G.T.B.OXtXcX5 7 _ %.*.D.T.[..XR.R._.R.W.2X,X[.[._.[.[.2X>X,X,X>X%X5X,X[.[.T.D.C.OXqXtXtX6 e J J @XR.E.[.%XR.%X>XR.T._.L.A.L.R._.L.T.Y.cXcXcX< 3 M w.0.2X9X2X=X2X2X,X,X`.%X,X2X=X,X&X{.~.}.&X&X,X|.{.`.D._.}.}.D.0XcXkXcX, ",
", ] P C.[.T.`.T._._.f.f.d.B.d.V.D.).G.T.D.B.jXkXcX1 , } :.&.V.[.[.[.&X_.L.[.R.[.>X,X[.%X[.>X,X[.,X>X5X,X>X>X_.>X).G.C.OXtXqXtX= 5 I J @XE.Y.[.%XW.W.>XW.Y.T.D.T.T.T.I.E.[.%XcXcXcXa q N w.0.=X8X2X6X&X9X9X}.{.,X&X6X6X,X`.}.}.{.&X_.[.&X,X'.}.'.{.{.).jXcXcXcX: ",
"5 ] P ~.{._.).~.~.D.f.^.d.d.N.C.V.D.D.T.^.D.cXcXcX6 7 ] =.] [.R.E._.%X[.Y._.[.%X>X.X[.>X>X>X%X,X2X,X>X2X,X,X[.'._.L.L.7XkXqXkX7 5 ! Y Y.uXT.E.R.R.E.@X,X[.R.D.K.R.V.T.R.R.%XcXcXcX, t V w.6.2X2X,X2X{.=X,X-X}.[.&X&X&X_.~.~.^./.&X_.[.&X'.[.'.`.=X{.`.zXjXcXcX: ",
"r &.P G.[.D.T.D.~.^.D.C.V.B.B.L.C.C.C.D.[.R.cXcXcX1 5 ] ,.&.`.V.R.'._.[.`.Y._.[.[.%X%X[.%X[.%X>X3X3X1X,X,X>X.X[._._.'.9XjXjX0X8 a _ Y E.%X,X,XL.Q.E.[.E.%XD.D.V.%XL.D.L.T.T.sXcXcX& t V e.,.'.=X8X,X&X,X[.=X).,X=X&X{.}.C.}.).{.&X'.&X&X}.).).).'.[.`.jXcXzXcX< ",
"8 %.) ).[.A.A.V.V.T.d.C.V.f.B.V.C.G.D.A.Y.V.0XcXcX1 e ] ] +._.I.[.[.T.R.'.T._.'.[.[.[.[._.'.'.3X,X>X,X,X%X>X>X[.T.L.T.8X0X0X0X5 2 &.Y R.W.R.@XR.L.L.Y._.[.D.T.S.K._._.T.'.E.aXcXcX6 7 S j.w.,X&X&X{.6X,X'.'.)./.&X).).,X'.~.D.&X'.'.&X'.).).^.{.]._.'.jXcX0XcX6 ",
"5 ' Q .XY.A.V.T._.C.C.A.B.N._.V.D.D.T.'.D.L.cXcXcX, 1 ] ] ] ).V.E.'.'.T.R.E.R.A.[.[.[.W.[.[.[.[.%X>X>X1X>X,X,X,X).).T.6XjXjXjX: 3 ;.F W.@XW.L.1XL.R.%X@XL.D.D.T.E.Y.L.E.T.Y.jXcXcX< 7 K >.,._.%X&X&X).=X6X).}.D.[.).D.[._./.L.].&X'.'./.&X].].{.{.).'.0XcXzXcX< ",
"y ] Q _.f.~.B.B.N.C.B.N.N.T.B._.D.N.V.E.T.D.sXcXcX: 3  .[ _ A.`.R.A.D.S.D.L.S.T.R.W.)._.R.'.%X>X,X>X>X%X,X%X%X'.,XS.R.2XsXjXkX7 s -./ W.@X@X%XE.T.E.%XY.%XE.K.T.Y.Y.T.Y.E.Y.aXcXcX7 3 [ ,.=.).&X{.[.$X].%X/.[.L./.'.C.~.~./.'.].'.].).).{.=X].{.&X/.[.qXjXzXcX, ",
"8 O.Q _.a.B.f.d.N.C.V.L.N.C.V.G.N.d.N.T.Y.N.kXcXcX, ,  .] _ i.D.L.L.F.T.D.L.F.L.A.R.).T._.[.L.[.[.,X[.%X%X$X>X[.@XA.T.6X8XqXzX6 5 -.Y Z.R.E.R.%XE.Y.W.E.Y.%XE.R.Y.K.L.L.L.Z.sXcXcX, 8 _ w.6.%X2X].'._.)././.).)./.).D.~.D.L.'.'.P.L.'.L.L.{.'.'.]./.].jX0XzXcX6 ",
"y O.W ).B.a.f.f.d.N.N.G.N.N.A.B.D.N.N.L.D.N.zXcXcX, < [ _ ] u.A.R.L.D.T.E.N.I.D.D.D.A.A.N.V.B.D.'.R.W.%XE.R.%XW.[.Y.A.{.8X0XcX7 7 ;.F n.*XE.%XE.L.Y.%X@XE.@XE.E.%XA.Y.A.L.Q.8XcXcX6 y ] 6.&.Z.%X%XyX2X=X'.~.z.}.'.T.D.A.~./.'.'.'./.'.~./.D./.'.}.}.].8XsXcXcX@ ",
"8 ' J D.).~.i.B.a.d.d.L.Y.D.N.Z.D.d.i.L.B.).0XsXcXe 7 ) ] ] :.y.k.N.n.N.S.S.v.N.i.i.u.u.i.i.y.v.S.Z.Y.K.R.Y.K.A.K.i.v.N.D.].jX7 5 ;.Y n.E.K.Y.N.K.E.%X@XE.E.W.E.Y.E.K.Y.T.E.6X8XcX$ r T ,.:.6.k.P.E.%X'.(.).'.'.'.'.D.A.A././.(.(.)./.'.).$XL.D.I.i.N.{.-XsXcX, ",
"8 %.S 6.D.D.A.B.B.N.N.Z.L.'.N.D.A.C.B.D.B./.&XsXcX, q N +.] ' ' [ ~ ' #.O.} ' +.o.' ) ) ) _ ` _ O.' %.&.;.;.&.=.-.&.:.p.N.).sX6 u #.Y -.c.I.R.I.@X@X@X1X1XE.+XE.W.Q.I.E.E.Z.[.[.zX, 2 N $.$.:.+.=.>.5.>.&.+.&.&.:.+.+.&.>.=.+.+.+.+.+.+.>.:.$.$.:.6.y.Z.'.8XzX6 ",
"t O.W Y T ' [ ) _ ) [ ' ' +.&.] ]  .:.:.[ w.Z.&XzX, 0 i &.] [ ] O.] [ ' ] O.+.' ' ] ) ) _ ` [ ) ' ] ] #.&.&.=.+.&.+.] :.6.A.8X3 5 M ~ F D J Q E E ~ ;.......O...~ ~ Y J Q +.l.D.aX8 8 h $.+.5.>.>.w.4.6.>.>.&.>.>.:.+.&.=.>.>.4.>.>.+.>.>.$.5.,.+.4.4.j.n.%XzX5 ",
", v #.` T Y Y G H Y S H J H T S G A U U T [ p.I.8X, 3 , >.>.>.:.,.+.+.=.&.&.+.] ] =._ [ +.+.+.+.+.=.&.[  .+.+. .' =.>.>.<.y.x 7 q @ X.T J Y J Y Y ~ ~ ~ ~ ....X./ ~ T Y Y ~ 5.k.'.4 3 , >.8.6.>.5.8.8.8.6.>.6.8.6.4.,.>.8.4.6.>.6.$.6.>.4.6.8.4.>.6.8.w.l.P.: 3 ",
"t < ;.~ ~ H Y Y H Y H N H Y E T Y T T T T T ) >.x 7 q 8 t < c m x x k l h i d t 5 7 8 t 8 q k h k k k l x k k h d i 8 , $ 3 % % q 5 b O.R T T Y Y / X.X.X.....#.#.o.~ ~ ` Q #.8.7 y 5 7 8 q 5 z k x v M m N N G A K K K T T [ T ) T U N N v x l k d 0 q 3 5 y q ",
"t @ 7 7 5 y 5 3 e r 3 5 y 3 5 7 5 3 2 , 1 5 5 y 5 q q 5 5 0 t 0 t y 5 u u s t q 0 0 t y 5 u t s t 7 u q 3 s u t 5 y 5 4 4 t d y 5 0 t 5 e 4 y r 7 e e 7 e a r 3 6 7 :   < < 1 r 7 t u 4 q d 5 q 0 0 3 5 2 7 y u 7 y f 8 5 7 r y 3 3 r e , t q s 4 0 2 u u y d t ",
"i 2 7 w < < : > : > # > > : > < 1 $ 1 8   < , 5 s 0 y q , 5 8 8 r @ < , < 6 < 1 1 , 1 7 8 1 1 8 y < , 6 < r , < 5 e < 7 7 1 r e u 2 5 8 - ; - - + + > + > - - - ; N.D.aX9XT.V 8 y t t 5 : 6 7 6 : < 5 < @ 8 8 r p r 1 6 1 r   8 e < , , , < 8 , , : 8 7 6 6 t q ",
"q 7 (.-XcXzXzXcXcXcXcXcXcXcXcXcXcXcXcXcXcXcXcXcXK 6 u l '.aXcXcXcXcXcXcXcXcXcXcXcXcXcXcXcXcXcXcXcXcXcXcXcXcXcXcXcXcXcXcXcXcXcXe t 2 +XdXcXcXcXcXcXcXcXcXcXcXcXcXcXcXcXcXcXcXcXcX>Xy y +.8XzXzXcXcXcXcXcXcXcXcXcXcXcXcXcXcXcXcXcXcXcXcXcXcXcXcXcXcXcXcXcXcXcXcX, ",
"y O k.(.-X8XsXqX8X0XsXzXjX0XzXzXzXjXzXcXcXcXcXcXcX, 6 6.k.%XaX9XuXjXeX9X4X9XvXhXaXeX9XvX7XeXrXtXqXvXvXjXvXjXcXvXvXzXcXcXcXcXcXs.a O w.Z.=X2XaXaXcXzXhXcXcXcXcXxXcXxXlXxXcXcXcXcXcX, 3 6.z.].|.jXzX0XjXcXcXcXcXcXcXcXcXcXkXcXcXzXzXcXcXcXcXkXcXcXcXcXcXcXcXcXcX  ",
"y o $.y.z./.(.(.=X-X8X}./.~.&X(.].).'.&X'.sXcXcXcX< r o.&.n.S.K.Y.Y.Y.R.R.@XR.Y.>XR.Q.T.G.H.G.F.R.F.R.H.R.wX:X X X;X;X>XvXcXcXcX6 o ;.>.I.E.T.Y.E.Q.W.W.*X>X@X:X>X@XpXfX1X3XcXcXcX8 u o.>.Z.A.L.L.T.).'._.`.2X[._.'.'.[.,X,X,X4X&X,X`.%X,X'.9X2X,X.X.X[.cXcXcXR.",
"r o T i.z.~.(.8X}.z.].~././.-X8X).=X&X&X&X%XcXcXcX5 4 Y ] v.S.Y.Y.T.Y.T.R.R.L.R.T.R.T.R.Y.H.H.F.F.T.H..XwX:X<X<X<X;X X<XwXcXcXxX7 o ..n.K.K.K.K.@X@X1X%X@X1X1X1X%X3XuX@XR.;XcXcXcX8 8 R 4.I.P.$XE.T.}.}.&X[.&X[.).[.&X2X6XhX2X,X2X9X,X,X>X>X,X,X5X3X'.R.kXcXcXxX",
"6 o H A.(.(./.=X-X(.&X/.(./.&X8X&X&X&X-X&X[.cXcXcX8 7 D &.i.m.S.F.T.T.R.Y.R.R.>XW.[. X.X.X>X XW.R.R.W.3X<X<X3X<X<X:X<X X.XcXcXxX5 o E I.S.K.+X@X1X@X%X1X3X1XS.:X@X:X>X,X@X@XcXcXxX, , U 6.P.P._.'.&X]._.).`.`.[.{.,X,X6XlX,X,X2XaX2X7X,X,X,X,X,X_.%X,X5XhXcXcXcX",
"8 o R (.$X&X&X'.(.(.&X].].}.&X&XdX].=X'.'.).cXcXcX1 5 S >.i.m.V.v.N.B.S.T.Y.W.R.R.R.R.<X5X.XQ.T..X.X>X3X3X3XwX3X3X<X<X;X XcXcXvX, o ( I.K.E.Q.Q.*X*X1X1X1XY.%XW.W.@X1X[.>X@XcXcXcX, 5 Y ,.Z.$X'.$X).)._.)._.,X'.,X{.&XlXaX2X4X4X4XaX2X2X2X{.[.XX.X,X,X4X4XcXcXcX",
"r o H /.(.(.(.&X&X~.(.(.].]./.).-X{.&X&X&X'.zXcXcX@ , N +.u.n.v.S.V.S.V.S.R.R.Y.R.H.R.>X.XT.R. XQ.>X3X3X3X3XwX3X3X3XwX;XwXxXcXxXe o D Z.n.V.m.W.@X1X1X1X@X@X1XpX+X@X1X1X1XR.jXcXcX: q U >.I.I.P.L._.E.)._.L.).[.'.,XzX4XaXaXaXaX2XhX9X2X6X&X>X'.,X{.,XuX5XcXcXvX",
"7 o H (.z.(.(.].].].(.].=X].].].2X'.].&X]./.cXcXcX< 7 Z &.n.N.n.v.v.Y.S.;X>X[._.R.F.R..X;XR.R..X XwX3X<X3X3X3XwX3X3X3X;XQ.cXcXxX1 o Z k.S.K.+X%XY.W.%X1X1X%X'.R.W.*X@X1X>X:XcXcXcX, q A 4.'.'.].%X%X=X2X,X&X[.[.,XhXhXaXsXyXaXhXvX2X2X2X2X,X[.4XaX4XuX[.5XcXcXkX",
"8 o H A.A./.]././././.&X]././.].].&X&X/.&X].zXzXcXr 4 Z &.v.Z.N.S.R.>XT.W.>XG.H.V.V.R.R.>XR.F.R..X<X<X>XwXwX3X3XwX3X3X;X<XcXcXcXe o D n.m.Z.Q.E.S.F._.1X1X1XR.W.W.3X@X@XW.W.cXcXcX< : D 6.A.T.'.T.2X2X&X%X'.,X,X4XaXhXaXlXlXaXaXhX8X>X5X6X[.uX,X%X4X2X,X4XcXcXkX",
", o J I.~.A.(.A./.]./.'.].).}.-X/.=X(.{.).L.zXcXcX7 5 N =.v.c.N.S.F.Y.R.D.R.V.N.Y.R..X>XY.F.3X>X.X X.X<XwX3X3X3XwX;X X X<XcXkXoX8 o F I.K.I.K.K.Y.T._.%X%XQ.@X%X+X1X@X,XpXuXcXcXcX8 7 U 6.D.L.L._.=X*X_.[.&X>X2XuXhXaXhXvXlXlXhXlX9XzX2X9X4X7X,X9X4X5X{.7XcXcXeX",
"< o H z./.~.(.(./.-XA.(.].]././.].dX8X&X9X$XcXcXcXr a Z 5.Y.Y.W.[.Q.R.V.R..X[.F.F.R.F.>XR..X<XW..X;X>X<X3X X X<X<XR. X;X.XcXtXwXe o ( I.Q.P.K.I.T.Y.T.T.T.E.E.@X@X@XR.3XpX3XcXcXcX8 7 U y.A.I.A.'.%X,X'.%X,X,XhXlXaXaXlXlXlXhXhXhXuX`.4X2X,X,X[.,XXX_._.5XcXcXkX",
"6 O A ~.z.(.(.(.(.&X&X].].].}.'.aX9X].'./.'.cXcXcX6 t Z ,.N.K.Y.R.V.Q.'.H.[.R.>XR.R.R.>XR.R. XR.<X>X<X>X3X3X>X<XR. XR.R..XvXtXoX6 o ( P.I.P.@X@X%XE.%XE.R.W.+X@X#X,X1XiXpXpXcXcXcX6 5 Y 6.z.z.A.'.'.1X'.L.[.2XaXaX4XvXlXaXdXlXlXhXaX9X9X7X7X2XeX5X{._._.XXcXcXcX",
"6 o G z.A.A.(.'.&X].&X&X&X].).{.-X%X~./.].).cXcXcX6 3 Z >.k.v.S.v.Q.Y.W.W.R.T.W.R.R..X<XR.W. X.X>X X>X X<X>X<X;XR..XH.H..XkXtXoXe o ( K.I.#X@X+X%X@X@X%X+X%X>X;X<X%XgXgXfXgXcXcXcX@ 3 D $.z.Z.).=X=X_.L.aX2X,X,X,X4XlXhXaXaXhXaX,X2X9XaX{.^.^.2XuX4X9X4XvXcXcXvX",
"p o U z.z.A.].=X-X].&X&X&X{.'.&X-X=X&XL.'.'.zXcXcX, 7 Z &.N.m.m.F.Y.W. X XW.W..XW. X>XR.R..XW.>X.X>X>X>XW.R. XY.F. XH. X_.tXtXoXt o Y I.J.P.#X+XE.+XW.;X1X1X1X%X[.Q.fXfXpXpXcXcXcX: : U j.A.A.L.D.2X_.&X4X=X2X7X2XhXaX,X2X9XlX[.,X9X6X5X).`.`.[.[.[.,X>X9XcXcXrX",
"e o K A.A.$X-X&X(.'.-X&X-X-XdXyX8X&X].).'.L.cXcXcX< 8 Z &.v.n.S.N.Y.@XW. X>X>X4X>X>X4XR.R..XR..X>X>X XW.[.<XD.>X.X X XH._.tXvXoX5 o E I.Q.P.Q.+X:X+X@X,X,XW.W.[.W.R.uX3X3X1XcXcXcX, # U y.E.L.'.R.2X'.`.,X&X2X7X9X8XvXhXuXaX&X,X2X,XXX`.`.)._.[..X,X5X2XlXcXcXeX",
"e o Y (.(.$X&X].$X&X&X$X-X&X-X&X{.-X}./.'.'.zXcXcX< i b 5.Z.S.S.S.;XW.>X@X>X;X.X3X<X<XR.W.R..X.XR. X.X<X<XQ.H..X<X XF.R. XvXkX Xe o E Z.K.K.K.+X%X%X3X%X%X[.E.%XR.E.pXuX3X;XcXcXcX< 3 A 6.P.I.E.%X2X[.%X%X2X2X2X4X8XyX,X9X7X,X2X`.%X{.`.`._._.2X_.>XXX>X7XcXcXcX",
"e o A L.].$X&X&X$X&X-X&X-X8XaX8X=X8X&X'.&X'.cXcXcX8 2 Z =.Z.v.v.Y.W.W.<X>X X>X>X.X.X>XT.T..X.X.X X>X.X.X.XR.<XR.H.F.R.Q. XcXcX Xe o / Z.K.+X@XK.E.@X1X[.R._.E.R.E.R.pXpX3X:XcXcXcX< w U y.P.P.%X%X$X_.,X=X2X2X2X2X2X=X,X2X[.`.2X&X5X{.}.}._._.9X`.{.{.,X9XcXcXvX",
"8 O U I.(.(.&X'.&X].&X(.].&X=X].{.].].2X=X&XcXcXcX, q Z +.c.S.Z.Y.;XW.@X%XoX>X.XW..XR.H.R..XR. X.XoX.XH..XW..X.X.X X XQ.wXcXeXH.X o ..m.Q.@XE.E.Y.W.E.[.R.R.W.E.E.R.1X3X3X:XcXcXcX, w U l.*X$X%XyX_.[.&X{.,X,X2X2X,X,XuX).9X2X8X2X_.OX^.{.{.[.XX,X,X.X,X,XcXcXeX",
"r o H z.*X(.].(.(.&X8X'.'.&X&X].}./.).&X{.%XcXcXcX< 4 Z ` v.Z.M.S.W.W.W.;XW.R.W.F. XC.H.H._.H..X XH._..X.X X X.X X X X;XvXcXvXH.5 o Y K.E.E.E.Y.W.E.R.K.R.E.W.R.[.Y.W.3X3XpXxXcXcX1 : U 8.'.,X=X2X'.%X_.,X,X{.,X2XaX9X,X{.,XeX,X`.,X`.'._..X_._.^.XX^.G.XXjXcXrX",
"6 o A y.(.$X&X].&X&X].].'.{.-X]./.'.-X&X'.'.zXcXcX6 2 Z Y u.V.F.T.R.W..X X,XoX.X.X.Xf.R..XG.R.G.H. X.X.X.X X X.X X<XwXoX.X5XvX!.e o D w.+X+X%XW.E.#X@XW.R.R.R.W.R.R.Y.:XpXgXxXcXcX6 7 U +.P.%X&X=X).'.=X,X2X3X9X2X9X8X,X9X,X_._.,X,X&X9X7X,X_.XX_._.5X^.kXjXcXcX",
"e o K +.k.I./.(./.A.A.I.L.L./.{./.L.'.K.E.L.[.jXcX, 7 D S W ' &.&.-.,.-.9.t.9.*.<.1.} *.} | } 1.-.1.-.*.1.*.t.,.t.r.*.*.M.H.wXI e o ( Y ;.e.l.c.j.b.j.0.5.,.t.*.-.-.;.-.t.M.W.fXxX6 3 Y Y +.0.k.v.v.Z.L.Z.S.Y.@XR.D.'.'.W.[.W.E.T.m.Y.Y.v.v.v.v.N.V.i.p.V.wXkXcX",
"1 o T J G R ~ Y T R T K T ~ K K Q ~ ! ~ =.w.n.[.jX, 2 H D Y W W ~ / ^ ^ ^ ^ ..^ ^ ^ ! I ! / ^ ^ ^ / ^ | ^ I ! Q ! ! ^ | r.!.<XX e o Y Y J W J Y W ~ ~ ! W Q ~ ^ ^ ! / ..3.9.b.#XfX, 5 R E Y J W G H J P J ~ ! J Q ^ ! ^ ^ ' O.O.' %.%.^ Q ! ^ J J I Q %.s.Y.eXb ",
"4 : o.=.+.` =.:.>.>.+.>.5.&.+.:.+.&.:.,.6.g.c.A.,.7 , Z Q ;.=.-.-.-.3.-.-.-.-.-.*.*.%.} *.| | %.;.;.*.%.| | | | %.;.%.&.*.r.*.8 e e / ;.5.3.5.9.9.9.9.<.*.9.9.9.9.9.5.q.g.g.c.U.5 5 $ N ~ O.&.;.) &.,.} &.;.} *.+.,.*.*.,.,.,.0.e.w.,.,.,.,.*.9.&.| &.} 1.M..X, ",
"0 8 8 T l.y.k.k.i.n.K.j.y.k.j.j.i.i.k.,.P N i 7 5 0 5 5 8 5 t q y 4 $ 7 2 8 5 , 5 4 y 7 5 e y 4 7 , 2 3 4 e 7 y e $ r 7 7 5 7 5 4 e 4 t , 1 7 3 y 3 3 7 , 5 8 a 8 5 , 4 3 < 7 y t t 4 y 5 1 2 3 < r 1 e , 1 5 , k c M K L M m l s , 2 < 2 7 7 8 e z x B N p 5 $ ",
"y 4 6 < . .     & 9 = = & & < * &   &   = & & 6 u u s t t 0 7 5 3 , 2 8 , , 6 @ X , < < 6 1 6 7 1 , 7     < 1 , 1 1 r p 7 t t u t e 7 t < : , :   r < ,   , 1 1 r 8 1 1 1 , , 5 s d t d u y 5 y t r r < 3 5 u 5 % u 3 7 7 q 5 s u 0 y t y d t q 0 s s s y g u t ",
"s 5 V cXcXcXcXcXcXcXcXcXcXcXcXcXcXcXcXcXcXcXcXcXr t t 7 r 5 z N  .V.6XzXcXkXcXcXcXcXcXcXcXcXcXcXcXcXcXcXcXcXcXcXcXcXcXcXvXl e t y , gXcXcXcXcXcXcXcXcXcXcXcXcXcXcXcXcXcXcXcXcXcX7 5 q u e 7 c m M M N B M M c i , 8 6 3 r p < 6 7 , r 7 k s 3 @ , 1 7 , 6 y s u ",
"s i R.aXcXcXcXcXcXcXcXcXcXcXcXcXcXkXcXcXcXcXcXcXcX, y , @XdXzXzXjXjXjXjXcXcXcXcXcXcXcXcXcXcXcXcXcXcXcXcXcXcXcXcXcXcXcXcXcXcXs., r ! F.;XvXcXzXvXcXcXjXzXvXlXzXcXcXcXcXcXcXcXcXcXcX7 t , pXgXcXcXcXxXvXzXzXcXcXcXjXcXcXcXzXcXcXcXcXcXcXcXcXcXcXcXcXcXcXcXcXcX< 7 ",
"t w.u.T.[.>X>X,XW.W.%X4X,X%X>X1X1X[.>X[.[.eXcXcXcX  i k l.P.2XjX0XsXjXcXcXcXcXcXcXcXcXcXcXcXcXcXcXcXcXcXcXcXcXcXcXcXcXcXcXcXcX7 y 1.0.F.R._.R.W.>X>X%XY.'.>XE.R.>XR.[.>X[.rXcXcXcX: t S J.Q.uXcXcXsXcXxXcXcXcXcXxXcXcXxXcXcXcXhXcXcXcXcXcXvXcXcXcXcXcXzXsXjXcX3 ",
", ,.*._.2X>X2X,X>X%X>X%X[.%X>X1X>X,X,X1X1XE.cXcXcX< 5 J 7.k.L.%X/.).[.T._.'.Y.,X>X1X%X'.[.[.,XW.,XW.,X.X>X@X,X>X>X%XxXcXcXcXcX, r *.] Y.'.%X[._.[.2X1X[.'.5XR.R.[.>X,X,X.X.XcXcXcX$ , j.g.j.Q.*X*XE.K.E.E.E.@XyX@XiX,X'.E.R.L.E.pX1X%X@XE.E.*X%X2X2XcXzXjXcXcX@ ",
"3 q.' ,X,X>X2X,X3X2X,X,X[.%X[.R.pX@X1X;X%X%XcXcXcX8 8 o.-.0.A.I.D.D.T.'.[.[.[.[.[.'.=X[.%X%X2X[.,X4X4X>X,X'.%X2XfX%XR.cXcXcXcX< 5 ;.W '.%X%X[.,XR._._.%X>X[.2X'.pX2X3X2X,X.XcXcXcX, , g.w.g.I.E.Y.+XE.*X@XpX@X@XE.pX%XY.Z.Z.E.$X1X*X1XR.%XE.Q.+XE.@X%XsXzXzXcX  ",
"8 q...lX1X4XuX4X4X,X%X{.[.`.[.[.%X2XuX4X2X2XcXcXcX1 , #.#.=.E.L.L.).).L.T.T.'.%X'.[.4X%X[.%X2X3X,X,X4X,X%X_.[.>X>XgX,XcXcXcXcX, 3 &.W &XR.[.2X[.'._.[.,X_._.2X%X>X,X5XuX7X.XcXcXcX8 0 x.q.q.1XuX1X1X*X@XiX1X@X@X@X1X*XE.R.Z.@X$X*X+X+X%X%X%X*X@XL.E._.0XzXcXcX8 ",
", q.;.lXyX2XuXaX2X2X%X,X%X[.%X[.'.{.2X2X%X`.cXcXcX@ 3 o.;.%.@XD.Y.L.D.T.E.R.R.R.'.2X,X_.4X,X{.,X2X2X,X>X>X.X'.[..X>X3XxXcXcXcX< e %.I `._.T.[.%X[.{.[.%X[.[.[.4X,X=X,X,X2X[.cXcXcX3 5 l.q.7.1X*XiXyXiX1XpXpX*X*X+X*X@X%X%XL.I.+X1X1X*X@XT.+X+X%X*X%X'.aXcXcXcX, ",
"5 q.;.lXuX,X2X2X2X,X_.,X&X[.{.{.{.[.,X2X2X%XcXcXcX, 5 o.#.=.E.K.D.D.L.L.$X%X[.%X'.>X1XuX'..X2X,XXX[.,X,X[.[..X3X>XfX>XxXcXcXcX  r O.J _.[.'.[.`._.%X[.aX&X,X[.`.,X[.,X9X2X,XcXcXcX6 5 b.q.3.$X+X+X+X+X+X%XE.@X@X+XE.+X*X1X%X*XyX1X*X1X*X2X%X%X%X%X%X%XzXcXzXcX  ",
"7 q...lXiX2X2X2XdX9X2X{.{.{.&X&X&X&X{.{.2X_.cXcXcX< 5 T =.%.E.Z.Z.L.S.E.%X[.[.%XR.4X,X,X{.5XXX_.4XfXhX_..X.XW.%X'.2XuX4XcXcXcX< 3 K J ).[.&X>X'.=X[._.,X2X,X>X&X{.,X,X2X,X,XcXcXcX< 7 b.3.3.pX@XE.+X+X@X%XY.+X+X*X@X%X+X*X%X1XpXyX1X*X1X1X%X'.1X%X%X*XzXcXcXcX, ",
"7 q...lX2X1X2X,XyX=X2X=X,X%X[.9X,X'.%X&X8X&XcXcXcX< < T @.;.+XQ.E.'.'.'.[.[.[.'.[.lX%X,X{.,X.X,X4XuX4XhX.X_.[.fX>X>X>X,XcXcXcX$ e b J '._.=X/.%X`.%X'.&XT.,X[.&X2X[.4X{.'.}.cXkXcX6 a j.5.-.*X*X%XE.$X$XE.E.$X*X$X+X+X+X$X+XpX*X1X1X*X*XyX1XP.%X*X$X*XxXcXcXcX, ",
"7 q.O.lX2XE.uX%X2X%X=X4X%X%X=X,X2X`.'.'.=X%XcXcXcX, 5 U #.;.@XP.L.E.L._._.[.[.[.uX2X>X1X>X[.hXfXhXfXhXuX,XuX1XfX1X,XW.3XcXcXcX1 u k I T._.&X`.%X2XaX2X4XaX'.].=X,X[.,X2X{.).kXcXcX< r g.3.3.@X1X2X*XiX1X*X1X+X*X*XE.=X1X%X*XiXyXyXuX1X2X1XuX%X$X%X*X$XjXcXcXcX1 ",
"3 q...iX4X&XiX2X%X,X,X&X'.'.%X=X%X,X`.&X'.2XcXcXcX< t G +.=.I.I.L.Y.[.)./._._.2X2X4X2X2X2X2XuXuXfXfX4XfXfX4XfXfXfXfX3X4XcXcXcXl y d W _.[.{.'._.,X%X{.`.R.2X,X&X[.{.'.,X,X_.kXcXcX. 3 w.7.7.1X*X$X+X+X%XyX%XE.yXpX*X*X*X*X*XpXpXpXuXyX1X1XyX1X+X+X$X$XdXcXcXcX< ",
"7 q.~ 9XuX%X&X,X[.,X,X=X'.&X{.&X'.&X,X_.%X2XcXcXcX, 5 C -.' Z.T.E.%X{.).L.T.L._.[.,X,X%X,X>XhXlXfXlXfXfXfX3XuXfXfX4X>X[.cXcXcXM 7 5 Q %X{.[.{.aX%X_.=X'.}.{.~.).[.&X&X&X,X&XcXcXcX6 7 5.5.3.*XyX*X*X*X+X*X*X%X*X$XyX1X+X*X1XpXyXyXyXyXyXyXyXyX%XE.'.%XsXcXcXcX< ",
"5 q...,X,X9X[.).).&X,XaX2X&X&X=X&X{.2X2X2X'.cXcXcX6 q N @.) n.A.[.E._.L._.'.R.'.[._.`.%X2X3XgXgXfXlXlXgXfX4X4XlX4X,X;X1XcXcXcXV t 3 W [.,X].,X[.=X&X{.}.}.}.{.XX{.).{.{.`._.cXcXcX, 3 7.5.-.%X*X*X@XiX1X+X%X*XE.E.+X*X*X*XiX1XpXyXyXyXuXyXyXiXT.'.(.'.zXcXcXcX@ ",
"3 9.^ 2X,X=X&X,X).[.&X2X%XE.=X[.uX=X9X&X2X2XcXcXcX8 t N ` ` k.L.Y.D.T.'._._.E.'.{.,X[.%X,X>XlXfXlXfXfXuXlXpXfX4X3XpX3X>XcXkXcXV 5 8 Y %X2X{.'.'.{.&X{.}.}._.}.{.{.&X{.6X[.`.cXcXcX@ , =.5.q.*X$X*X1X+X+X%X*X2X$X+XE.E.*X$XyXyXiXuXpXyXyXyXiXyX%XE./.'.sXcXcXcX, ",
"r ;...2X'.&X&X%X%X'.{.&X_.=X%X&X2X[.aX2XyX2XcXcXcX< y m ) ` v.T.E.L.E._.$X{.'.'.2X{.[.[.,X1XlXhXhXuXuXfXfXxXuX4X4X3X>XW.cXcXcXL s 5 Y `.&X&X`.4X{.'.].).}.{.{.,X&X6X{.{.{._.cXcXcX, 3 ,.5.=.%XE.*XE.*X$X+XI.$X%X%X/.%XE.*X*X=XyXyXuXyXiXuXyX1X%X'.'.'.zXcXcXcX6 ",
"e P ~ '.%X'.&X].2X[.&X[.)._.[.%X2X{.9X&X2X2XcXcXcX, , v ` ` i.E.'.L./.'._.'.D.{.[.`.[.>XhX%XhXiXhXuXhXfXhXuXuX3X3X1X<X[.cXkXkXV 5 5 J Y.&X_.&X'.).'.[.).'.[.%X&X-X,X8X{.`.{.cXcXcX< , e.5.=.yXyX*X+X*X&X[.$X$X*X%XE.%XP.yX*XyXyXuX2XiXyXpX1XyXyX=X$X'.aXcXcXcX1 ",
"1 G Y T.2X'.9X2X2X'.&X[.`.D.%X&X=X,X[.&X%X=XcXcXcX: 4 M ` ` A.%XE.L.D._._.L.[.[.&X[.%X,X%X>X%XlXgXhXhXlXfX4X4X4X2X4X[.W.cXcXcXM 4 2 J I._._.'.&X).'.'.{.$X{.9X8X&X{.6XOX`.`.cXcXcX< < w.7.=.iXyX$XP.+XyX&X(.E.E.=X%XT.*XyXyXyX=XyX%XyXiXiXuXyXyXyXdXyXdXcXcXcX1 ",
"e I ^ E.=X2X2X&XdX2X'.'.&X%X).[.{.'.{.2X9X%XcXcXcX3 4 v ` ` N.Y.).D._./.L.[.%X,X,X[.%X,X>X,XfXaX>XuXfXuXfX1X>X3X<X'..XW.cXcXcXM a 2 _ D.].{.&X%X].&X'.{.&X,X].,X[.&X&X].}.&XcXcXcX7 , y.*.7.$XP.%X*XE.$X2X$X$XE.2X=XL.E.P.yX1XyXiXiXiXyXuXyXyXyXiXiXyXlXcXcXcX< ",
"5 G ^ %X9X2XaX,X2X[.=X'._.%X[.&X'.'.=X2X2X1XcXcXcX, 8 m ` _ k.A.D.A.D.D.).T.%X2X,X%X[.,X2X,X4X&X,X4X3X,X5X,X[.>X%X>X[.%XcXcXcXx f 3 ^ Z.'.{.{.=X{.{.&X,X&X{.).,X=X&X&X&X&XD.cXcXcX, , h.q.7.$X*X*XyX*X+X*X*X*X+X=X2XI.*X*XpXyXyXiXiXyXiXyXpXyXyXyXyXyXcXcXcXcX6 ",
"4 L Q T.].&X&X2X,X{.{.).'.'.'.&X=X[.,X2XyX,XcXcXcX  2 N O.o.Z.C.B.L._.}.D./.>X2X2X,X[.1X2X>X%X[.>X1X,X,X[.[.W.1X>X[.W.>XcXcXcXz 5 y ~ L.{.].].2X{.'.=X&X{.2X'.&X&X,X8X,X,X`.cXcXcX1 7 j.5.=.$XyX$X*X%XE.*XyXyX$X=XyX2X'.*X1X1XiXpXiXpXdXdXyXpXyXyXiX1XcXcXcXcX6 ",
"a ) %.[.{.&X{.}.).].'.=X'.'.'./.&X=X2XaXyXuXcXcXcX< , N +.+.L.T.D.~.~.^.).).[.XX>X1X,X,X,X=X,X[.,X>X5X2X2XR.[.2X,X>X[.,XcXcXcX8 8 4 ~ A.,X=X&X9X'.{.{.%X2X,X[.=X{.{.2X4X=X,XcXcXcX: 7 j.=.7.%X+X@XP.*X+X+X+X*X*X*X=X'.yX*X+XpXyXpXiXyXyXiXyX*X*XiXyXyXlXcXcXcX3 ",
"7 _ ! =X,X].}.=X=X}.).&X=X&X%X&X_./.*X2X=X%XcXcXcX8 7 C o.O.L.Y.D.D.L.~.)._.>X,X`.'.,X>X2X3X%X[.%X[.[.3X[.R._.>X3X1XY.3XcXcXcX. 4 d ` D.8X,X&X&X'.[.].).&X,X'.).=X%X8X&X&X&XcXcXcX, , g.,.3.%X$X$X*X*X*X*X+X$X*X*X$X'.yX*X+XdXiXpXiXyXiXiXyXyXiXiXyXyXlXzXcXcX1 ",
"7 =.Q '.{.{.=X{.).=X'.,X=X&X%X[.`.'.R.%X&X_.zXcXcX, 5 G o._ A.E.L.R.R.}.^._._._.'.R.>X%X&X[.%X>X%X[.'.'.>X,X>X<XT.[.;X>XcXcXcX7 e k T I.{.=X&X=X'.T.&X=X[.&X&X{.=X[.%X,X{.%XcXcXcX6 $ h.5.3.*X%X*X$XP.*X*X*X+X*X*XyX*X*X*XpX*X*XyXiXyXyXyXyXyX*XyXyXpXzXcXcXcX6 ",
"8 5.Q ).2XaX=X'.'.{./.'.=X{.%X=X%X&X%X*X[.'.cXcXcX< 4 C #.o.E.K.$X[.%X'.).^.G._.`.[._.>XW.>X[.,X,X>X,X5X'.%X[.R.R.1X<XaXcXcXcX8 y c ~ T.).2X,X=X=X].).).[.'.%X_.].[.%X,X[._.cXcXcX6 5 g.2.8.$XP.+X$X=X=X$X$X+XyX$X$XI.%X$X*X*X*XyXyXyX*XyX*XyXyX*X*X*XsXzXzXcX: ",
"t 5.Q ).yX=X9X=X&X&X'.=XL.&X).2X=X_.%X&X&XT.zXcXcX, q H O.%.K.E.%X%XR.)._.}._.[.uX,X).uX>X,X4X4X4X2X>X_._.[.>X%X>X>X5XhXcXcXcX8 y M T R._.'.&X9X2X).'.D.D.T.L.'.'.,X[.{.'.).cXcXcX, , b.2.5.*X$X$XP.*X*X+X*X*XyX@X1X%X+X%X*X*X+X*X*XyX*X*X*X+XyXyXyX%XsXcXzXzX6 ",
"y 5.T L.9X=X2X&X2X2X)./.L./.L.'.'.=X%X&X%X'.cXcXcX: 7 A #.%.E.@X%XE.%X%XXX>XXX[.XXC.,X3X2X>X2X2X1X>X2XR.[..X>X3X@X>X.XlXcXcXcX1 y G J '.$X_.'.2X&X].].{./.D.).).L.`.&X{.&X{.cXcXcX, q g.q.h.*X+X=X$X+X*X+X*X+X*X$X%X'.E.%X*X$X+X+X*X*XpX*X*X*X(.*X1X*XsXcXzXcX3 ",
"3 5.T ).yX8X=X&X&X].~.&XD.L.).'.E.[.%X=X&X%XcXcXcX8 8 N ..O.Z.E.%XE.[._._.5X{.5X5X4X2X5X5X%X2X,X,X>X2X[.%X[.[.,X>X'.>XhXcXcXcX, 4 P J '.)._.].%X'.&X/.'.).}.).).D.).'.'.].'.cXcXcXr 8 l.7.3.%XP.*X*X$X*X%X%X+X%X$X'.%X@XE.$X%X+XP.*XpXyXyX*XpX+X%X=X*XdXzXzXcX6 ",
"8 q.T E.yX$X%X%X].&X%X/.'.L.L.%X'.'.'.'.yX*XcXcXcX6 q N O.o.I.P.E.$X_._.3X).XX2X,XuX2X,X,X3X4X3X4X2X,X1X,X[.,X.X_.>X>XhXcXcXcX8 3 ] H )./.'.'.%X'.'.).A./.'.).'.}.'.}.D.L.).cXcXcX, $ g.h.;.*XP.P.*X*X*X%X$X$X$XE.*X%X+XE.+XP.E.+X+X*X*X*X*X*X+XL.$XP.dXsXzXzX< ",
"a 7.~ +XyX$XE.P.'.%X/.(.'.L./.E.'.%X$X'.%XE.zXcXcX, % N #.;.K.E.E.E.%X.X[.XX,X>X4X4X2X4X2X>X<XuX2X2X4X1X>X%X>X[.4X2X1XhXcXcXcX6 y +.J ~.A.T.'.'.'.'.%X/./.%X_.'.L.[./.A.D.'.cXcXcX6 < h.7.2.+XyX*X+X*XyX*X*X$X+XE.%X$X%XE.+X$XE.P.P.I.P.P.+XE.%XP.I.I.dXsXcXcX6 ",
"3 =./ %X%XP.P.*X=X'.L.'.T.L.2XE.'.+X%X=X$X*XcXcXcX6 q v o.o.n.%XE.E.R.%X,X_.5X1X3X2X2X5XpX>X4X1XaX2X1X,X,X[.,X>XpX3X1XcXcXcXcX7 r ] L ~.B.D./.'.)./.'.&XA.A.'.I.'.&X{.~.A.L.sXcXcX7 5 h.h.2.I.+X$X*X+X*XyX+X$X$X%X$X$X+XE.'.+XZ.K.E.I.Z.I.+XP.%X%X$X$XdXcXzXzX: ",
"e 5.~ P.D.L.'.P.I.).L.E.L.%XL.=X'.L.'.*X$X$XzXcXcX  3 v o...l.L.%X%X%X%X,X.X_.4X4XuX4X4XuX4X3XaX4X4X%X>X,X2X_.2X4X3X4XlXcXcXcX6 e ] K A.~.~.A.(.'.'.'.'.).~.D.I.A.L.].}.B.D.zXcXcX6 5 7.@.7.l.+X$X*X*X*X*X*X$X(.%X+X%XW.E.E.P.I.+XE.P.Z.Z.+XL.E.E.(.$XiXzXzXcX< ",
", 3.~ n.A./.A.I.I.'.L.+XL.P.(.$XI.I.I.$X*XI.cXcXcX, 7 v #.=.-.w.j.n.k.n.v.v.m.m.m.K.Y.Y.m.m.U.m.m.U.c.Y.c.n.c.U.n.M.U.;XlXxXcX@ r o.H y.~.D./.~.L.L.(.T.].L.~.A.L.I.%X'.T.L.zXcXcX6 5 2.2.;.h.b.l.l.l.I.l.I.I.I.I.I.I.I.I.Z.Z.n.I.l.z.l.l.J.l.n.u.j.k.A.=X8XcX, ",
"3 4.~ 2.y.z././.~.(.L.$XI.L.(.(.].I.I.&X(.z.yXzXcX6 a h =.&.&.3.+.,.;.=.,.,.9.7.q.e.e.9.q.g.g.e.q.9.q.,.5.g.e.e.g.g.b.U.>XuXcX: y O.J +.a.~.~.~.D.A././.].'.$X$X(.(././.B.z.-XsXzX  u T 4.2.2.7.3.o.#.@.2.o.@.@.=.=.=.@.%.+.' o.;.=.@.#.o.o.' ` =.7.8.k.I.].8X> ",
", S o.X.` Y G H G H H R ~ T Y U R J H R R 7.z.$XzX, s 2 =.+.-.q.7.*.9.e.e.9.e.e.e.e.g.c.c.g.g.e.b.e.r.9.b.x.x.x.x.x.b.m.Y.3XcX3 7 N Q K H H U T T ` ` T o.`  .+. .o.>.6.$.<.i./.zX: e i 7.@.2.2.@.=.@.@.2.2.2.2.4.2.@.=.=.=.=.#.#.#.#.=.=.#.+.+.' +.5.8.y.Z.dX, ",
"q 3 o.#.o.R R Y U U U E X.o.T R R T Y ~ R 2.h.I.lX: 3 3 J 3.7.j.g.j.g.j.b.j.c.b.b.x.M.M.J.M.b.M.x.U.e.M.b.b.b.x.x.b.M.M.J.#X7 5 5 @ [ ) T K K K T Y Y U U Y T K G G K T [ >.p.Z.6X, 5 2 4.7.h.h.h.@.7.7.2.4.h.2.4.7.4.5.4.4.7.5.7.7.5.2.4.2.4.4.>.@.5.4.y.l.3 7 ",
"5 2 3 2.#.#.o.{ o.R o.X.R #.o.R R R o.R R #.2.l.3 t q 8 y a 3 7 < y 3 r < y 5 5 8 7 3 t 7 5 3 , 7 3 7 e 1 5 y 3 2 2 % , e t 5 0 4 3 5 o.{ T T T T U H H G T R T K U R R R #.#.6.8 t 7 y 8 5 5 t 8 t 3 5 2 y t 4 5 a t 8 5 a 4 , 7 3 7 3 r 2 8 3 3 8 @ 8 7 3 t q "
};
