/* XPM */
static char *result[] = {
/* columns rows colors chars-per-pixel */
"128 128 196 2 ",
"   c #22820F400000",
".  c #260A129E007D",
"X  c #2ACF15C000FE",
"o  c #2D3B18DB04E5",
"O  c #26F016E10855",
"+  c #281D173B07A0",
"@  c #274917D609B4",
"#  c #2CC71B620B92",
"$  c #33101C1902BE",
"%  c #3A281E960092",
"&  c #32B51DA60B89",
"*  c #39911EE40C7C",
"=  c #2EEE1E8C100D",
"-  c #30DD1F260FFA",
";  c #2F081FDC0F3A",
":  c #3665202B058C",
">  c #3C60220501FC",
",  c #353B20F30D25",
"<  c #3B1A23850C2F",
"1  c #3EB228720E5C",
"2  c #2F26202F10F5",
"3  c #342E23011289",
"4  c #3BDF2565122D",
"5  c #3D4428DB1420",
"6  c #3541272C17D4",
"7  c #3786285717C4",
"8  c #3BE32B3519F4",
"9  c #41E62548006B",
"0  c #450D29790465",
"q  c #49A02B830452",
"w  c #413D26440EB6",
"e  c #449B2B2B0B7D",
"r  c #49F32E6C0CDE",
"t  c #4CD830DC0E83",
"y  c #53C834660CD6",
"u  c #413E2683116C",
"i  c #43B62AF61463",
"p  c #49BE2DC5153A",
"a  c #44AB2DAA193F",
"s  c #492E2F0218BD",
"d  c #476F301815B3",
"f  c #4CF232111390",
"g  c #45EC31651BA4",
"h  c #4C2232F91B98",
"j  c #4E8A38381E69",
"k  c #520A346714B1",
"l  c #597236A41680",
"z  c #55B6384C1689",
"x  c #5CB23A931704",
"c  c #522035B81C56",
"v  c #599D36D11983",
"b  c #54B139671CA9",
"n  c #5B823B5F1C55",
"m  c #60BE3E051D41",
"M  c #446433AB2131",
"N  c #4C76367220BD",
"B  c #4D1D38FC22E2",
"V  c #4E543BB52827",
"C  c #518D37402044",
"Z  c #54633B1F22B8",
"A  c #5AAD3DC52376",
"S  c #53F33EE928DA",
"D  c #59363F9627FC",
"F  c #62D13E2721E5",
"G  c #5E573FF91CC1",
"H  c #67AA441A1B98",
"J  c #647A42601D30",
"K  c #57183FE3250A",
"L  c #5CC94121258D",
"P  c #563541822ADF",
"I  c #5C7A435F2AD6",
"U  c #5F36489B2F14",
"Y  c #5C7A46BD30B5",
"T  c #5E6F49BA33A2",
"R  c #63BA43B42421",
"E  c #69FD45C523DF",
"W  c #6C3149C32507",
"Q  c #62A545A52A68",
"!  c #69A6467C2A61",
"~  c #6512491C2D02",
"^  c #6BBB4BB22C0C",
"/  c #71A74D392687",
"(  c #71FA4DAA2B3B",
")  c #6DF650372E95",
"_  c #745051E02CE2",
"`  c #79B355792B32",
"'  c #798754DB2D81",
"]  c #646F4BDC32CF",
"[  c #6B874DE531A2",
"{  c #63424ECE38D2",
"}  c #70BF4EDD3128",
"|  c #6CBD516B34E8",
" . c #66C051CB3B21",
".. c #6C7754BC3B14",
"X. c #736D542E344D",
"o. c #7986568D3295",
"O. c #76A357FD3407",
"+. c #7B7D59C734DA",
"@. c #734F566A39B9",
"#. c #7532596E3BCD",
"$. c #7BF85C5A3B69",
"%. c #7F92626C3EC5",
"&. c #6B3D572B4339",
"*. c #6DFF594D4248",
"=. c #73945C9F4402",
"-. c #7AE15E99428C",
";. c #7D2D616243CC",
":. c #75716054492A",
">. c #7D6964684A4A",
",. c #7F9268D64D3C",
"<. c #7EE969B3536B",
"1. c #82165BD42F55",
"2. c #81C25C8D334A",
"3. c #81535EC53B1C",
"4. c #8B97641F35A2",
"5. c #811062E53EED",
"6. c #8A0C65763D45",
"7. c #92A56BC13F02",
"8. c #800C5FB740E4",
"9. c #82E265BD4261",
"0. c #8999668642A6",
"q. c #8645696945FE",
"w. c #8A1D6A7245E4",
"e. c #821E65DE49F0",
"r. c #865B6A824A49",
"t. c #8A756D954A56",
"y. c #93016DFC443D",
"u. c #91BB6ED64A6C",
"i. c #8E2471784E1E",
"p. c #980A7239463B",
"a. c #939B71BE4D7F",
"s. c #9A6475F04D88",
"d. c #85386C7C527D",
"f. c #8BCC6E8251CF",
"g. c #82886E4059E9",
"h. c #8774708654B7",
"j. c #8EE872DC51B8",
"k. c #8C87737F5A29",
"l. c #926375BA5265",
"z. c #98EF76C952CA",
"x. c #9629799B5623",
"c. c #9A0C7A6A5562",
"v. c #92FD76525A37",
"b. c #96AF7AED598E",
"n. c #9A557DC65A4B",
"m. c #A0467BD75836",
"M. c #8CDC798163AB",
"N. c #952B7C666312",
"B. c #9A907E3362C5",
"V. c #963F7F57687F",
"C. c #A07F7FE76263",
"Z. c #9E2C81AF5E09",
"A. c #A08A83AA5F84",
"S. c #9EC082C161AA",
"D. c #9398804D6967",
"F. c #9CE8843C6A26",
"G. c #9E86883770CC",
"H. c #9FA0909D784E",
"J. c #A27285F26232",
"K. c #A64E89D065DA",
"L. c #A8768BDF6798",
"P. c #A2C8869C6B3D",
"I. c #A6458AD56ABC",
"U. c #AA8A8E0169E7",
"Y. c #B1F98D036227",
"T. c #ADD8915F6D28",
"R. c #B0F894496F21",
"E. c #A5678C9172BE",
"W. c #AB368EB671D2",
"Q. c #A3FB9035774C",
"!. c #AC63925D747F",
"~. c #A55193127B4E",
"^. c #ADB195557A20",
"/. c #AF2299247C90",
"(. c #B27A95D97153",
"). c #B69299CB743E",
"_. c #B9AE9CB3769C",
"`. c #B1CD97077AB8",
"'. c #B3C29A197DD8",
"]. c #BB769EA97908",
"[. c #BEBFA19E7B02",
"{. c #C239A5117E08",
"}. c #AD5C9C308493",
"|. c #B4419D6181F1",
" X c #B8BB9D0B8017",
".X c #B7B2A1F385A0",
"XX c #B501A29088D5",
"oX c #BA9FA60C8A44",
"OX c #BCD5A928906E",
"+X c #C693A94A81CF",
"@X c #CAC8AD548541",
"#X c #C51BACA68CFD",
"$X c #CF34B1A2892E",
"%X c #D299B4F68C4C",
"&X c #C194AE13973F",
"*X c #C8D2B46C9880",
/* pixels */
"i Z I K d f 9 q e 0 d g d h i h g 5 5 d g h g P g P d a 5 d g d d P K h B h d b e 0 9 9 0 0 > > b > > b b f b b > b b 0 1 S S A B h d b I S % 0 > v 9 d b > 9 9 k t > > r b Z 9 k c c b h f t t 9 0 r > e % f C G f 0 q q z 9 0 n > 9 9 $ > 9 k f b b k f S f , ",
"P.S.| %.$.X._ K W t.f.$.d L p X.#.#.%.b Q t.X.b G | ~ n G @.~ ] Q ;.h...>.9.-.e.>.e.,.d.r.>.-.>.-.e.e.>.>.d.>.d.v.B.P.I.E.e.M M V.J.A.L ^.j.( s.O._ R ] $.e.e.3.#.n.9.q.q.z.8.l.>.9.k.j.S.B.N.v.N.n.f.J.J.9.-.s.i.O.q.e.F..XI.q.W 2.o.O.4.v ! a.%.y.@.I v.-.8 ; ",
"{ c.Q k <.OXJ.K.A.L._.K _ x E b ' ! O.' W E A b n W R x f c G ) ) J / H _ O.+.` O.p._ $.W O._ _ W w._ / p.G 6.y.4.y.z.$.9.[ a 7 e.F...h &.T.'.0.W x z b  .b.B.v G X...h ( J R ( 6.2._ 5.y.E ' _ o._ 6./ y.( n ! k P h.Z.l.i.Z.l.S.n.b.S.A.n.] ^.~ E ( f ;.~ $ # ",
"..| W.F.J.J.i.b.Z.x.x.l.x.J.#.t.^ ^ f 5.o.v E 0./ _ O.9./ _ $.0.q.) O.q.b.$.$.5./ ' E x ^ c l +.J #._ e.k.N.F.W.-.t.U.R o.I > 3 @.d l.4 i l.).k.l.a._...t.j.j.).b.h.Z.Z.e.d.l.f.b.t.l.J.t.v.J.-.e.N.n.B.J.N.C.n.>.F.Z.Z.i.q.x.i.i.n.j.T.t.t.x.t.U.K.U.].w.b : 6 ",
"| L =.K.J.K.t.x.i.i.T.i.i.q.Z.Z.P.J.F.E.F.v.N.B.F.F.F.J.Z.l.Z./.H.[./.v.D.t.Z.j.b.S.(.[.).l.R._.K._.i.l.x.x.n.J.T.(._.R s.K 1 7 S b b.p o ).t.q.9.d.q.T.h.z.t.T.i.l.Z.T.l.Z.Z.K.K.U.].K.x.c._.U.).L.).T._.l.l.l.A.T.i.l.Z.l.Z.J.n.9.t.T.U.L.9.K.T.K.t.Q d c X 8 ",
"] L T J.n.n.l.l.l.l.q.q.i.i.i.x.r.U.n.U.l.J.x.n.x.n.T.n.Z.l.x.x.i.(.i.l.i.Z.q.Z.n.T.l.b.b.Z.i.q.J.q.i.T.Z.x.Z.l.Z.j.i.! | L > < | j b.$.$ x.q.T.U.U.q.t.t.Q i.t.x.Z.Z.x.l.l.x.q.n.U.w.f.U.J.T.T.t.w.t.U.T.z.r.q.T.Z.l.%.Z.Z.K.i.x.t.U.K.q.b.9.i.e.x.l.| o.] : 7 ",
"] b  .S.J.b.Z.t.l.i.i.i.q.Z.i.Z.n.Z.L.L.l.n.x.x.r.a.x.t.Z.i.t.x.t.i.i.i.t.q.Z.l.l.l.x.i.i.l.T.l.J.x.t.T.t.i.S.x.q.n.j.R p.Q w , Z | L.< 1 (.v.T.L.T.;.5.9.9.i.K.l.K.x.q.l.Z.q.q.a.t.n.U.T.Z.x.U.U.U.j.t.9.q.t.t.T.U.5.K.l.x.l.A.n.J.K.U.9.L.5.%.Z.c.l.b ^ Q u 7 ",
"~ A >.J.Z.Z.l.l.t.i.i.q.t.t.l.L.l.n.L.J.q.J.S.K.t.q.t.q.q.q.t.U.q.t.j.i.t.Z.Z.l.9.T.t.i.i.i.U.J.x.J.i.Z.l.J.Z.J.j.T.n.Q ^ I o o { b =.9 : L.T.w.T.;.T.J.Z.L.t.i.Z.Z.%.Z.Z.%.U.q.q.n.t.q.q.e.x.Z.e.b.t.i.w.t.x.n.q.T.%.Z.i.Z.x.q.i.J.x.9.J.n.K.T.J.T.A.] W I < , ",
"P j ..Z.L.q.x.T.l.T.q.J.t.i.l.x.Z.Z.Z.K.Z.i.T.J.L.J.9.9.i.L.x.T.i.l.l.i.i.i.Z.i.i.i.Z.A.i.l.i.q.Z.Z.i.l.%.l.Z.Z.L.x.Z.b O.L $ o I d.@Xe 8 Z.x.i.q.l.q.Z.J.x.#.x.J.x.l.i.Z.i.K.J.%.q.%.5.t.Z.l.l.x.5.l.n.i.A.l.q.i.x.q.q.q.x.q.Z.q.T.t.T.Z.n.K.9.Z.Z.T.I ' L i 3 ",
"~ ^ h.J.i.l.Z.T.J.i.T.T.i.q.l.Z.q.Z.A.Z.l.l.J.x.J.T.l.t.i.q.L.%.t.l.5.Z.q.Z.l.Z.Z.U.l.l.i.i.q.;.l.q.i.q.i.l.x.Z.Z.Z.J.L ! Z : o Z :.).r.U (.t.i.i.Z.K.L.J.) x.Z.l.q.Z.Z.q.l.%.q.q.d l.Z.Z.i.x.Z.J.i.t.l.A.Z.x.T.%.q.T.l.Z.x.J.A.U.9.t.l.c.n.l.Z.n.Z.J.-.3.~ 1 , ",
"] c k.i.l.t.T.Z.i.%.i.x.i.L.i.q.K.U.Z.Z.Z.q.A.l.q.%.L.q.Z.i.i.q.t.Z.Z.K.i.Z.l.i.Z.q.l.t.Z.q.6.i.n.t.q.q.t.Z.x.x.J.x.T.| 5.f < o ~ g ).T.K q.Z.S.Z.q.Z.Z.~ x.Z.Z.x.q.i.U.q.q.5.q.q.t.i.t.x.l.Z.l.x.t.t.l.x.q.l.l.q.U.x.q.K.Z.U.L.L.i.t.t.9.Z.J.n.n.n.b.f.O.b $ , ",
"I h K.q.L.i.i.i.i.q.i.%.q.x.%.Z.A.K.K.x.Z.5.q.q.T.Z.9.9.9.t.T.T.t.%.Z.q.l.%.t.q.5.t.i.Z.l.l.i.l.t.t.%.K.T.l.J.Z.x.T.i.#.+.K : o ] ~ (.S.>.i.i.q.i.i.J.L.J.T.Z.x.x.q.Z.q.A.i.T.5.%.q.q.i.i.i.Z.i.x.U.q.a.l.i.q.Z.5.%.t.l.t.t.L.A.J.i.t.h.Z.K.Z.J.J.(.Z.[ v Q $ < ",
"~ I T.b.n.l.i.i.i.x.T.K.a.x.x.L.J.A.Z.A.i.Z.i.i.Z.J.q.5.q.t.%.U.%.l.Z.%.5.U.5.5.q.i.Z.i.i.i.t.t.q.t.T.%.t.L.Z.x.K.q.T.v.^ A : o #.d J.x.L.Z.t.q.b.j L.Z.L.q.U.Z.%.l.L.%.K.%.J.T.T.q.q.T.a.l.i.l.l.q.i.L.L.q.i.l.q.5.q.T.x.l.l.q.L.L.t.J.U.Z.A.J.n.K.J.t.W L > , ",
"#.<.n.b.l.n.j.l.i.l.t.q.q.Z.x.x.Z.Z.n.Z.T.l.x.Z.L.Z.L.i.K.i.t.Z.%.q.5.q.Z.i.T.U.i.q.i.q.i.i.l.i.x.q.i.q.Z.x.q.i.i.T.n.| ~ c > 4 ~ h Z.Z.Z.i.q.i.i.Z.Z.l.U.x.U.S.q.l.i.i.q.T.L.T.J.T.U.q.t.Z.i.i.l.i.i.i.i.x.j.j q.%.x.%.5.Z.t.5.q.l.l.x.Z.K.q.J.K.J.P.n.c Q < 6 ",
"h.B j.Z.a.x.i.t.l.i.q.l.q.q.L.l.Z.Z.x.A.x.x.x.n.J.Z.n.K.%.Z.%.L.q.%.q.5.%.5.q.Z.t.t.t.l.x.Z.Z.5.q.i.l.a.Z.Z.i.T.U.T.i.@.J L < , q.K >.x.Z.q.t.l.i.q.L.i.i.L.i.T.q.%.L.J.x.q.i.L.q.5.l.x.Z.i.l.l.l.l.i.q.t.l.l.x.U.i.q.L.%.q.L.5.Z.x.a.t.n.t.U.n.x.Z.K.J.B.o.: 7 ",
"| d >.J.9.i.i.l.i.i.q.t.i.i.Z.x.Z.Z.n.x.Z.J.L.T.i.T.U.l.T.l.l.T.5.T.T.5.t.q.l.l.l.q.Z.l.x.l.x.U.x.q.i.i.%.J.x.%.U.T.n.r.+.X.$ 4 t.i r.Z.x.l.L.q.x.S.x.i.K.q.x.q.J.L.q.5.5.5.x.Z.%.q.x.l.l.i.Z.x.l.l.q.q.q.x.l.i.L.q.q.U.%.T.q.l.l.q.t.i.%.l.n.n.n.n.K.J.@X5.e 5 ",
"y.] S.J.q.i.l.q.i.9.0.t.n.x.c.U.K.l.a.i.x.q.t.i.q.5.q.t.q.i.Z.x.i.q.%.q.5.q.i.Z.l.t.Z.a.l.i.l.Z.q.q.q.5.q.T.T.U.U.U.J.[ 4.K 1 3 I 1 *.K.J.Z.q.n.l.q.l.U.K.U.q.q.q.K.5.L.L.Z.Z.l.q.l.x.q.i.n.n.n.l.x.t.l.Z.Z.t.t.t.l.x.t.Z.5.q.x.i.Z.i.x.i.l.i.x.Z.Z.K.A.(.^ e < ",
"I !.j.t.x.x.x.t.q.x.t.i.J.b.Z.J.Z.Z.A.L.%.q.5.x.t.T.i.U.A.t.Z.L.T.J.q.K.Z.Z.%.t.l.l.i.i.t.t.x.%.Z.q.i.t.T.J.q.x.a.Z.U.I 0.I : 3 b +.e.S.j.i.l.l.t.i.i.x.U.Z.Z.K.x.t.q.T.K.i.T.t.l.J.n.x.l.n.l.n.i.i.Z.Z.Z.x.i.t.q.q.i.q.i.l.i.q.i.i.q.i.l.q.A.x.x.l.5.Z.).%.< h ",
"{ ~ i.t.i.l.5.i.J.l.9.t.n.Z.n.J.t.Z.i.t.L.K.Z.q.5.U.%.Z.i.x.q.5.q.x.%.T.T.%.%.J.x.i.x.l.l.l.i.t.9.x.q.U.9.t.t.J.J.x.K.L y.[ o 8 #.R ] T.i.n.a.x.q.9.S.J.Z.5.l.%.q.q.5.A.t.q.q.%.Z.i.t.n.i.i.U.q.l.Z.l.x.q.Z.i.i.q.q.i.q.l.q.Z.j.Z.n.i.i.l.l.i.Z.Z.l.Z.x.K.^ < h ",
"i g T.U.q.q.q.T.x.n.J.Z.n.A.n.U.J.A.Z.Z.L.K.K.i.q.U.K.t.x.Z.K.t.t.t.J.J.n.q.q.T.l.l.t.i.t.t.i.q.i.i.n.l.x.Z.t.x.i.J.q.L $.~ 1 , ~ ( V j.l.q.t.t.q.q.U.a.l.t.T.Z.i.q.T.5.q.Z.Z.L.q.t.9.J.l.x.J.q.i.U.Z.A.l.x.l.i.i.Z.L.Z.Z.i.a.i.t.t.q.%.x.Z.%.Z.x.Z.Z.Z.T.) < g ",
"b g q.Z.J.J.x.x.i.l.i.Z.J.A.J.L.J.A.Z.Z.Z.L.K.K.T.Z.Z.U.L.A.Z.K.q.q.5.q.n.Z.x.T.q.l.q.i.U.i.x.K.t.n.i.i.i.x.i.U.l.i.n.R 0.L > 3 I R P l.x.j.j.l.j.l.9.t.9.Z.U.q.x.q.l.5.i.Z.l.l.t.Z.i.x.n.x.q.t.5.x.L.t.Z.l.i.l.q.Z.Z.K.l.t.i.%.Z.i.5.q.x.L.K.Z.w.x.n.J.A.b < 8 ",
"a.$.Y 9.Z.Z.l.Z.q.x.Z.5.n.J.A.n.K.x.Z.Z.K.U.Z.t.L.t.L.L.K.l.%.i.t.t.q.q.%.T.q.q.q.i.q.l.x.l.t.x.n.Z.i.i.i.n.n.x.n.Z.J.v R L < 3 ~ R &.x.x.x.i.i.i.t.Z.Z.Z.9.K.z.i.Z.i.x.Z.l.A.Z.x.z.9.Z.t.t.t.T.5.Z.l.L.Z.| q.l.5.Z.Z.Z.n.x.q.q.a.i.q.i.K.Z.x.Z.b.n.n.Z.{.f 5 # ",
"^ 5.x.n.Z.n.i.J.K.J.Z.Z.n.n.J.J.Z.Z.Z.Z.A.L.K.Z.L.x.i.i.q.%.x.Z.t.i.q.L.Z.U.x.i.t.t.q.q.l.i.%.x.Z.l.i.q.J.n.t.l.Z.Z.J.n $.b o , | R r.Z.x.n.i.i.i.%.J.T.t.U.Z.J.l.l.J.L.Z.x.%.l.Z.i.n.l.i.i.9.l.l.x.q.x.x.l.Z.Z.l.x.x.i.Z.Z.l.b.q.l.x.L.x.x.Z.Z.J.n.n.J.t.L o 8 ",
"%.! P b.x.x.t.i.q.U.i.Z.n.Z.Z.J.K.Z.Z.Z.K.K.Z.A.Z.Z.q.U.q.i.L.Z.q.U.t.5.x.i.l.q.q.i.t.q.l.l.x.q.i.a.n.t.x.Z.l.x.x.S.a.R 6.Q < 3 #.f h.Z.J.%.i.l.x.L.9.n.J.J.x.U.L.i.i.i.i.i.l.i.U.9.l.i.J.U.U.L.A.x.L.x.l.t.i.x.Z.Z.l.%.Z.Z.i.q.i.j.i.q.x.q.Z.Z.n.x.A.R.B.X.< ; ",
"] R { Z.x.x.x.n.x.9.J.J.Z.J.n.n.n.Z.S.S.S.S.U.9.L.L.%.%.K.Z.L.Z.U.i.i.i.q.i.i.i.l.l.l.t.n.i.0.t.q.l.l.x.l.x.x.Z.J.S.A.p ( A < 7 $.b T.Z.K.K.t.l.9.n.l.x.L.J.t.q.Z.q.5.l.e.l.5.i.l.i.J.i.i.n.K.L.Z.t.q.%.U.U.t.Z.b.n.n.n.n.%.q.x.x.l.z.Z.c.A.n.n.K.n.S.n.e.c $ 7 ",
"#.b :.Z.Z.Z.x.l.l.9.J.J.J.Z.n.J.x.Z.Z.Z.j.J.J.S.q.5.%.i.t.Z.Z.K.w.K.n.l.U.x.i.t.l.i.i.i.q.K.n.B.l.x.J.x.x.i.x.%.n.Z.J.v 0.A < 3 ..h b.S.S.U.J.l.J.x.9.%.n.n.l.l.U.Z.i.i.l.j.U.J.i.i.j.x.x.T.U.U.K.T.L.q.K.L.L.Z.Z.Z.Z.n.t.n.a.n.n.l.n.b.J.J.J.J.x.Z.J.J.X.f % 8 ",
"#.4.T T.T.S.t.q.L.J.l.L.n.Z.n.Z.J.J.n.x.T.J.L.S.K.5.L.%.U.T.Z.Z.K.c.n.S.q.b.j.i.x.t.x.l.t.c.l.l.Z.T.J.Z.i.x.Z.x.l.J.n.X.[ A < 7 | b *.S.b.K.J.n.Z.T.n.l.Z.l.x.R.>.t.i.x.L.Z.J.S.l.j.i.t.B.j.D a L.i.l.x.;.T.Z.x.b.c.l.n.x.Z.x.n.Z.b.n.l.L.J.J.J.J.K.J.U.#.A > 2 ",
"L W { >.J.Z.n.i.L.n.x.J.n.S.n.Z.Z.J.J.L.K.L.J.L.i.Z.t.l.i.T.K.l.{ T.b.l.U.t.j.i.x.q.i.t.j.l.n.x.l.x.q.T.Z.l.t.>.f.x.K.} $.Z < , | n ..A.K.L.K.(.n.L.Z.U.(.n.#.;.q.Z.Z.x.t.j.b.n.l.h 1 j k.S.w.L.Z.Z.t.T.t.L.q.i.l.Z.n.t.n.Z.n.A.J.Z.S.J.Y J.n.x.n.x.U.(.} Q i 6 ",
"] w.Z Z S Q x.{ J.A.n.J.e.#.K.J.C P  ...u r.A v.-.-.l.a.S.(.T K e.d h D w.t.x.x.t.q.i.x.l.t.J.n.U.9.C | Z S c C I Z A U.y.I , , Y O.#.C A S C Z S a e.j.N h i c b Z c i p s C N y n.C s i a h s l.{ | n.l.i.t.q.l.j.n.n.S.n.S.Z.Z.K.J...A.J.n.n.x.#._.].b ~ i 3 ",
"D +.~ A n 5 p c n.).-.Z p u ~ `.j & h ] U.i F F d ( h Z f b d f w u * 5 u C ].P ].S A.K.Q Z +X).8.p 4 i K 1 & < r h c X.0.^ : 6 ] | Q i k 4.A 4.c u i |.s p W A ) 1.o.b R 6.v c c c k n v w R < i } a j L j %X| C J.K.U.J.Z.U.Z.J.T.+X* ..].(.).I 4 c Z $.[ 1 8 ",
"A s s d d h h Z h 0.h ] s A s p 9.9.( u.h a.c 9.~ N d c i i Z Z s 4 I -.A < i c u p 1 s w a u Z 3.s h s s h s i i i i U Y [ 4 7 I j c i c c s s i ~ h C A Q h h d d d s c h s s h h s i i a s c i A g b 4 d d b j h a A c Z c A ~ ^ i $ 3 Q ! c Q 3 A c C Z 8 2 ",
"# - . o . . X & o $ & * # & & 3 * 4 3 , + * & &   & # # & X . & . X & 4 o X $ o , & X $ & $ - & & . # X o o X . o . , , # 3 2 = ; # & o # & & X o X o $ X   X X # o # o # . o o o X X . & X X + 3 * X . : . . . * . o * - $ * & 3 X # # o & - 3 , # # o # # f = ",
"B V p 0 9 t e 0 e r k i c t h > c b r f % L 9 9 f 0 h t p e r k 0 k d t e e r h 0 p d j 9 0 b k k 0 e 0 0 e d c 0 e 9 0 h Z V g P i f f f c f 0 f p f j f z q 0 % w r r t r 0 f e r 0 b 9 $ e d e % 0 i > 0 9 0 b > < 0 0 d h Z Z K t t f r S w e e t e h B B t ",
"6 E.P.v.l.e.;.v.B.L.B.K.N f ] 0.0.+.5.% f.j.e.a.w.l.u.-.+.v.l.-.w.B.R n.Q k.L.> P.B.$.O.m n $.#.w.q.n.-.O.$.$.R $.w.A.f.v.v.[ 4 8 ).J.v.i.s.O.$.a.x.v.n.~ 5.;.t.l.w.f.l.t.e.;.0.0.n.k.$.a.l.%.$.O._ $.d.f.$.[ t.$.9.> ;.a.~ 4 H w.$.h b s.t.w.h : n.f.u.J.P.d.8 ",
"7 ..w.e._ A M._.T.].).h a g G.%.X.].i R.).J.U.XX~ v.&X#XW ^.( 3 s ( E.P.v.R.Z {.T.U.!.b.v R $.`.b.;.b.U.v.k.f X.l O.l $.o.X.| < 8 c.c.7.~.L.!.K.{._.].{.| l I / ' ( X.W r.F._.T.R.R.[.E f _ $.$.( V.@XS.U...F R b oXt.h.'.T.H.K >.^.o.2.R ( $.W 1 t.S.W.3.$.[ < ",
"7 $.w.P.F.b.Z.S.i.J.).Q f 3 b.l.n.J.> x.l.r.i.U.T.T.U.T.U.J.] S.W.J.T.x.x.r Z.x.j.l.x.l.n.l.n.K.b.i.t.i.S.n.E.J.N.F.!.N.[ ^ L i 8 [ #.'.!.K.n.T.t.t.T.x.(.T.T.T.T.z.!.U.(.J.Z.T.J.Z.J.T.L.P.)._.w.w.).l.J.l.n.J.k.Z.K.Z.J.Z.L.S.L.U.S.P.S.S.T.L.< [.b.!.l.5.| > ",
"3 j b h.J.Z.i.t.i.x.q.| 9 :.J.U.!.t.$ i.t.U.U.x.x.U.T.U.U.J.L.U.U.U.L.J.0 n.Z.T.i.l.i.l.i.Z.i.b.l.J.i.q.i.q.Z.i.U.U.t.i.;._ A $ 8 r.Z P T.K.t.9.U.q.q.K.L.T.i.J.L.U.L.L.t.A.U.x.T.K.K.T.T.L.q.T.b.x.q.t.x.x.x.i.l.Z.i.Z.Z.x.t.Z.j.n.J.K.J.Z.K.J.r (.L.U.] [ Q $ ",
"3 C C ,.Z.b.Z.q.l.n.x.I R G.T.q.i.q.! K.J.l.q.q.K.J.Z.J.U.J.L.J.K.K.l.Z U.l.J.b.K.t.i.t.i.i.Z.A.K.Z.q.J.;.l.i.i.U.K.T.t.@._ ~ X # 9.I ] T.t.j.q.n.U.J.U.q.L.Z.Z.J.L.S.j.q.T.U.Z.A.J.x.Z.J.T.T.i.t.U.q.l.t.t.n.l.x.i.x.| l.i.l.i.t.l.9.K.n.K.A.Z.-.L.K.T.d./ A : ",
"g ] b I Z.j.x.x.x.x.l.j Z ..J.U.T.U.d b.i.l.T.Z.U.J.J.U.U.l.Z.n.J.b.b.L.n.n.b.n.Z.l.q.i.q.q.t.q.5.T.q.q.i.i.i.%.c.t.i.T.t.R A % 3 D p J.n.U.c.U.9.i.U.J.l.U.Z.L.J.J.n.l.Z.x.J.Z.Z.Z.Z.Z.Z.A.K.q.t.q.U.l.i.n.t.x.l.l.l.l.l.l.x.t.n.l.x.Z.J.n.x.n.Q C.K.L.r.0.Q $ ",
"6 ] v { n.L.i.x.x.l.@.T r.i.K.x.J.b.g S.i.9.A.J.K.K.5.K.T.x.x.c.l.l.n.U.t.t.n.l.x.i.K.q.%.i.t.x.U.U.%.q.5.t.i.5.w.e.q.n.(.F Q X $ ~ 9.).Z.q.U.9.t.n.%.q.J.A.U.Z.K.t.n.n.K.Z.x.Z.Z.b.z.n.Z.Z.T.A.l.A.q.j.c.l.x.l.l.l.i.l.x.i.l.x.b.n.J.l.L.b.Z.S ^ K.J.n...X.Q i ",
", ..L  .Z.Z.n.n.x.K B ;.Z.J.J.S.t.L.3 j.t.t.K.K.K.Z.n.Z.;.9.j.i.i.j Z.L.5.l.l.l.Z.l.q.%.q.q.q.q.q.L.T.q.%.q.i.i.n.t.t.J.w.X.6.$ # a.j.K.r.x.U.U.T.Z.J.i.K.i.t.A.U.J.n.Z.n.5.n.n.x.n.a.Z.J.J.K.L.9.i.t.t.i.i.i.l.l.l.l.i.K.q.t.t.n.J.n.x.n.l.n.i x.n.L.L.-.$.I $ ",
"7 ;.` Y x.n.Z.A.Z g t.i.j.S.Z.x.T.b Z.L.S.U.x.q.J.q.l.l.Z.t.x.i.j i.K.A.l.x.l.x.i.i.5.i.q.5.q.L.q.q.%.t.%.q.t.Z.w.%.Z.Z.l.K.O.> a g.T.Z.K.U.q.U.J.U.i.%.L.i.Z.K.K.J.n.Z.J.K.n.J.A.x.T.J.L.Z.n.Z.U.t.t.l.x.i.l.q.q.5.i.Z.i.x.q.l.n.n.n.K.J.Z.S.x.J.J.n.t.} +.~ : ",
"6 h p  .J.K.Z.] j ..x.l.x.q.J.i.I ] Z.S.i.l.t.%.9.i.i.x.l.n.n.i #.t.x.Z.Z.x.Z.t.l.i.q.t.q.l.K.q.q.q.L.9.q.T.q.L.9.b.J.K.J.T.[ $ & *.U.q.x.U.U.K.5.i.i.i.5.q.Z.K.K.Z.n.J.i.n.J.J.K.Z.Z.Z.J.Z.Z.x.J.9.i.l.i.q.Z.a.l.q.q.i.l.t.l.i.9.n.q.n.J.U.h J.J.l.n.L.Q $.[ < ",
"3  .H d.K.J.S 5 L J.i.x.x.q.T.T.B J.L.t.t.Z.t.q.U.l.l.J.l.Z.3 l.j.x.l.5.t.l.l.t.q.i.q.q.q.x.q.5.q.i.q.Z.%.U.x.i.x.J.J.U.T.(.! $ 7 g.K.Z.T.K.U.5.q.K.q.5.J.U.K.K.9.l.J.K.L.0.n.K.K.J.L.K.b.T.A.Z.T.i.0.x.l.Z.t.L.i.q.i.q.i.i.l.l.l.U.L.J.Z.K.n.J.n.U.L.U.@.w.Q i ",
"8 K n :.$ P b 8 :.U.9.T.J.L.d P i.L.j.T.l.q.Z.Z.l.l.n.Z.b.w.Z.b.k.i.5.q.U.q.q.5.T.t.%.t.t.q.Z.L.%.l.x.q.%.J.9.U.q.Z.n.J.R.z.A $ 4 Z U.U.U.9.9.9.i.K.i.%.J.K.T.x.K.Z.L.K.x.b.J.J.L.A.J.n.L.K.K.J.Z.K.T.n.i.q.i.9.J.i.U.i.i.i.5.t.i.U.Z.J.J.I.J.J.n.J.L.L.[ Q A 1 ",
"7 | ) *.J.b.P $.U.j.q.b.J.S.g i.T.5.i.i.x.l.i.i.x.x.n.x.4 K Z.Z.t.K.t.K.%.Z.t.i.i.q.T.q.q.5.Z.q.t.i.q.a.n.l.l.n.q.Z.l.K.K.R.[ % 8 :.i.T.U.K.9.i.q.5.U.i.K.U.Z.T.J.Z.Z.L.L.J.n.K.l.J.T.Z.i.K.K.x.x.x.x.q.T.i.t.t.i.q.i.i.i.i.5.t.n.x.w.K.L.U.J.J.L.(.L.L.@.~ I < ",
"7  .W :.S.T.] ~ t.x.T.t.Z.~ ) j.T.q.T.q.A.x.n.l.j.x.Z ~ T t.q.n.x.t.q.%.t.l.i.i.5.q.q.U.q.q.A.i.t.t.%.Z.l.l.Z.Z.U.J.Z.U.U.U.A < 7 T A.q.T.Z.K.i.5.T.A.K.K.K.U.i.J.U.L.L.t.l.Z.Z.n.Z.J.5.5.9.5.q.x.9.x.x.i.t.q.i.q.q.q.i.i.5.q.T.K.i.l.J.l.J.J.L.J.L.U.n.[ R ~ < ",
"o #.' h.T.L.9.b d.Z L.T.T.5 S.J.T.K.A.L.Z.i.l.x.Z.Z.a Z.Z.U.x.U.x.t.l.t.A.l.i.x.l.T.q.K.T.t.%.x.l.l.q.n.J.U.q.t.K.K.%.K.A.U.Q $ 8 d Z.U.J.n.J.T.5.q.i.K.Z.K.q.T.J.K.J.L.T.i.Z.J.U.J.T.i.J.T.n.Z.9.q.t.i.9.U.J.l.q.q.q.q.q.5.q.q.t.L.9.J.U.L.J.J.J.(.L.n.o.Q A % ",
"0 { Z P l.Z.K.Z.$.h a !.L l.9.T.T.q.i.J.J.t.x.x.x.x.| n.J.i.x.x.x.l.t.U.5.L.l.Z.i.;.q.A.q.i.q.t.q.l.5.Z.5.U.x.q.n.l.9.t.J.K.Q > g <.J.U.J.J.9.T.U.9.9.5.%.l.Z.J.n.n.J.Z.Z.n.i.a.b.U.L.J.U.%.J.q.q.l.Z.i.i.5.t.T.t.i.9.q.i.q.i.t.t.l.l.n.l.U.K.t.Z.Z.x.U.k R A < ",
"r ] k :.t.Z.J.i.9.x.L 3 M t.q.L.q.9.;.U.i.Z.Z.Z.Z.K Z.q.T.l.J.L.l.Z.L.q.i.i.t.l.l.x.K.U.5.i.q.K.q.Z.t.%.t.l.A.5.%.U.A.J.Z.T.~ > h &.n.J.U.t.l.T.U.Z.T.q.T.%.J.Z.Z.Z.Z.J.n.i.x.l.l.L.K.L.Z.l.t.n.U.n.A.Z.x.l.K.q.q.q.q.5.q.K.q.A.w.n.i.i.%.q.5.L.J.L.J.Z.n #.I 1 ",
", h U k.l.S.L.q.Z.t.t.l.4 K.x.T.K.K.t.t.t.i.Z.Z.K L.J.Z.J.J.i.l.A.i.t.t.t.U.q.l.i.q.0.9.l.q.5.U.U.i.l.t.t.Z.l.T.J.K.J.n.Z.U.$.w g { S.J.Z.x.t.n.U.q.%.Z.K.T.Z.Z.n.n.Z.n.n.i.n.x.Z.J.K.Z.T.T.Z.l.Z.i.A.K.n.i.t.%.t.5.t.q.t.U.n.l.i.9.J.U.U.%.J.L.J.J.Z.Z.A X.L i ",
"; h U x.q.i.t.L.J.t.T.x.b.5 J.S.t.i.i.t.q.t.l.j S.Z.Z.Z.x.Z.%.J.t.%.Z.5.q.T.%.%.t.t.i.t.q.U.q.L.K.l.i.n.l.Z.Z.Z.Z.n.x.n.J.U.~ w a I Z.x.i.5.q.5.q.T.a.q.5.L.T.J.n.i.c.n.x.x.J.n.Z.j.q.T.L h ..| q.A.Z.x.J.U.A.U.U.q.t.q.i.l.K.n.0.t.q.;.Z.K.%.U.Z.Z.Z.J.W o.Q 1 ",
"7 t.3 Z.Z.L.x.T.q.9.q.K.Z.C I a J.i.q.i.T.] I l.Z.T.i.l.9.Z.5.K.q.l.i.%.L.q.Z.A.q.t.t.t.9.9.Z.K.x.l.l.x.Z.Z.l.Z.Z.n.J.n.J.S.X.% a T K.j.n.w.t.n.T.U.A.%.l.Z.J.T.K.S.n.S.n.n.J.U.j.i.Q ;.e.i.S.t.i.q.%.Z.n.x.K.K.5.5.J.q.l.x.Z.Z.q.%.5.q.U.Z.L.%.J.Z.L.J.r.3.Q < ",
"# @.#.1 T.i.Z.L.9.9.n.Z.B n.Z.K.x.a r.l.5 j.j.x.x.x.U.x.n.x.J.9.5.i.%.U.%.t.Z.t.q.l.i.n.K.J.n.x.Z.l.l.l.l.x.Z.x.n.Z.n.J.J.U.X.$ 8 T S.L.l.n.U.J.K.l.U.K.T.Z.q.x.L.t.J.K.Z a - a , 8 h.T.U.L.T.9.J.U.x.x.x.i.i.5.T.q.T.5.q.x.l.i.9.q.%.T.L.L.K.Z.Z.j.Z.t.;.' o.w ",
"B | x.).X S T.J.T.q.K.U.Z.n.L.U.n.q.q.h x.T.Z.l.x.b.n.K.i.q.9.q.i.t.l.U.Z.L.5.t.%.t.9.x.U.n.J.i.Z.Z.x.i.x.x.Z.l.n.n.K.n.S.K.R < 8 U J.n.L.Z.j.n.Z.l.L.Z.K.q.T.T.J.n.S.| J.L.K.n.Z.K.S.J.J.L.q.U.%.T.K.t.i.t.t.L.K.q.q.%.x.x.Z.K.T.q.l.t.T.%.q.i.x.i.l.U.j.n X.1 ",
"8 I  .>.t.T.%.!.!.T.J.I S.n.J.U.J.J.n.U.j g x.i.9.0.Z.n.U.t.q.t.i.K.5.5.i.q.5.i.q.J.9.5.J.J.x.n.i.Z.l.l.Z.l.l.Z.n.x.x.J.n.U.! $ N Z D n.b.l.t.;.L.U.T.J.U.J.x.Z.n.S.U.J.U.n.Z.n.J.J.J.L.J.T.U.K.U.K.K.Z.i.i.T.Z.q.%.9.L.q.i.q.J.x.%.q.A.%.L.%.Z.n.x.x.x.n.U.Z < ",
"# @.Z j.r.t.w.e.a ] U.K.n.J.t.5.n.t.S.n.l.x.n.r.l.e.l.9.U.t.t.q.t.%.t.Z.t.t.t.T.K.J.q.n.a.j.l.l.x.l.Z.l.A.l.l.t.w.U.J.T.n.n.F w a i J.J.b.l.n.q.5.Z.L.L.Z.t.A.Z.x.J.J.n.J.L.J.J.i.T.T.n.J.T.J.9.q.l.q.J.i.q.i.U.K.n.U.x.t.w.i.i.t.t.t.U.U.J.L.9.J.0.Z.b.n.@XX.i ",
"$ ] h h.c.T.L.S.q.e.U.T.J.c.9.;.J.L.J.n.t.L.A l.w.t.t.q.r.q.q.t.i.t.i.K.t.i.5.9.U.i.T.Z.l.b.j.J.l.T.x.Z.l.n.t.J.9.J.Z.J.x.J.Q 1 i n @.J.J.J.l.n.L.T.L.q.Z.;.Z.x.n.J.S.J.L.n.n.Z.q.x.J.r.Z.n.j.q.i.U.i.Z.J.l.Z.%.U.U.n.l.x.n.i.9.t.T.l.J.9.K.J.9.K.b.Z.K.U.@XX.1 ",
", #.Z Z.f.n.L.b.] l.T.q.U.x.U.J.t.K.j.x.u.n.J.- n.l.x.t.i.l.t.U.l.q.t.U.T.j.a.b.Z.x.Z.Z.x.t.w.J.Z.l.i.Z.J.c.C.A.K.A.Z.n.l.U.Q : Z Q &.L.J.J.n.w.U.x.i.q.L.L.A.A.J.n.v.J.J.n.J.j.t.n.U.i.T.t.t.U.i.i.K.i.L.q.Z.x.Z.x.J.x.i.S.l.9.A.T.K.U.q.%.9.L.%.9.q.Z.w.R.A < ",
"3 $.;.J.J.n.n.n.p S.| q.n.J.n.t.T.l.R.K.K.J.T.(.q c.j.l.x.i.i.x.l.i.Z.K.(.S.t.n.L.t.U.l.t.Z.D Q j h I l.J.A.K.J.J.Z.S.n.n.~ n , 5 L 9.=.J.n.n.C.x.(.T.J.Z.l.l.K.t.L.Z.B.K.U.(.K.S.n.U.n.l.i.n.c.K.A.A.i.i.l.T.q.S.T.n.j.l.n.q.q.K.n.e.w.t.l.r.U.t.q.J.J.l.{.h 1 ",
"g t.T.J.J.n.n.Q I 9.9.D Z ~ U.).[.@XI Z _.U.K.J.T.i A s y.p p u j j R.@.T._.c.].].b Z s s p u u 1 i 4 p Z U.U.U.J.K.A.C.A.Q ~ % 7 3.k.D Z C h h h J.N A h h b j ~ Y D F S I $ c C Y h h h n.l.U.(.l.x.i.x.T.T.T.i.i.n.t.x.z.l.U.q.t.q.t.l.w.t.n.T.r.x.Z.A.$.< w ",
"*.F.}. X$.P.-.r ~ | i ! s I 8 h C * s u s D [.{.A f $ < a * i N G 5 h | Z k > 4 p & p A * u - s * 1 u 4 u i * i ] _.R.].~ l.#.i Q <.c R s F A u i i } < < h h s p i f i c ! a h R ! A i i S ].].L C [ p I ).{.d i I L.Z ).x.x.@.z.Z.J.i.).n.t.J.Z.J.K.J.).* , p ",
"B S F h i s c +.~ d d ^ ^ i I C j d Z - 3 - h Z u & * A > X.# g , # 1 i c i A C 5 i h 5 i * 3 5 3 5 a a a c 5 A N i p 3 p Q } % P Q c A s ~ i i s s a u a 5 d h 3 i s h h 1 i a a s i a h h i i d a Z w 4 < 4 , i A Z i p i u i p w h 1 p s h N I A C Q U t.h.i ",
"9 3 , $ $ o - - & & 3 4 . . & 3 = 3 = # + - - # # + # # # - - # ; o X # 3 5 # & 3 3 3 = + = # @ # O # - = # # - & & o & & u 4 o - & & * $ X   & # . & + . & X . & - & 3 # - # # & # # o X . 0 & X X , # & # o o o . X & 3 * o X $ X 4 X X 4 u X < : * 3 5 , X G ",
"z h I r t r q f d b K e r t d P h i B V h P P I g 1 j g j j j h f r 9 e j B a i 1 P K V g h g d g d a N I g j V j k q 9 N k e g Z h Z I t 9 > r e K t Z h f d P b d S S > g 5 d B a g h i Z > j f r k X o h B e S k k 0 z Z r r p 9 z 9 q z 0 n n q q t d > 9 $ ",
"/.E.P.!.J.b c b Q 9.j.W ~ / d j R A C F h X.$.O./ n j G R | K G R X.} ~ r.$.Q 4 ) ^ ^ X.%.X.#.L ~ #.;.e.=.L e.a n S f.n.[ b o I W.F.oXE.U.R E %.;.-.-.e.>.h.-.j.d.v.F.a , Z F.B v.>.>.9.#.@.~ #.9.t.^ X.d e.j.J Q t x J J | l.v.t.W E.W h k.I.N.F.].!.E.*Xm.$ =.",
"<.R.T.U.K.K.F.=.| _.T.T.:.O.b K b b n n R $.$.^ ) h j E /.[.Z.| ].j I v =.h ~ ( k n R W ) %.+.+.[ n m 4.f J _ n h B.)..XQ Q : g *._.J.U._.%X_ R _ 5.W 1.o.5.w.| _ 0.q.< 7 G 5 o.b w 4 g F I R t.s N +.A j B.U.F.k.[.'.S.9.`.Z.)._._.n.n.I.x.i.i.(.t.i.j._.X.$ C ",
"%XZ.n.J.A.J.q.x.b.b.i.x.l.l.x.).F.x.b ! E 0.^ ! H t.W :.T.U.Z.U.Z.z.n.B.n W R ( v ( ^ R W W ^ ' k +./ k c 2.$.r.S R.A.{.#.[ 4 f T n.l.q.i.x.l.%Xf e.6.W 5.` 1.W _ 0.w.0 , e.O.b b b b 5.9.t.T ] J.n.d.g.F.n.l.h j.x.T.U.R.a.x.T.b.n.J.x.l.i.i.q.t.t.i.T.T.X.: Z ",
"*.J.Z.n.i.x.n.J.q.i.n.n.Z.i.T.Z.l.l.XX'.oX~.F./.L.Z.Z.x.x.K.T.L.U.J.n.j.x.K.n.T._.oX^.|.T.[.E..X!.N.G.c.n.E.P.F.n.n.U.).c i o S d K.l.j.j.n.x.Z.r F./.j.N.B.S.P..X.Xb.5.S.F.F.x.!.F.^.|.T.K.Z.x.J.q.S.l.l.] M n.>.n.Z.T.x.j.i.x.t.w.l.l.b.r.t.;.9.q.i.(.Z.X.X h ",
"T (.J.J.i.q.T.l.q.x.b.l.x.q.T.i.9.l.l.n.T.J.T.L.S.J.K.Z.Z.Z.Z.Z.T.Z.U.n.q.J.n.U.U.!.!.l.q.T.T.x.l.K.t.j.l.v.n.n.U.U.c v ` n 1 7 i K.i.i.w.t.J.t.b j.j.x.K.a.t.i.T.j.Z.b.T l.l.J.j.(.(.Z.Z.K.Z.Z.l.T.t.S.r.Q N K.x.I x.n.l.x.j.i.t.t.t.9.0.%.i.T.J.w.i.U.).X.X h ",
":.J.l.L.U.T.x.q.q.x.Z.i.q.5.Z.t.Z.Z.w.L.L.L.T.L.J.T.J.L.Z.Z.5.U.K.J.U.J.J.n.n.A.J.T.T.U.T.Z.T.q.J.j.x.i.l.l.n.l.b.U.#.n d h : 3 a k.t.j.t.l.i.i.U.i.q.T.j.j.l.b.x.i.Z.Z.t.q.i.q.Z.T.L.J.n.n.J.J.K.9.w.U.t.n.S n.i.Z.;.*.l.l.T.T.S.t.n.w.t.9.q.9.e.q.U.l.[ b i h ",
" .t.L.L.K.Z.x.K.U.n.q.Z.Z.i.q.q.i.b.t.K.L.L.T.L.J.J.Z.S.Z.Z.A.A.U.Z.t.J.x.t.J.A.K.K.T.K.i.U.L.l.i.t.t.t.l.t.l.L.l.n.+.n L d o 3 u N l.b.T.j.i.t.l.J.9.J.U.q.x.i.x.b.b.~ t.x.i.q.q.L.x.x.Z.J.Z.n.q.t.i.t.n.Z.h J.L.T.l.q.9.j.i.R D h j.e.t.9.9.q.i.9.i.n.c Q , 4 ",
"<.!.J.l.l.t.n.t.q.Z.i.K.t.5.i.%.U.Z.A.J.T.U.U.U.A.Z.Z.A.Z.Z.Z.Z.n.J.U.T.J.l.n.n.A.Z.L.U.x.U.i.l.Z.t.i.i.t.9.l.x.P.n.} i A p $ 2 j ) Z.Z.i.9.t.T.e.5.x.r.t.n.l.l.l.l.x.g T.L.A.L.j.t.t.l.Z.Z.x.Z.J.i.t.a.L.Z.L T.K.Z.n.x.q.9.i.Z.t.A j.t.i.i.t.q.%.q.l.K.< b 4 Z ",
"d l.Z.J.J.l.i.0.5.Z.x.Z.U.i.q.q.n.q.J.L.T.K.U.i.A.K.A.A.A.Z.Z.A.U.J.J.9.x.l.l.A.Z.J.A.K.L.A.%.Z.c.l.q.i.n.A.l.n.n.n.^ A Q f : 3 ~ i Z.l.j.L.i.i.0.A U.x.l.x.x.x.i.l.Z.g 9.Z.x.q.l.l.l.Z.A.%.J.L.Z.;.L.T.J.b.Y A.J.n.%.J.;.T.t.i.l.i.#.i.t.i.9.J.T.t.t.R.p A 1 s ",
"Q K.J.J.J.n.i.r.q.Z.i.L.J.i.i.q.n.%.J.L.L.K.K.J.Z.l.l.x.Z.Z.l.5.%.K.n.t.l.Z.Z.t.U.U.K.i.U.A.L.K.i.x.n.Z.J.Z.l.K.L.).~ A Q Q 5 6 V L x.S.q.Z.q.q.i.a S.r.L.Z.z.x.l.l.r.d T.r.t.;.x.5.i.i.L.q.Z.Z.Z.l.x.T.J.] d l.J.Z.l.J.9.t.t.5 b W X.i.i.t.q.U.J.(.).%X: 3 * d ",
"( Z J.A.Z.9.n.i.L.i.i.T.i.l.q.5.T.T.J.U.%.K.U.A.Z.Z.t.Z.l.Z.L.L.A.J.K.Z.J.U.J.J.T.J.K.K.U.A.J.T.S.Z.n.x.n.Z.J.J.J.).} c R K $ 3 K K +XT.a.;.T.9.x.j U.t.x.Z.j.x.x.Z.i.l.S.i.Z.q.Z.i.l.Z.A.q.%.i.t.Z.T.K.T.J.#.l.J.n.Z.x.t.t.x.b r.9.K.T.U.9.q.L.t.d ].% 9 S i 8 ",
"1 S T.S.n.A.c.x.t.i.i.q.5.%.q.%.A.5.U.K.U.K.Z.n.U.Z.Z.Z.Z.Z.Z.%.J.U.J.Z.K.n.Z.q.T.b.i.%.L.Z.Z.i.n.n.n.n.J.U.J.U.K.(.I E _ C 1 - B i <.L.T.T.L.U.J.T.U.L.q.J.i.q.l.l.q.l.l.5.A.A.i.Z.x.Z.Z.Z.x.q.9.Z.L.Z.T.S.V Z.Z.j.t.S.x.T.Z q.L.T.9.U.t.U.%.q.q.(.).4 A Q X 7 ",
"P _.T.t.Z.n.l.i.t.i.t.%.U.q.J.l.i.n.l.J.K.5.U.Z.L.Z.l.Z.Z.Z.Z.5.L.L.K.L.l.A.x.n.T.a.Z.Z.L.Z.Z.a.Z.l.l.K.J.Z.K.J.S.J.J.^ $.^ 4 3 Z a I K.T.T.i.J.J.A.U.i.i.J.J.T.Z.Z.t.l.Z.Z.Z.%.l.T.Z.x.T.a.J.Z.Z.n.a.n.9.i.) x.l.t.t.r.@.>.T.q.t.T.;.T.z.K.J.U.L.T.S.9 ! L < d ",
"L C U.L.T.L.n.l.i.x.i.5.T.%.i.q.%.i.i.Z.U.l.t.Z.q.Z.Z.Z.x.Z.t.A.%.x.J.Z.t.i.9.a.Z.n.U.l.x.Z.Z.U.U.Z.Z.n.Z.Z.Z.K.B.K.n.-.o.] 4 8 a 4  .R.T.J.J.A.J.Z.A.T.U.U.K.n.Z.q.t.x.Z.Z.l.Z.q.J.Z.Z.i.i.Z.Z.J.t.l.l.l.h.l.i.S.T.q.b q.t.9.q.q.L.9.q.e.U.J.U.K.q.U.R ~ i 4 3 ",
"u F.q.U.Z.J.Z.K.x.Z.Z.A.q.q.5.i.5.J.Z.q.9.%.T.q.t.x.l.l.l.Z.t.%.U.a.L.q.9.Z.%.9.Z.A.l.T.x.T.q.%.q.Z.l.i.q.x.l.A.b.b.b.s 6.O.< 8 X.d I ).T.Z.K.J.J.L.U.q.%.q.l.9.x.x.Z.x.Z.x.x.Z.%.i.K.Z.A.Z.Z.i.l.Z.J.Z.t.j...x.K.T.8 q.i.i.q.;.q.T.q.%.T.T.J.q.l.U.J.e.N ~ $ * ",
"* +XI.!.U.q.q.i.K.Z.Z.q.%.q.U.A.%.q.q.%.l.i.q.q.q.T.K.x.l.t.t.Z.x.S.%.i.T.i.Z.J.K.Z.Z.x.x.Z.Z.K.9.Z.i.t.9.n.n.l.b.b.J._.A ~ % N #.C h U.L.q.t.J.J.Z.%.q.%.L.U.q.q.l.Z.l.l.L.J.K.i.i.L.K.Z.U.l.Z.i.L.J.q.i.q.i.L.%.h.Z.T.l.q.T.q.%.q.q.q.K.L.U.Z.T.Z.l.[.: j : 5 ",
"4 [.L.U.x.Z.J.9.l.i.n.l.L.i.A.i.q.%.%.Z.q.i.l.x.l.l.5.x.K.Z.;.q.i.Z.i.q.%.T.L.L.A.T.Z.Z.K.K.Z.K.K.n.t.J.l.l.n.Z.K.A.U.M.! A $ Z C j c T.L.K.L.J.T.K.q.9.q.U.%.5.K.Z.Z.Z.Z.%.U.L.J.9.i.J.U.Z.U.K.L.q.J.L.q.i.q.l.t.U.Z.L.Z.t.q.q.9.q.q.q.L.T.t.U.L.l.U.R.> ) : ; ",
"#.R.S.J.z.Z.i.U.q.9.l.n.n.n.U.q.q.i.q.x.i.q.q.T.i.i.l.l.x.l.q.t.q.t.Z.q.%.q.l.L.Z.Z.Z.5.i.K.K.L.J.L.T.A.l.Z.l.Z.A.n.Z.K.E.! , h w.c X.t.U.U.K.J.%.T.U.t.t.t.U.%.5.x.J.i.l.J.A.L.Z.i.Z.L.K.T.K.U.K.U.%.Z.L.T.U.5.l.Z.q.i.q.L.L.q.9.Z.q.%.L.U.U.i.Z.Z.Z.Z.@Xo : 6 ",
"g.A.x.Z.Z.K.%.n.5.T.l.Z.Z.L.Z.L.i.q.%.q.Z.5.q.i.l.Z.i.i.Z.U.t.5.i.q.U.q.%.i.i.%.l.x.l.Z.L.Z.K.5.n.J.n.Z.l.x.n.A.i.l.Z.J.t.A < 3 h P.P T.!.K.K.q.Z.J.%.q.q.%.q.q.5.J.Z.A.T.Z.Z.Z.Z.J.J.Z.J.L.Z.A.q.U.5.U.L.L.L.q.J.%.5.%.T.i.i.U.Z.q.9.L.U.K.T.q.Z.Z.Z.l.T.> o g ",
"H.x.J.J.9.U.Z.K.J.J.Z.J.n.i.U.%.L.%.q.q.T.q.%.i.i.i.A.Z.q.K.Z.t.L.q.5.i.l.q.5.T.Z.5.Z.L.i.Z.Z.K.x.Z.x.n.l.t.5.n.i.x.n.U.@XW < & C ~ (.L.K.K.Z.U.Z.q.q.U.U.t.i.i.x.A.K.t.L.Z.Z.l.q.J.Z.q.S.T.9.J.%.U.J.U.%.%.T.Z.U.T.J.T.T.U.q.5.%.%.T.L.;.T.A.5.U.n.L.n.(.x : d ",
"<.L.n.i.K.J.%.U.T.q.i.Z.A.L.U.J.L.q.L.L.L.5.t.t.5.x.i.5.i.i.i.K.q.T.5.q.%.T.t.L.x.5.l.Z.Z.Z.Z.q.x.n.Z.n.i.x.n.n.l.J.Z.L.[.| : S j X.K.T.K.U.U.U.Z.K.t.U.Z.q.q.t.i.K.J.l.Z.Z.Z.i.n.Z.U.L.x.Z.j.b.Z.Z.Z.U.T.%.L.%.L.J.q.%.q.l.i.i.j.%.q.q.q.q.q.U.J.K.t.b._.R : h ",
"U n.K.x.Z.x.l.q.Z.T.q.J.5.i.K.T.%.5.U.q.l.i.q.i.l.q.t.l.l.U.l.t.Z.5.L.q.Z.T.%.K.q.t.Z.l.l.l.x.x.n.x.J.l.0.n.n.n.Z.l.Z.U.Q j : # s h M.T.n.Z.J.Z.Z.x.K.x.l.0.t.t.l.%.q.Z.a.Z.i.Z.x.Z.Z.T.i.i.9.Z.q.J.i.T.Z.L.L.Z.L.q.Z.L.q.5.i.t.q.q.t.%.U.t.t.Z.U.i.U.Z.j.p o 5 ",
"5 & n.l.Z.Z.l.K.Z.L.L.5.T.A.K.Z.5.T.5.q.l.q.t.q.i.t.l.K.t.q.i.x.L.i.q.x.%.q.Z.J.i.Z.i.Z.Z.l.Z.Z.Z.x.J.l.S.K.n.x.x.Z.J.Z.L h < 3 Y I P J.J.U.K.n.Z.Z.U.9.T.q.t.i.t.5.q.q.i.n.t.l.x.Z.T.J.L.L.K.9.Z.U.K.L.q.U.U.T.L.U.U.J.Z.K.q.;.%.i.q.q.5.l.5.q.%.K.J.Z.j.d , 4 ",
"s n h l.n.t.U.U.5.L.T.Z.i.i.L.L.J.U.e.t.n.5.q.q.q.q.U.q.i.t.%.l.t.t.9.9.U.J.n.P.Z.q.t.x.Z.x.Z.Z.n.l.w.J.b.n.n.n.Z.n.n.A.| 4 : 5 < i I K.L.t.S.S.n.J.J.9.x.i.l.l.t.5.q.Z.n.n.J.n.J.J.x.w.T.J.l.5.J.K.Z.U.J.%.%.%.U.K.U.K.S.U.i.T.i.n.t.t.9.t.K.U.i.J.i.A.q.# < - ",
"] ^ ..x.L.u.C.J.i.T.q.;.q.K.U.i.q.q.T.T.5.q.t.q.i.q.q.t.U.t.t.q.L.w.L.9.K.A.J.J.L.i.K.Z.l.S.Z.Z.C.z.n.L.n.L.n.J.l.x.Z.A.4 h : 8 X.b s U.L.L.J.J.S.n.Z.t.Z.l.i.l.i.t.Z.l.n.J.J.q.L.%.J.;.t.J.L.U.q.%.q.i.L.T.q.U.K.K.U.0.L.U.t.L.%.q.x.U.U.t.9.q.x.T.K.n.9.i + 3 ",
"C h Z J.U.l.J.K.J.Z.Z.Z.J.T.K.q.t.0.Z.r.i.q.K.L.9.n.r.t.l.5.q.t.e.t.T.q.L.L.L.R.q.L.Z.L.Z.t.t.T.K.K.K.J.t.b.n.U.K.Z.n.R.e.L : 2 b 4 Q U.I.J.J.J.Z.J.x.U.a.l.x.9.i.q.i.x.n.n.n.q.9.9.Z.0.t.9.U.U.q.i.q.a.K.%.K.%.A.5.K.q.T.q.n.9.x.i.q.9.i.q.n.t.j.Z.T.n.Q i $ 3 ",
"] #.S Z Z l.(.(.T.T.T.).J.J.T.x.J.i.!.l.i.i.l.q.U.9.U.9.l.J.n.i.l.z.q.l.U.J.J.K.T.R.T.T.(.t.l.Z.(.T.K.K.n.J.(.L.Z.K.(.+Xn.i $ h a b | @X~ D ~ A K.n.J.J.n.x.e.x.Z.x.l.Z.x.l.n.J.l.K.S.J.A.q.T.Z.i.T.A.Z.J.T.T.L.r.c.U.J.9.L.t.9.K.U.t.t.t.i.U.w.i.b.Z.{.^ 5 $ 8 ",
"..Q C c C F D A c p C @X+Xj.S _ A c h l.T.(.t.t.R.T.i.t.x.Z.T.n.n.n.s ).v.U.J.R.] ! & A b b d j ~ h A {.).J.(.].).A c U b & , 8 ..B -.* b p Z p s j d.J.l.i.n.n.K Y d c s Z K.l.Z.T.C.n.c.U.T.K.i.T.U.q.x.q.q.U.!.b.U.Z.J.T.T.J.U.a.t.S.x.x.Z.K.J.J.x.d.h a 4 8 ",
"S c h h N F =.n p # 3 i h j L i A 5 & i U.x.x.n.T.a.j.l.).z.(.Z._.=.L #.~ +X+X~ A c i 4 b j h h u - h i A c C p j z & b ;.C 4 V B | 9.h ^ Q & h u u i A ].+XT.A b ) 4 a i B n ] t.Z ].A.(.J.T.T.R.R.U.j.x.L.Z.L.t.L.J.Z.Z.n.(.a.n.Z.Z._._.).).c f p $X@X].Z , h ",
"s M a N h g c C * - 4 4 u i j c h , O 8 Z A A C c c c 1 u i b c i W * u a c c a - # 8 # # & c i & - & #.X.n i & N 5 a h S B j 8 B 5 a U h v.8 i a h a s < s i c ) c Z i u a L i i 3 p h h c c p i c h i c d j Z A s h Z c c b A Z a , h # X & r * Z c c h B.1 S ",
"- - 3 O - - @ 6 - - - # # # 3 8 3 , # * , * & o X X : o . < . & * 3 , * & 3 * * - - + O 7 9 $ O . - O O - - # # 3 = @ = # @ V Y , # = - - - # 4 + + o . X # 3 o 3 , & o X o X o & & & $ $ * * o . o X & * $ $ o $ * $ X $ & , * 1 , o $ > h & & # # 3 3 + 7 * - ",
"S P P S P S C P 1 P Z b e f k i r h > k f z z r q 9 > 9 > x v k : > y z L K K C L j C P S V a P 5 5 d a 5 e g g g P B B B M 8 h i h P B j h p h j K 9 9 > z 1 j p Z k 0 0 % c r j C t t z t k z c x z b k k v k 9 z t 0 t z v v L Z Z p j c S b B j Z Z P I ..g ",
"T k.L o.^ p A ~ ~ ~ I G i.I e.Q b $.5.` 6.$.$.9.$.B.B.l.} e.w.u.%.,.w./ j.a.t._ K K ^ ~ v q.h f Z f ~ v ^ %.#.| o.X.$.r.>.v.@.B B P { k.#.t.| ^ Q e.| X.| H z j R U.9.^ x G W $.F.S.b.z.a.$.R E W 0.a.k.w.w.P.l.R R 2.` t.U.B.n.z.x.!.I.t.^ ' h $.X.@.t.u.-.] 5 ",
"i | j.l.x l Z f ! f M..Xb ).j._ b }.W.a [.T.T.T.)._._.n._.].R.].Z.).l.Z.)._.@Xf.L Z ;.Q.j.s q./ ! h L f n } _ ) ' o.[ e.r.0.@.8 , 6 j.I S 0.W R b W o.v n v b ,.E.(.(.e.J P K._.K.K.U.J.L.).[.~.].K.).l.c._.A.J.L.K.x.x.J.R.U.).K.T.K.A.).'.j.Z.v.OXd z.n.c [ 1 ",
"B { N.$XU.Z.A.U.K.Z.T.J.S.Z.b.T.U.n.U.U.L.Z.K.K.j.J.q.w.!.K.J.0.T.t.Z.Z.).J.L.J.T.#.).n.l.Z.Z.Y I.o.m c ( _ 5./ W _ t.9.Q ~ B : g 7 e.^.!.S.V.S.S.!.G.b.d.P.~ (.x.n.x.Z.c.!.Z.U.U.S.A.T.T.T.x.T.n.T.T.K.J.A.n.A.S.Z.l.l.n.l.(.(.l.U.t.c.q.J.J.:.x.t.j.Y A 0.X.4 ",
"a ! *.[.(.l.T.l.L.T.U.S.Z.Z.l.x.J.U.J.Z.J.K.K.K.K.Z.q.q.U.t.i.J.Z.K.U.Z.i.U.q.U.T.T.L.S.x.J.T.Z.Z.n.F.n.x.I.G.`.P.E.oX] c Q ] : b T O.>.L.Z.Z.Z.K.n.Z.Z.Z.i.l.l.t.n.Z.Z.J.J.J.U.J.K.J.J.Z.q.Z.Z.n.Z.J.K.n.Z.J.l.l.x.Z.Z.l.Z.K.T.Z.r.a.b.Z.q.L.K.K.9.(.n.p X.F 5 ",
"3 Q $.(.J.T.T.9.9.J.i.x.l.J.Z.Z.x.K.J.T.U.J.K.J.U.n.n.K.J.z.9.U.K.Z.U.%.i.Z.Z.Z.x.T.Z.x.l.i.l.T.i.S.t.i.j.n.n.J.n.i.x.[ H 9.L i B { V ,.Z.Z.Z.b.Z.l.q.t.U.q.i.Z.e.L.t.n.x.Z.Z.T.J.A.x.J.U.K.Z.Z.l.n.Z.t.J.S.J.l.Z.Z.i.l.x.q.Z.x.t.x.n.l.U.U.T.x.i.U.t.l._ m i 4 ",
"6 L Y R.J.q.9.U.q.%.T.x.L.Z.l.l.q.q.U.U.J.%.U.L.n.Z.Z.J.Z.K.J.U.Z.T.Z.i.Z.Z.Z.U.i.x.q.L.L.9.J.i.x.j.J.b.x.K.J.e.w.r.U.+.( A A 5 7 i L P T.x.Z.l.T.L.L.j.K.K.x.U.J.T.Z.i.x.Z.K.Z.n.Z.n.K.K.A.x.l.i.x.n.Z.K.l.l.l.Z.Z.t.i.%.Z.K.Z.n.Z.x.J.J.U.n.Z.K.t.!.a.c Q t.< ",
"P 5 M.i.T.U.K.U.i.L.Z.Z.L.l.Z.Z.i.x.l.T.i.U.T.J.K.Z.Z.U.J.%.J.Z.U.%.i.q.%.Z.5.l.L.l.q.J.x.J.Z.Z.U.t.Z.n.l.n.U.t.t.e.l.~ s ^ w i 2 B , *.l.Z.l.x.n.l.Z.Z.x.A.l.x.T.x.l.Z.5.t.l.n.x.n.Z.9.K.K.U.x.Z.n.x.n.l.n.t.t.Z.Z.Z.Z.U.T.Z.i.Z.x.n.J.9.%.x.t.L.J.w.c.o.c ~ u ",
"a g X.w.R.K.q.Z.i.J.Z.l.l.Z.A.q.J.t.q.L.x.%.J.%.K.K.K.J.J.A.J.U.Z.q.L.Z.Z.i.5.Z.%.R.L.%.6.K.K.Z.Z.J.x.J.x.Z.l.i.q.q.i.~ p Q s X 8 #.4 ..Z.x.Z.l.5.A.i.Z.Z.l.l.t.Z.q.n.l.K.U.l.Z.Z.A.L.T.l.i.K.K.n.t.n.n.i.x.l.x.l.l.Z.A.t.Z.Z.l.Z.x.l.i.q.i.Z.j.t.l.l.l.R p j : ",
"S i k.J.n.J.K.J.Z.Z.n.Z.J.K.Z.U.Z.Z.q.U.l.i.L.i.U.K.J.K.J.9.K.L.U.t.t.Z.q.q.q.L.i.;.T.L.q.K.U.Z.Z.n.Z.n.Z.Z.x.i.q.i.T.| A o.Q X 8 ] 1 ,.i.l.i.Z.Z.l.A.U.i.x.l.i.n.x.Z.5.U.5.U.Z.%.q.Z.U.A.q.Z.K.t.5.t.J.i.Z.l.Z.Z.i.Z.i.Z.q.A.q.i.x.i.L.J.q.l.i.e.T.l.Z.^ $.Q < ",
"3 a (.!.J.K.q.x.J.A.Z.Z.A.J.Z.T.L.x.i.K.Z.l.x.T.n.K.A.A.J.J.l.T.%.U.Z.L.t.q.l.U.T.%.q.t.q.%.l.Z.a.l.i.i.Z.J.i.t.t.t.i.X.u 3.j $ 8 ..i >.i.i.i.x.Z.x.x.q.Z.l.t.Z.i.l.i.q.i.%.L.l.t.t.i.K.L.q.T.q.n.Z.J.A.i.Z.i.x.J.x.L.l.q.Z.i.l.i.l.x.Z.L.t.a.l.t.t.K.i.A.R s + ",
"3 f M.(.q.K.t.l.i.n.T.K.U.A.x.T.l.Z.l.Z.x.l.q.x.J.J.U.J.K.K.K.q.q.K.%.U.U.5.l.%.t.%.q.t.t.l.l.i.i.i.t.q.J.%.i.i.;.i.T.#.R u.Q 1 # I z v.T.i.Z.l.i.l.t.Z.i.l.Z.5.l.t.U.t.q.i.l.a.A.i.L.Z.5.5.i.t.q.l.q.J.Z.x.x.Z.Z.L.U.l.l.q.i.t.i.i.i.Z.Z.Z.i.i.T.5.L.T.z.* 3 X ",
"8 i {.K.T.n.l.n.l.A.A.T.U.t.K.Z.x.l.x.Z.T.Z.l.Z.Z.q.Z.Z.K.J.A.U.5.T.Z.%.q.Z.%.L.t.%.U.x.t.t.t.i.i.q.i.q.t.l.l.i.i.Z.q.9.^ c.Q $ 2 | h ..i.i.q.i.Z.l.Z.K.q.x.Z.x.l.Z.i.Z.i.%.T.q.q.K.q.5.Z.q.5.q.i.J.q.K.i.t.l.L.l.a.K.i.%.q.T.t.i.i.x.q.Z.i.i.i.T.Z.U.l.x.#.^ o ",
"M ^ @XJ.Z.Z.i.n.5.n.n.U.L.a.x.l.i.l.l.l.Z.i.a.x.l.n.K.T.t.A.U.A.Z.Z.K.L.A.q.%.i.A.i.t.t.t.q.t.l.q.q.T.Z.%.n.5.i.J.q.T.T.J 5.i $ 7 ;.b  .Z.j.q.t.U.l.l.Z.A.Z.x.i.x.Z.x.J.Z.K.L.5.q.K.U.x.i.q.i.%.l.Z.l.i.Z.5.a.n.Z.l.l.x.Z.T.K.i.q.i.l.x.q.%.i.i.x.n.e.T.Z.^ R 5 ",
"M j }.Z.J.n.t.i.Z.K.9.K.q.j.i.l.q.x.Z.q.Z.J.Z.n.l.n.%.q.5.i.q.Z.K.K.t.U.A.U.5.Z.t.q.t.L.t.t.i.q.i.U.i.q.q.q.L.t.A.i.q.i.n 9.s 1 6 #.1  .x.x.x.q.x.A.Z.Z.Z.Z.Z.q.l.Z.i.T.i.Z.T.L.%.q.q.Z.Z.i.q.Z.Z.n.l.Z.l.x.x.l.i.Z.Z.Z.L.Z.q.K.t.i.i.l.i.q.a.5.K.T.J.t.T.@.A 4 ",
"V # h x.j.t.q.n.n.Z.t.i.i.t.i.l.q.5.l.l.Z.a.Z.l.U.t.9.q.Z.q.Z.t.Z.U.Z.A.U.i.q.5.i.L.%.t.5.5.i.i.q.i.x.i.i.Z.q.x.q.q.q.U.i o.Z % ; ] K !.9.x.x.i.t.q.Z.i.x.Z.J.i.l.l.l.L.J.L.L.Z.i.Z.Z.%.l.l.T.l.i.l.n.n.l.t.Z.n.Z.Z.l.J.K.Z.T.5.q.i.K.q.i.q.t.%.U.U.S.t.b.$.r i ",
"; ; j Z.i.l.T.T.i.L.x.i.i.J.l.x.l.i.l.L.%.Z.i.i.5.A.5.t.q.5.K.t.t.q.U.5.T.t.t.n.5.L.q.5.t.q.U.t.t.i.Z.q.q.t.q.q.t.n.U.w.c 3.C > 3 ] K #.i.i.l.9.Z.i.Z.J.J.i.q.A.l.l.i.Z.K.q.5.T.%.i.q.Z.Z.x.Z.L.Z.l.l.Z.x.Z.Z.T.U.Z.L.L.L.l.q.i.t.i.i.t.%.q.t.q.%.l.Z.Z.l.j 1 $ ",
"; 3 b S.x.Z.x.x.Z.Z.l.i.5.l.Z.i.l.q.K.T.%.%.x.q.Z.t.U.q.L.U.L.U.U.U.L.K.t.Z.q.q.U.J.K.5.q.l.t.t.l.i.q.q.q.i.T.i.x.q.L.).k ~ A < 7 ;.< v.x.x.i.%.l.L.L.Z.i.K.T.l.A.l.A.A.T.T.9.T.T.t.i.i.a.K.J.Z.Z.Z.l.x.L.Z.Z.Z.L.t.i.a.l.t.q.l.x.t.q.l.%.t.Z.t.L.U.Z.i. .~ < $ ",
"7 +.h Z.Z.i.q.K.Z.i.Z.q.q.q.Z.i.q.K.J.i.i.t.t.t.%.x.K.L.T.%.i.L.K.t.U.T.Z.U.%.5.T.J.q.i.q.Z.q.x.i.i.J.q.L.q.q.q.q.b.R.n.n ( I 1 2 ) I ,.l.l.i.q.L.L.T.L.5.Z.L.%.l.l.q.T.A.L.U.%.L.q.%.9.Z.J.Z.l.l.Z.Z.l.Z.x.l.Z.Z.Z.t.i.i.L.q.q.U.q.T.5.L.T.%.5.U.t.%.T.n.I d $ ",
"6 S ).i.x.l.i.Z.J.i.t.L.x.i.Z.a.%.%.q.t.q.q.q.Z.q.Z.%.Z.t.q.5.l.%.t.U.U.U.U.x.5.K.l.%.L.U.x.q.l.i.i.i.L.U.5.i.q.U.w.n.q.A Z L $ 3 j 7 l.K.l.q.i.T.L.J.L.J.Z.l.q.%.i.Z.U.A.T.5.5.Z.Z.J.T.K.l.x.Z.Z.x.5.x.Z.x.Z.i.q.t.l.x.t.q.q.t.5.q.K.U.i.%.q.%.q.T.T.i.R.p a $ ",
"d g oXi.x.i.x.l.l.%.L.%.i.J.Z.q.%.L.q.q.%.t.l.L.q.%.q.5.t.t.5.t.9.q.t.n.9.9.%.9.q.q.U.T.Z.J.U.J.q.q.q.t.5.T.q.q.e.a.t.l.Q ! f X 2 Y W l.j.x.x.l.i.A.t.U.q.L.Z.Z.A.i.T.J.9.n.9.J.L.S.L.%.q.Z.Z.Z.l.l.i.l.x.Z.q.l.t.Z.%.5.q.i.i.q.5.T.%.U.q.5.q.%.T.L.T.T.t.e.5 $ ",
"3 d J.n.l.q.q.i.U.i.Z.L.t.q.i.5.i.T.T.%.q.%.t.L.Z.U.%.t.U.i.t.x.t.U.q.Z.U.9.U.9.q.q.q.5.L.t.T.Z.x.t.t.t.q.;.5.q.q.t.r.J.E X.A i 3 | P b.Z.x.i.A.A.Z.K.A.x.i.q.q.Z.t.L.n.K.i.t.L.L.Z.l.T.q.i.x.x.x.Z.x.i.i.i.i.5.l.i.l.i.t.q.i.5.%.q.t.i.%.t.%.T.K.L.T.T.).$.c > ",
"a i _.b.i.J.5.q.i.J.Z.q.q.A.l.5.t.l.l.K.t.T.Z.t.l.l.x.Z.L.q.q.%.i.q.q.T.9.9.l.w.l.T.x.t.q.x.L.Z.J.T.%.U.A.a.K.U.q.i.Z.x.~ R j : ; #.I Z.T.j.T.T.U.J.x.l.l.%.T.Z.Z.x.U.U.T.A.Z.U.Z.J.i.J.q.Z.l.x.x.Z.x.Z.i.i.q.5.t.l.i.t.q.q.5.q.t.L.l.%.5.q.%.K.U.%.0.L.U.%Xh > ",
"7 ..U.e.T.A.Z.q.A.L.J.i.t.t.A.q.%.x.i.t.L.K.t.l.t.Z.t.L.q.i.t.i.i.;.w.t.9.q.5.j.i.i.i.5.i.5.i.%.q.5.%.q.J.9.q.U.l.q.q.t.t.7.e.$ j ~ j Z.T.x.S.J.J.Z.Z.x.l.J.Z.i.x.5.U.n.i.A.T.J.%.l.l.L.i.x.Z.x.l.l.l.i.x.i.i.i.l.l.t.i.i.J.q.5.U.L.x.5.U.5.%.5.U.K.e.U.w.%X- : ",
"4  .).T.e.n.Z.l.U.5.i.q.w.U.t.5.T.i.t.x.q.L.b.t.K.A.Z.Z.Z.q.U.t.t.t.e.t.9.T.x.i.x.n.9.i.S.i.J.w.A.i.T.L.q.%.T.9.q.t.x.f.k.3.X.i d w.g !.U.T.x.q.5.i.K.%.Z.Z.l.x.n.n.a.J.Z.K.U.T.U.x.Z.x.n.n.J.L.Z.x.x.Z.l.x.x.l.l.l.i.q.Z.i.9.q.5.U.K.q.r.U.U.i.T.U.;.T.i.+X| $ ",
"g | U.U.n.Z.n.n.i.t.K.t.t.i.e.t.q.r.i.t.l.l.l.(.i.5.t.l.i.i.l.i.t.w.t.q.q.t.i.j.t.l.j.i.i.x.t.J.i.i.i.Z.%.%.L.i.q.t.n.K.| ! A X { Z.T.S.U.U.l.c.5.Z.Z.Z.x.J.J.l.t.U.n.q.n.n.x.n.l.Z.J.J.U.n.S.J.Z.x.Z.l.x.%.Z.%.5.i.i.A.n.t.t.q.q.5.T.;.9.9.q.q.T.9.T.T.).| Q w ",
"8  .U.j.l.K.l.i.l.b.P.a.q.9.t.i.Z.l.L.x.n.x.J.U.T.T.Z.T.R.;.i.q.R.t.l.t.J.b.x.x.x.i.i.t.x.t.w.j.i.i.q.q.q.T.T.q.e.J.t.U.F.A Q w h S t.L.U.L.S.q.Z.l.Z.Z.J.l.K.K.e.U.K.t.K.x.T.l.T.j.b.S.l.S.q.n.t.q.L.x.Z.Z.i.Z.e.l.U.n.A.U.9.5.t.Z.i.l.5.t.t.T.%.9.T.T.R.9.i < ",
"7 #.L.n.J.n.x.n.b.l.z.l.Z.n.C N s j n.S.).x.(.w.K.U.L.S.t.q.t.[.l.C C Z h d a s ].x.(.n.n.K.x.-.l.Z.Z.q.T.q.l.i.w.t.l.).L X.^ < N V.).T.0.!.U.K.T.t.q.Z.K.T.Z.q.l.(.J.x.x.T.t.l.T.x.l.t.r.r.J.a q.K.i.Z.Z.Z.K.l.J.i.l.T.q.T.T.9.5.q.q.t.t.9.t.9.q.9.K.i.t.Z A < ",
"i &.n.b.x.a.Z.i.v.{.4 p u * * # & * u a h h v.s A C a =.Z.@XK < u * p * u * < & h i s h j s h h h c h c I U h t. .I h C #.X.| 4 8 g.J.).K.U.(.w.q.Z.Z.K.T.(.T.l.).U.] K.-.D ..h I h ~ h s i d h a ;.Z.x.Z.b.k.x.l.t.t.i.l.j.a.K.i.K.L.t.0.9.9.q.T.U.U.a.{.A ! $ ",
"U S @XL.K.U.U.).s u & & * # u p * i 4 3 a s A u * =.e.C k e & 1 * u s s 4 4 p n i p c i u n c k k m h f d w p < i k l +.$.Y.$.: M O.[ ;.{.].Z._._.U.T.(._.] Z 1 h i p i [ Z F W d i E / k J p n ^ p u u d %...Z.z.J.x.n.Z.x.x.i.i.n.x.).).).).i.].z.n.K.%Xc.#.: ",
"T Z d A & # f & s ! F u # - - * - # * & a 4 - # a * i , < i h < g a 5 a 4 5 5 4 s 4 i 5 i i i i i i u h Z Z 4 Z u C c Z i Z I , # A a i ( Q i c h Z c i p ] ^ a.c C A ~ A i i Z a c h Z i p s i a s 5 d b j i R p A p i i p j Q h c C i i A [ A L b c c A s A * ",
"3 3 4 X X o * # # # = # # # # @ @ - @ = = # # # # O # O O O 2 3 = - @ @ - & O # # + X . + .     .   &   &   & . & & & # & + 3 j . # X # X . X o X & X o X o X o X o o &   . o     & & & # & + . . X o o & . : , X X X X o $ $ * . X . o . * * X 4 . #   o # # % "
};
